GiorgioMedico/spline/trajectory.csv
,J1,J2,J3,J4,J5,J6
0,-1.5594843626022339,-0.7619946002960205,-1.766157627105713,-2.3697214126586914,1.5646682977676392,0.004149119835346937
1,-1.5595128536224365,-0.7619659304618835,-1.7661852836608887,-2.369615077972412,1.5646946430206299,0.0040824757888913155
2,-1.55954110622406,-0.7619373798370361,-1.7662129402160645,-2.369509220123291,1.5647212266921997,0.0040160613134503365
3,-1.5595697164535522,-0.761908769607544,-1.7662408351898193,-2.3694028854370117,1.5647475719451904,0.003949265461415052
4,-1.5595979690551758,-0.7618802189826965,-1.7662684917449951,-2.3692967891693115,1.5647741556167603,0.003882880788296461
5,-1.559626579284668,-0.7618516683578491,-1.7662960290908813,-2.3691904544830322,1.56480073928833,0.0038161715492606163
6,-1.5596548318862915,-0.7618229985237122,-1.7663238048553467,-2.369084596633911,1.5648272037506104,0.00374978338368237
7,-1.5596833229064941,-0.7617945075035095,-1.7663512229919434,-2.36897873878479,1.5648536682128906,0.0036831293255090714
8,-1.5597118139266968,-0.7617658376693726,-1.7663792371749878,-2.3688724040985107,1.5648800134658813,0.00361647573299706
9,-1.5597401857376099,-0.7617372870445251,-1.766406536102295,-2.3687665462493896,1.5649067163467407,0.0035500256344676018
10,-1.559768795967102,-0.761708676815033,-1.7664344310760498,-2.3686602115631104,1.564933180809021,0.003483251202851534
11,-1.5597972869873047,-0.7616800665855408,-1.7664620876312256,-2.36855411529541,1.5649597644805908,0.0034166243858635426
12,-1.5598255395889282,-0.7616515159606934,-1.7664897441864014,-2.36844801902771,1.5649863481521606,0.0033502571750432253
13,-1.5598541498184204,-0.761622965335846,-1.7665176391601562,-2.3683419227600098,1.565012812614441,0.003283509286120534
14,-1.5598827600479126,-0.7615944743156433,-1.766545057296753,-2.3682358264923096,1.5650395154953003,0.003216819604858756
15,-1.5599111318588257,-0.7615658044815063,-1.7665728330612183,-2.3681299686431885,1.5650659799575806,0.003150303615257144
16,-1.5599396228790283,-0.7615373134613037,-1.7666003704071045,-2.3680238723754883,1.5650925636291504,0.003083728486672044
17,-1.559968113899231,-0.7615087032318115,-1.7666285037994385,-2.36791729927063,1.5651191473007202,0.0030170632526278496
18,-1.5599967241287231,-0.7614802122116089,-1.7666560411453247,-2.3678109645843506,1.5651458501815796,0.0029503677505999804
19,-1.5600253343582153,-0.7614516019821167,-1.7666836977005005,-2.3677051067352295,1.5651723146438599,0.002883641514927149
20,-1.5600535869598389,-0.7614229917526245,-1.7667113542556763,-2.3675992488861084,1.5651990175247192,0.0028172670863568783
21,-1.5600823163986206,-0.7613945603370667,-1.7667391300201416,-2.367492914199829,1.5652257204055786,0.0027504214085638523
22,-1.5601106882095337,-0.7613658905029297,-1.7667667865753174,-2.367387056350708,1.5652523040771484,0.002683958038687706
23,-1.5601394176483154,-0.7613373398780823,-1.7667946815490723,-2.3672807216644287,1.5652788877487183,0.0026170790661126375
24,-1.5601680278778076,-0.7613089084625244,-1.766822099685669,-2.3671746253967285,1.5653055906295776,0.002550405915826559
25,-1.5601965188980103,-0.7612802386283875,-1.7668499946594238,-2.367068290710449,1.565332293510437,0.0024838512763381004
26,-1.560225248336792,-0.7612517476081848,-1.7668778896331787,-2.366962194442749,1.5653588771820068,0.0024170279502868652
27,-1.5602537393569946,-0.7612231969833374,-1.766905426979065,-2.3668558597564697,1.5653856992721558,0.002350439550355077
28,-1.5602824687957764,-0.7611948251724243,-1.7669330835342407,-2.3667500019073486,1.5654122829437256,0.002283586887642741
29,-1.5603107213974,-0.7611661553382874,-1.7669610977172852,-2.3666436672210693,1.565438985824585,0.002217230387032032
30,-1.5603395700454712,-0.7611376643180847,-1.7669885158538818,-2.366537570953369,1.5654655694961548,0.002150285756215453
31,-1.5603679418563843,-0.7611090540885925,-1.7670164108276367,-2.366431713104248,1.5654922723770142,0.0020838400814682245
32,-1.5603967905044556,-0.7610806226730347,-1.767043948173523,-2.366325616836548,1.565519094467163,0.0020169548224657774
33,-1.5604254007339478,-0.7610520124435425,-1.7670718431472778,-2.3662192821502686,1.5655457973480225,0.001950239995494485
34,-1.56045401096344,-0.7610235214233398,-1.7670996189117432,-2.3661131858825684,1.5655726194381714,0.0018836454255506396
35,-1.5604826211929321,-0.7609949707984924,-1.767127513885498,-2.366006851196289,1.5655994415283203,0.0018168999813497066
36,-1.5605113506317139,-0.7609665393829346,-1.7671549320220947,-2.365900993347168,1.5656261444091797,0.0017501256661489606
37,-1.560539960861206,-0.7609379291534424,-1.7671830654144287,-2.3657944202423096,1.5656529664993286,0.0016834379639476538
38,-1.5605684518814087,-0.760909378528595,-1.7672107219696045,-2.3656883239746094,1.5656795501708984,0.0016168071888387203
39,-1.5605974197387695,-0.7608810067176819,-1.7672383785247803,-2.365582227706909,1.565706491470337,0.0015498839784413576
40,-1.5606260299682617,-0.7608524560928345,-1.7672661542892456,-2.36547589302063,1.5657331943511963,0.001483192783780396
41,-1.560654640197754,-0.7608239650726318,-1.767293930053711,-2.3653697967529297,1.5657600164413452,0.0014164698077365756
42,-1.5606833696365356,-0.7607954144477844,-1.7673218250274658,-2.3652637004852295,1.5657868385314941,0.001349689089693129
43,-1.5607118606567383,-0.760766863822937,-1.7673496007919312,-2.36515736579895,1.565813660621643,0.0012832009233534336
44,-1.5607408285140991,-0.7607383728027344,-1.7673773765563965,-2.36505126953125,1.565840482711792,0.001216122298501432
45,-1.5607695579528809,-0.7607099413871765,-1.7674052715301514,-2.3649449348449707,1.565867304801941,0.0011493966449052095
46,-1.560798168182373,-0.7606815099716187,-1.7674328088760376,-2.3648388385772705,1.5658941268920898,0.0010826990474015474
47,-1.5608270168304443,-0.7606529593467712,-1.767460584640503,-2.3647327423095703,1.5659210681915283,0.0010158236837014556
48,-1.5608556270599365,-0.7606245279312134,-1.7674883604049683,-2.36462664604187,1.5659478902816772,0.0009491519303992391
49,-1.5608843564987183,-0.760595977306366,-1.7675161361694336,-2.364520311355591,1.5659749507904053,0.0008823919924907386
50,-1.5609129667282104,-0.7605674266815186,-1.7675440311431885,-2.3644142150878906,1.5660016536712646,0.0008157176780514419
51,-1.5609419345855713,-0.7605390548706055,-1.7675719261169434,-2.3643078804016113,1.5660285949707031,0.0007487212424166501
52,-1.560970664024353,-0.7605106234550476,-1.76759934425354,-2.3642020225524902,1.5660555362701416,0.0006820469279773533
53,-1.5609995126724243,-0.760482132434845,-1.767627477645874,-2.364095687866211,1.5660823583602905,0.0006151352426968515
54,-1.5610281229019165,-0.7604536414146423,-1.7676551342010498,-2.3639893531799316,1.5661091804504395,0.000548515934497118
55,-1.5610568523406982,-0.7604252099990845,-1.7676829099655151,-2.3638832569122314,1.5661362409591675,0.0004817793960683048
56,-1.561085820198059,-0.7603967785835266,-1.7677109241485596,-2.363776922225952,1.5661633014678955,0.000414775509852916
57,-1.5611146688461304,-0.7603683471679688,-1.7677385807037354,-2.363670587539673,1.5661901235580444,0.00034794866223819554
58,-1.561143398284912,-0.7603398561477661,-1.7677663564682007,-2.3635647296905518,1.566217064857483,0.000281088228803128
59,-1.5611720085144043,-0.7603112459182739,-1.7677942514419556,-2.3634583950042725,1.5662440061569214,0.0002144932805094868
60,-1.5612010955810547,-0.7602828741073608,-1.7678221464157104,-2.363352060317993,1.5662709474563599,0.00014745688531547785
61,-1.5612295866012573,-0.7602543234825134,-1.7678499221801758,-2.363245725631714,1.5662978887557983,8.085825538728386e-05
62,-1.5612585544586182,-0.7602259516716003,-1.7678778171539307,-2.3631396293640137,1.5663249492645264,1.3907579159422312e-05
63,-1.5612872838974,-0.7601974606513977,-1.7679057121276855,-2.3630332946777344,1.5663520097732544,-5.277950913296081e-05
64,-1.5613162517547607,-0.7601690292358398,-1.7679333686828613,-2.362927198410034,1.5663789510726929,-0.00011979162081843242
65,-1.561345100402832,-0.760140597820282,-1.7679612636566162,-2.362820863723755,1.566406011581421,-0.00018662954971659929
66,-1.5613738298416138,-0.7601121664047241,-1.7679890394210815,-2.3627145290374756,1.566433072090149,-0.000253350124694407
67,-1.5614029169082642,-0.7600836753845215,-1.7680168151855469,-2.3626086711883545,1.566460132598877,-0.00032036405173130333
68,-1.561431884765625,-0.7600553035736084,-1.7680447101593018,-2.362502098083496,1.566487193107605,-0.0003873826062772423
69,-1.5614604949951172,-0.760026752948761,-1.7680728435516357,-2.362395763397217,1.566514253616333,-0.0004540193185675889
70,-1.561489462852478,-0.7599984407424927,-1.768100380897522,-2.3622896671295166,1.5665411949157715,-0.0005208897637203336
71,-1.5615183115005493,-0.7599700093269348,-1.7681281566619873,-2.3621835708618164,1.5665682554244995,-0.0005877639050595462
72,-1.5615473985671997,-0.7599415183067322,-1.7681562900543213,-2.362076997756958,1.5665953159332275,-0.0006547545199282467
73,-1.5615761280059814,-0.7599130868911743,-1.7681843042373657,-2.3619706630706787,1.5666224956512451,-0.0007215122459456325
74,-1.5616049766540527,-0.7598845958709717,-1.768212080001831,-2.3618645668029785,1.5666496753692627,-0.0007883305079303682
75,-1.5616340637207031,-0.7598561644554138,-1.768239974975586,-2.361758232116699,1.5666767358779907,-0.0008554140804335475
76,-1.5616627931594849,-0.759827733039856,-1.7682677507400513,-2.361652135848999,1.5667037963867188,-0.0009221457876265049
77,-1.5616917610168457,-0.7597993612289429,-1.7682956457138062,-2.3615458011627197,1.5667309761047363,-0.0009890551446005702
78,-1.561720609664917,-0.759770929813385,-1.7683236598968506,-2.3614394664764404,1.566758155822754,-0.0010558771900832653
79,-1.5617496967315674,-0.7597424983978271,-1.7683513164520264,-2.3613333702087402,1.5667853355407715,-0.0011228761868551373
80,-1.5617786645889282,-0.7597141265869141,-1.7683794498443604,-2.361227035522461,1.5668123960494995,-0.0011898785596713424
81,-1.56180739402771,-0.759685754776001,-1.7684071063995361,-2.3611207008361816,1.566839575767517,-0.0012565283104777336
82,-1.5618363618850708,-0.7596572637557983,-1.7684351205825806,-2.3610146045684814,1.5668667554855347,-0.0013234125217422843
83,-1.5618653297424316,-0.7596288323402405,-1.768463134765625,-2.360908269882202,1.5668938159942627,-0.0013903573853895068
84,-1.5618940591812134,-0.7596004605293274,-1.7684907913208008,-2.360802173614502,1.5669211149215698,-0.0014570712810382247
85,-1.5619233846664429,-0.7595720291137695,-1.7685186862945557,-2.3606958389282227,1.566948413848877,-0.0015242825029417872
86,-1.5619521141052246,-0.7595435976982117,-1.7685465812683105,-2.3605895042419434,1.566975474357605,-0.0015910258516669273
87,-1.5619810819625854,-0.7595152258872986,-1.7685744762420654,-2.360483169555664,1.567002773284912,-0.0016579775838181376
88,-1.5620100498199463,-0.7594867944717407,-1.7686024904251099,-2.360377073287964,1.5670299530029297,-0.001724838512018323
89,-1.5620391368865967,-0.7594585418701172,-1.7686302661895752,-2.3602707386016846,1.5670572519302368,-0.0017918493831530213
90,-1.5620681047439575,-0.7594300508499146,-1.7686582803726196,-2.3601644039154053,1.567084550857544,-0.0018587447702884674
91,-1.5620970726013184,-0.7594016790390015,-1.7686861753463745,-2.360058069229126,1.567111849784851,-0.0019256999948993325
92,-1.5621261596679688,-0.7593733668327332,-1.7687139511108398,-2.3599517345428467,1.5671390295028687,-0.0019926847890019417
93,-1.5621551275253296,-0.7593449354171753,-1.7687419652938843,-2.3598453998565674,1.5671663284301758,-0.002059551887214184
94,-1.5621840953826904,-0.7593165636062622,-1.7687698602676392,-2.359739065170288,1.567193627357483,-0.002126482082530856
95,-1.5622130632400513,-0.7592881917953491,-1.768797755241394,-2.359632730484009,1.56722092628479,-0.002193381078541279
96,-1.5622421503067017,-0.7592597007751465,-1.7688260078430176,-2.3595263957977295,1.5672482252120972,-0.002260339679196477
97,-1.5622711181640625,-0.7592312693595886,-1.7688539028167725,-2.35942006111145,1.5672755241394043,-0.0023272735998034477
98,-1.562300205230713,-0.7592028975486755,-1.7688817977905273,-2.359313726425171,1.5673028230667114,-0.0023942647967487574
99,-1.5623291730880737,-0.7591745257377625,-1.7689096927642822,-2.3592076301574707,1.567330241203308,-0.002461170544847846
100,-1.5623582601547241,-0.7591462135314941,-1.768937587738037,-2.3591015338897705,1.5673575401306152,-0.002528163604438305
101,-1.562387228012085,-0.759117841720581,-1.768965482711792,-2.358994960784912,1.5673848390579224,-0.002595070283859968
102,-1.5624163150787354,-0.759089469909668,-1.7689933776855469,-2.358888864517212,1.567412257194519,-0.002662068232893944
103,-1.5624452829360962,-0.7590610980987549,-1.7690212726593018,-2.3587825298309326,1.5674395561218262,-0.0027288871351629496
104,-1.5624746084213257,-0.7590327858924866,-1.7690494060516357,-2.3586761951446533,1.5674669742584229,-0.002796149579808116
105,-1.562503695487976,-0.7590044140815735,-1.7690773010253906,-2.358569860458374,1.5674943923950195,-0.0028631214518100023
106,-1.5625325441360474,-0.7589759826660156,-1.7691054344177246,-2.3584632873535156,1.5675216913223267,-0.0029299166053533554
107,-1.5625616312026978,-0.7589476704597473,-1.7691333293914795,-2.3583569526672363,1.5675489902496338,-0.0029968887101858854
108,-1.5625910758972168,-0.7589194178581238,-1.7691609859466553,-2.358250856399536,1.56757652759552,-0.0030642144847661257
109,-1.5626198053359985,-0.7588909268379211,-1.7691893577575684,-2.3581442832946777,1.5676039457321167,-0.0031308361794799566
110,-1.562649130821228,-0.7588626742362976,-1.7692170143127441,-2.3580381870269775,1.567631483078003,-0.003198047401383519
111,-1.5626780986785889,-0.7588343024253845,-1.7692451477050781,-2.357931613922119,1.5676589012145996,-0.003264936152845621
112,-1.5627071857452393,-0.7588059306144714,-1.769273042678833,-2.35782527923584,1.5676863193511963,-0.0033318859059363604
113,-1.5627362728118896,-0.7587774395942688,-1.769301176071167,-2.3577191829681396,1.5677138566970825,-0.003398835426196456
114,-1.5627652406692505,-0.7587491869926453,-1.7693290710449219,-2.3576126098632812,1.5677411556243896,-0.0034657276701182127
115,-1.5627942085266113,-0.7587207555770874,-1.7693570852279663,-2.357506513595581,1.5677686929702759,-0.00353253330104053
116,-1.5628236532211304,-0.7586925029754639,-1.7693850994110107,-2.3573999404907227,1.5677963495254517,-0.003599807620048523
117,-1.5628526210784912,-0.758664071559906,-1.7694129943847656,-2.3572938442230225,1.5678237676620483,-0.0036667336244136095
118,-1.5628817081451416,-0.7586358189582825,-1.7694411277770996,-2.357187509536743,1.5678513050079346,-0.0037336298264563084
119,-1.562911033630371,-0.7586075663566589,-1.7694690227508545,-2.3570809364318848,1.5678788423538208,-0.0038008210249245167
120,-1.5629401206970215,-0.7585791349411011,-1.769497036933899,-2.3569748401641846,1.567906379699707,-0.0038677190896123648
121,-1.562969446182251,-0.7585509419441223,-1.7695250511169434,-2.356868267059326,1.5679339170455933,-0.003934942185878754
122,-1.5629985332489014,-0.7585224509239197,-1.7695531845092773,-2.3567616939544678,1.5679614543914795,-0.004001873079687357
123,-1.5630275011062622,-0.7584941983222961,-1.7695810794830322,-2.3566555976867676,1.5679888725280762,-0.0040687741711735725
124,-1.5630565881729126,-0.7584658861160278,-1.7696090936660767,-2.3565495014190674,1.568016529083252,-0.004135646391659975
125,-1.563085913658142,-0.7584375143051147,-1.7696372270584106,-2.35644268989563,1.5680440664291382,-0.004202846437692642
126,-1.5631150007247925,-0.7584091424942017,-1.7696651220321655,-2.356336832046509,1.5680716037750244,-0.004269750788807869
127,-1.5631440877914429,-0.7583808898925781,-1.76969313621521,-2.3562302589416504,1.5680992603302002,-0.004336747340857983
128,-1.5631734132766724,-0.7583525776863098,-1.769721269607544,-2.356123924255371,1.568126916885376,-0.004403859842568636
129,-1.5632025003433228,-0.7583242654800415,-1.7697492837905884,-2.3560173511505127,1.5681544542312622,-0.004470798186957836
130,-1.5632318258285522,-0.7582959532737732,-1.7697772979736328,-2.3559110164642334,1.568182110786438,-0.004537942353636026
131,-1.563260793685913,-0.7582675814628601,-1.7698051929473877,-2.355804920196533,1.5682097673416138,-0.004604796878993511
132,-1.5632898807525635,-0.7582392692565918,-1.7698333263397217,-2.355698347091675,1.5682373046875,-0.004671706818044186
133,-1.5633193254470825,-0.7582110166549683,-1.7698613405227661,-2.3555920124053955,1.5682650804519653,-0.004739032592624426
134,-1.563348412513733,-0.7581827044487,-1.7698893547058105,-2.355485439300537,1.5682928562164307,-0.004805857315659523
135,-1.5633777379989624,-0.7581544518470764,-1.7699174880981445,-2.355379343032837,1.5683202743530273,-0.004873036406934261
136,-1.5634068250656128,-0.7581260204315186,-1.7699456214904785,-2.3552727699279785,1.5683480501174927,-0.004940014332532883
137,-1.5634361505508423,-0.7580977082252502,-1.7699737548828125,-2.355166435241699,1.568375825881958,-0.005007046274840832
138,-1.563464879989624,-0.7580692768096924,-1.7700016498565674,-2.35506010055542,1.5684033632278442,-0.005073612555861473
139,-1.5634945631027222,-0.7580412030220032,-1.7700297832489014,-2.3549537658691406,1.5684312582015991,-0.005141121335327625
140,-1.5635236501693726,-0.7580128908157349,-1.7700575590133667,-2.3548476696014404,1.568458914756775,-0.0052080415189266205
141,-1.563552737236023,-0.7579845786094666,-1.7700855731964111,-2.354741096496582,1.5684865713119507,-0.005274992901831865
142,-1.5635820627212524,-0.7579562664031982,-1.7701137065887451,-2.3546347618103027,1.568514347076416,-0.005342031363397837
143,-1.5636115074157715,-0.7579280734062195,-1.770141839981079,-2.3545279502868652,1.5685421228408813,-0.0054092505015432835
144,-1.5636405944824219,-0.757899820804596,-1.770169973373413,-2.354421854019165,1.5685697793960571,-0.005476204678416252
145,-1.5636699199676514,-0.7578713893890381,-1.770198106765747,-2.3543152809143066,1.568597674369812,-0.005543336737900972
146,-1.5636990070343018,-0.7578431367874146,-1.7702261209487915,-2.3542091846466064,1.5686253309249878,-0.005610205233097076
147,-1.5637283325195312,-0.7578147649765015,-1.7702542543411255,-2.354102373123169,1.5686531066894531,-0.005677309352904558
148,-1.5637575387954712,-0.7577865123748779,-1.770282506942749,-2.3539960384368896,1.568681001663208,-0.005744297988712788
149,-1.5637867450714111,-0.7577582001686096,-1.770310401916504,-2.3538899421691895,1.5687087774276733,-0.005811288487166166
150,-1.5638161897659302,-0.7577300071716309,-1.770338535308838,-2.353783369064331,1.5687365531921387,-0.0058786021545529366
151,-1.5638452768325806,-0.7577016949653625,-1.7703664302825928,-2.353677272796631,1.5687644481658936,-0.005945476703345776
152,-1.563874363899231,-0.757673442363739,-1.7703945636749268,-2.3535706996917725,1.5687922239303589,-0.006012322381138802
153,-1.56390380859375,-0.7576451897621155,-1.7704229354858398,-2.353464126586914,1.5688201189041138,-0.006079521030187607
154,-1.563933253288269,-0.7576169371604919,-1.7704510688781738,-2.3533575534820557,1.5688480138778687,-0.006146751344203949
155,-1.5639622211456299,-0.7575885057449341,-1.7704790830612183,-2.3532512187957764,1.568875789642334,-0.006213542073965073
156,-1.5639917850494385,-0.7575603723526001,-1.7705072164535522,-2.353144884109497,1.5689038038253784,-0.006280832923948765
157,-1.5640209913253784,-0.7575320601463318,-1.7705352306365967,-2.3530385494232178,1.5689316987991333,-0.00634783087298274
158,-1.5640501976013184,-0.7575038075447083,-1.7705633640289307,-2.3529319763183594,1.5689594745635986,-0.006414832081645727
159,-1.5640796422958374,-0.7574756145477295,-1.7705914974212646,-2.35282564163208,1.5689873695373535,-0.006482006516307592
160,-1.5641088485717773,-0.7574471831321716,-1.7706196308135986,-2.3527190685272217,1.5690152645111084,-0.006549039855599403
161,-1.5641380548477173,-0.7574189305305481,-1.7706477642059326,-2.3526129722595215,1.5690431594848633,-0.006615922320634127
162,-1.5641673803329468,-0.7573907375335693,-1.7706758975982666,-2.352506399154663,1.5690710544586182,-0.006683103274554014
163,-1.5641968250274658,-0.7573625445365906,-1.7707040309906006,-2.3523998260498047,1.5690990686416626,-0.006750254426151514
164,-1.5642262697219849,-0.7573343515396118,-1.7707322835922241,-2.3522932529449463,1.569127082824707,-0.0068174367770552635
165,-1.5642552375793457,-0.7573060393333435,-1.7707600593566895,-2.352187156677246,1.5691550970077515,-0.006884148810058832
166,-1.5642846822738647,-0.7572777271270752,-1.7707884311676025,-2.3520805835723877,1.5691829919815063,-0.006951333489269018
167,-1.5643137693405151,-0.7572494149208069,-1.7708168029785156,-2.3519742488861084,1.5692108869552612,-0.007018225267529488
168,-1.5643432140350342,-0.7572212815284729,-1.7708449363708496,-2.351867437362671,1.5692389011383057,-0.007085353136062622
169,-1.5643726587295532,-0.7571930289268494,-1.7708728313446045,-2.3517611026763916,1.5692667961120605,-0.007152569014579058
170,-1.5644019842147827,-0.7571647763252258,-1.7709009647369385,-2.3516550064086914,1.569295048713684,-0.007219611667096615
171,-1.5644314289093018,-0.7571365833282471,-1.7709290981292725,-2.351548433303833,1.569322943687439,-0.007286770269274712
172,-1.5644605159759521,-0.7571083307266235,-1.770957350730896,-2.3514420986175537,1.5693509578704834,-0.007353638764470816
173,-1.5644899606704712,-0.7570800185203552,-1.7709856033325195,-2.351335287094116,1.5693789720535278,-0.007420800626277924
174,-1.5645192861557007,-0.7570517659187317,-1.7710137367248535,-2.351229190826416,1.5694071054458618,-0.007487846538424492
175,-1.5645484924316406,-0.7570235133171082,-1.7710418701171875,-2.3511226177215576,1.5694352388381958,-0.007554806303232908
176,-1.5645778179168701,-0.7569952607154846,-1.7710700035095215,-2.3510162830352783,1.5694632530212402,-0.0076218550093472
177,-1.5646072626113892,-0.7569671273231506,-1.7710981369018555,-2.350909948348999,1.5694911479949951,-0.007689021993428469
178,-1.5646363496780396,-0.7569387555122375,-1.7711262702941895,-2.3508033752441406,1.5695194005966187,-0.007755866274237633
179,-1.5646661520004272,-0.7569106817245483,-1.771154522895813,-2.3506968021392822,1.569547414779663,-0.007823298685252666
180,-1.564695119857788,-0.7568823099136353,-1.771182894706726,-2.350590467453003,1.5695754289627075,-0.007889998145401478
181,-1.5647245645523071,-0.7568541169166565,-1.7712111473083496,-2.3504838943481445,1.5696035623550415,-0.007957200519740582
182,-1.5647540092468262,-0.7568259239196777,-1.7712390422821045,-2.3503775596618652,1.569631814956665,-0.008024373091757298
183,-1.5647834539413452,-0.7567977905273438,-1.7712671756744385,-2.350270986557007,1.569659948348999,-0.008091455325484276
184,-1.5648128986358643,-0.7567694783210754,-1.7712955474853516,-2.3501644134521484,1.569688081741333,-0.00815863162279129
185,-1.5648419857025146,-0.7567412257194519,-1.7713236808776855,-2.350058078765869,1.569716215133667,-0.00822539534419775
186,-1.5648714303970337,-0.7567130923271179,-1.7713518142700195,-2.34995174407959,1.569744348526001,-0.008292600512504578
187,-1.5649007558822632,-0.7566847801208496,-1.7713799476623535,-2.3498454093933105,1.5697726011276245,-0.008359601721167564
188,-1.5649302005767822,-0.7566565871238708,-1.7714080810546875,-2.349738836288452,1.5698007345199585,-0.00842675007879734
189,-1.5649595260620117,-0.7566283345222473,-1.7714364528656006,-2.3496322631835938,1.5698288679122925,-0.008493753150105476
190,-1.5649887323379517,-0.7566000819206238,-1.7714648246765137,-2.3495256900787354,1.569857120513916,-0.008560610003769398
191,-1.5650180578231812,-0.756571888923645,-1.7714930772781372,-2.349419355392456,1.56988525390625,-0.008627675473690033
192,-1.5650476217269897,-0.7565436959266663,-1.7715213298797607,-2.3493127822875977,1.569913625717163,-0.00869485829025507
193,-1.5650770664215088,-0.7565155625343323,-1.7715494632720947,-2.3492062091827393,1.5699418783187866,-0.00876198336482048
194,-1.5651063919067383,-0.756487250328064,-1.7715777158737183,-2.34909987449646,1.5699700117111206,-0.008829021826386452
195,-1.5651358366012573,-0.7564589977264404,-1.7716059684753418,-2.3489933013916016,1.5699982643127441,-0.008896119892597198
196,-1.5651652812957764,-0.7564309239387512,-1.7716343402862549,-2.348886728286743,1.5700263977050781,-0.00896327756345272
197,-1.5651944875717163,-0.7564026117324829,-1.7716623544692993,-2.348780393600464,1.5700548887252808,-0.009030112996697426
198,-1.5652241706848145,-0.7563745975494385,-1.7716903686523438,-2.3486740589141846,1.5700831413269043,-0.0090974485501647
199,-1.5652532577514648,-0.7563462257385254,-1.771718978881836,-2.348567247390747,1.5701113939285278,-0.009164256975054741
200,-1.5652827024459839,-0.7563180923461914,-1.77174711227417,-2.3484609127044678,1.5701398849487305,-0.009231331758201122
201,-1.565312147140503,-0.7562898993492126,-1.771775245666504,-2.3483545780181885,1.570168137550354,-0.009298374876379967
202,-1.5653412342071533,-0.7562616467475891,-1.771803617477417,-2.34824800491333,1.5701963901519775,-0.009365216828882694
203,-1.5653709173202515,-0.7562333941459656,-1.771831750869751,-2.348141670227051,1.5702247619628906,-0.009432530961930752
204,-1.5654001235961914,-0.7562052607536316,-1.771860122680664,-2.3480348587036133,1.5702530145645142,-0.00949943158775568
205,-1.5654298067092896,-0.7561770677566528,-1.7718883752822876,-2.347928762435913,1.5702812671661377,-0.009566745720803738
206,-1.5654590129852295,-0.7561489343643188,-1.7719165086746216,-2.3478219509124756,1.5703097581863403,-0.009633650071918964
207,-1.5654884576797485,-0.7561207413673401,-1.7719449996948242,-2.3477156162261963,1.5703381299972534,-0.009700670838356018
208,-1.5655181407928467,-0.7560924887657166,-1.7719731330871582,-2.347609043121338,1.570366621017456,-0.009767929092049599
209,-1.565547227859497,-0.7560642957687378,-1.7720013856887817,-2.3475024700164795,1.5703948736190796,-0.009834718890488148
210,-1.5655767917633057,-0.7560361623764038,-1.7720297574996948,-2.3473961353302,1.5704233646392822,-0.00990186259150505
211,-1.5656062364578247,-0.7560080289840698,-1.772058129310608,-2.3472893238067627,1.5704517364501953,-0.009968978352844715
212,-1.5656355619430542,-0.7559797763824463,-1.7720863819122314,-2.3471829891204834,1.5704801082611084,-0.010035975836217403
213,-1.5656650066375732,-0.7559515833854675,-1.7721145153045654,-2.347076416015625,1.570508599281311,-0.01010306365787983
214,-1.5656943321228027,-0.7559232711791992,-1.7721428871154785,-2.3469700813293457,1.5705370903015137,-0.010170008055865765
215,-1.5657238960266113,-0.7558952569961548,-1.772171139717102,-2.3468635082244873,1.5705654621124268,-0.010237153619527817
216,-1.5657533407211304,-0.7558670043945312,-1.7721996307373047,-2.34675669670105,1.570594072341919,-0.010304244235157967
217,-1.5657824277877808,-0.7558388113975525,-1.7722277641296387,-2.3466503620147705,1.570622444152832,-0.010370923206210136
218,-1.565812110900879,-0.7558106780052185,-1.7722558975219727,-2.346544027328491,1.5706508159637451,-0.010438223369419575
219,-1.565841555595398,-0.7557824850082397,-1.7722843885421753,-2.3464372158050537,1.5706793069839478,-0.010505377314984798
220,-1.565871000289917,-0.755754292011261,-1.772312879562378,-2.3463308811187744,1.5707077980041504,-0.01057235337793827
221,-1.565900206565857,-0.7557260394096375,-1.772341012954712,-2.346224308013916,1.5707364082336426,-0.01063921395689249
222,-1.565929889678955,-0.755698025226593,-1.772369384765625,-2.3461179733276367,1.5707647800445557,-0.010706515982747078
223,-1.565959095954895,-0.7556696534156799,-1.7723979949951172,-2.3460114002227783,1.5707935094833374,-0.01077326200902462
224,-1.5659887790679932,-0.7556416988372803,-1.7724261283874512,-2.345904588699341,1.57082200050354,-0.01084056869149208
225,-1.5660182237625122,-0.7556135058403015,-1.7724542617797852,-2.3457982540130615,1.5708504915237427,-0.010907608084380627
226,-1.5660477876663208,-0.7555854320526123,-1.7724826335906982,-2.345691680908203,1.5708789825439453,-0.010974828153848648
227,-1.5660772323608398,-0.7555571794509888,-1.7725111246109009,-2.3455851078033447,1.570907711982727,-0.011041810736060143
228,-1.5661065578460693,-0.75552898645401,-1.7725393772125244,-2.3454787731170654,1.5709362030029297,-0.011108766309916973
229,-1.5661357641220093,-0.7555007934570312,-1.7725677490234375,-2.345372200012207,1.5709648132324219,-0.011175459250807762
230,-1.5661654472351074,-0.7554726004600525,-1.7725961208343506,-2.3452656269073486,1.570993423461914,-0.011242831125855446
231,-1.566194772720337,-0.7554444670677185,-1.7726244926452637,-2.345158815383911,1.5710220336914062,-0.011309701018035412
232,-1.5662243366241455,-0.7554163336753845,-1.7726526260375977,-2.345052480697632,1.5710506439208984,-0.01137680932879448
233,-1.566253662109375,-0.7553881406784058,-1.7726811170578003,-2.3449461460113525,1.5710793733596802,-0.011443831026554108
234,-1.5662833452224731,-0.7553600072860718,-1.7727094888687134,-2.344839334487915,1.5711079835891724,-0.011510970070958138
235,-1.566312551498413,-0.7553318738937378,-1.7727378606796265,-2.3447329998016357,1.5711365938186646,-0.011577784083783627
236,-1.5663421154022217,-0.7553038001060486,-1.77276611328125,-2.3446261882781982,1.5711652040481567,-0.01164486724883318
237,-1.5663713216781616,-0.7552754878997803,-1.7727947235107422,-2.34451961517334,1.5711939334869385,-0.011711716651916504
238,-1.5664011240005493,-0.7552474141120911,-1.7728230953216553,-2.3444132804870605,1.5712227821350098,-0.011779064312577248
239,-1.5664302110671997,-0.7552192807197571,-1.7728512287139893,-2.3443069458007812,1.5712512731552124,-0.011845767498016357
240,-1.5664598941802979,-0.7551910877227783,-1.7728798389434814,-2.3442001342773438,1.5712801218032837,-0.011912972666323185
241,-1.5664892196655273,-0.7551629543304443,-1.7729079723358154,-2.3440937995910645,1.5713087320327759,-0.011979883536696434
242,-1.5665186643600464,-0.7551348805427551,-1.7729363441467285,-2.343987226486206,1.571337342262268,-0.01204685214906931
243,-1.5665481090545654,-0.7551066875457764,-1.7729647159576416,-2.3438806533813477,1.5713661909103394,-0.012113884091377258
244,-1.5665777921676636,-0.7550786137580872,-1.7729933261871338,-2.34377384185791,1.571394920349121,-0.012181121855974197
245,-1.5666069984436035,-0.7550504803657532,-1.7730214595794678,-2.343667507171631,1.5714237689971924,-0.012247860431671143
246,-1.5666366815567017,-0.7550222277641296,-1.77305006980896,-2.3435606956481934,1.5714523792266846,-0.012315070256590843
247,-1.5666660070419312,-0.7549940943717957,-1.773078203201294,-2.343454360961914,1.5714812278747559,-0.012381958775222301
248,-1.5666953325271606,-0.7549660205841064,-1.773106575012207,-2.3433480262756348,1.5715099573135376,-0.012448758818209171
249,-1.5667250156402588,-0.7549378275871277,-1.7731351852416992,-2.3432412147521973,1.5715388059616089,-0.012516059912741184
250,-1.5667544603347778,-0.7549097537994385,-1.7731635570526123,-2.343134641647339,1.5715676546096802,-0.012583009898662567
251,-1.5667839050292969,-0.7548815608024597,-1.7731919288635254,-2.3430280685424805,1.571596384048462,-0.012649960815906525
252,-1.5668134689331055,-0.7548534870147705,-1.7732203006744385,-2.342921733856201,1.5716252326965332,-0.012717029079794884
253,-1.566842794418335,-0.754825234413147,-1.7732487916946411,-2.3428151607513428,1.5716540813446045,-0.012783924117684364
254,-1.5668723583221436,-0.7547972202301025,-1.7732770442962646,-2.3427085876464844,1.5716829299926758,-0.012850995175540447
255,-1.5669015645980835,-0.7547690272331238,-1.7733056545257568,-2.342601776123047,1.571711778640747,-0.012917713262140751
256,-1.5669312477111816,-0.7547408938407898,-1.77333402633667,-2.3424954414367676,1.5717406272888184,-0.012984996661543846
257,-1.5669604539871216,-0.754712700843811,-1.7733625173568726,-2.342388868331909,1.5717694759368896,-0.013051658868789673
258,-1.5669901371002197,-0.7546846270561218,-1.773390769958496,-2.342282295227051,1.571798324584961,-0.013118908740580082
259,-1.5670194625854492,-0.7546564936637878,-1.7734191417694092,-2.3421757221221924,1.5718272924423218,-0.013185720890760422
260,-1.5670491456985474,-0.7546283602714539,-1.7734477519989014,-2.342069149017334,1.571856141090393,-0.01325294654816389
261,-1.5670782327651978,-0.7546002268791199,-1.7734761238098145,-2.3419625759124756,1.571885108947754,-0.01331949420273304
262,-1.5671080350875854,-0.7545722126960754,-1.7735044956207275,-2.341856002807617,1.5719139575958252,-0.013386840000748634
263,-1.5671374797821045,-0.7545440196990967,-1.7735331058502197,-2.341749429702759,1.5719430446624756,-0.013453773222863674
264,-1.5671669244766235,-0.7545159459114075,-1.7735614776611328,-2.3416428565979004,1.5719718933105469,-0.013520706444978714
265,-1.5671964883804321,-0.7544877529144287,-1.773590087890625,-2.341536045074463,1.5720009803771973,-0.01358775980770588
266,-1.5672258138656616,-0.7544596195220947,-1.773618459701538,-2.3414297103881836,1.5720298290252686,-0.013654579408466816
267,-1.5672552585601807,-0.7544315457344055,-1.7736470699310303,-2.341322898864746,1.5720587968826294,-0.013721516355872154
268,-1.5672848224639893,-0.7544034123420715,-1.7736756801605225,-2.3412163257598877,1.5720877647399902,-0.01378854364156723
269,-1.5673139095306396,-0.7543752193450928,-1.7737038135528564,-2.3411102294921875,1.5721168518066406,-0.013855071738362312
270,-1.5673437118530273,-0.7543472051620483,-1.7737325429916382,-2.341003179550171,1.5721458196640015,-0.013922424986958504
271,-1.5673731565475464,-0.7543190717697144,-1.7737609148025513,-2.3408963680267334,1.5721747875213623,-0.01398936752229929
272,-1.5674024820327759,-0.7542909383773804,-1.7737892866134644,-2.340790033340454,1.5722038745880127,-0.0140561917796731
273,-1.567432165145874,-0.7542628645896912,-1.773817777633667,-2.340683698654175,1.5722328424453735,-0.01412334106862545
274,-1.5674614906311035,-0.7542347311973572,-1.77384614944458,-2.3405768871307373,1.572261929512024,-0.014190109446644783
275,-1.5674909353256226,-0.7542065978050232,-1.7738747596740723,-2.340470552444458,1.5722908973693848,-0.014257055707275867
276,-1.5675203800201416,-0.754178524017334,-1.7739033699035645,-2.3403637409210205,1.5723199844360352,-0.01432397123426199
277,-1.5675499439239502,-0.7541503310203552,-1.7739317417144775,-2.340257406234741,1.572349190711975,-0.014391007833182812
278,-1.5675793886184692,-0.754122257232666,-1.7739603519439697,-2.3401505947113037,1.5723782777786255,-0.014457868412137032
279,-1.5676088333129883,-0.7540941834449768,-1.7739887237548828,-2.3400442600250244,1.5724073648452759,-0.014524787664413452
280,-1.5676382780075073,-0.7540661096572876,-1.7740172147750854,-2.339937448501587,1.5724365711212158,-0.014591620303690434
281,-1.5676674842834473,-0.7540379762649536,-1.7740458250045776,-2.3398311138153076,1.5724655389785767,-0.014658368192613125
282,-1.5676969289779663,-0.7540097236633301,-1.7740745544433594,-2.339724063873291,1.572494626045227,-0.014725320972502232
283,-1.5677263736724854,-0.7539817690849304,-1.7741026878356934,-2.3396177291870117,1.572523832321167,-0.014792186208069324
284,-1.567756175994873,-0.7539535760879517,-1.774131417274475,-2.3395111560821533,1.5725529193878174,-0.014859434217214584
285,-1.567785382270813,-0.7539254426956177,-1.7741600275039673,-2.339404344558716,1.5725821256637573,-0.014926067553460598
286,-1.5678147077560425,-0.7538974285125732,-1.7741882801055908,-2.3392980098724365,1.5726113319396973,-0.014992877840995789
287,-1.5678446292877197,-0.753869354724884,-1.774216890335083,-2.339191436767578,1.5726405382156372,-0.015060189180076122
288,-1.5678739547729492,-0.7538413405418396,-1.774245262145996,-2.3390846252441406,1.5726697444915771,-0.015126941725611687
289,-1.5679032802581787,-0.7538130879402161,-1.7742741107940674,-2.3389780521392822,1.572698950767517,-0.015193697065114975
290,-1.5679326057434082,-0.7537849545478821,-1.7743027210235596,-2.338871479034424,1.572728157043457,-0.015260480344295502
291,-1.5679621696472168,-0.7537569403648376,-1.7743310928344727,-2.3387649059295654,1.572757363319397,-0.015327470377087593
292,-1.5679916143417358,-0.7537288665771484,-1.7743594646453857,-2.338658332824707,1.5727866888046265,-0.015394317917525768
293,-1.5680209398269653,-0.7537006735801697,-1.774388074874878,-2.3385517597198486,1.5728158950805664,-0.015461103990674019
294,-1.568050503730774,-0.75367271900177,-1.7744165658950806,-2.338444948196411,1.5728451013565063,-0.015528067946434021
295,-1.568079948425293,-0.7536444664001465,-1.7744455337524414,-2.3383381366729736,1.5728744268417358,-0.015594885684549809
296,-1.568109393119812,-0.7536163926124573,-1.7744739055633545,-2.3382318019866943,1.5729036331176758,-0.01566179469227791
297,-1.568138837814331,-0.7535883784294128,-1.7745022773742676,-2.338125228881836,1.5729329586029053,-0.015728674829006195
298,-1.56816828250885,-0.7535602450370789,-1.7745308876037598,-2.3380184173583984,1.5729621648788452,-0.015795499086380005
299,-1.5681977272033691,-0.7535321116447449,-1.774559497833252,-2.337912082672119,1.5729914903640747,-0.01586240716278553
300,-1.5682272911071777,-0.7535040974617004,-1.7745881080627441,-2.3378052711486816,1.5730208158493042,-0.015929285436868668
301,-1.5682566165924072,-0.7534759640693665,-1.7746167182922363,-2.3376989364624023,1.5730501413345337,-0.015996053814888
302,-1.5682861804962158,-0.753447949886322,-1.7746450901031494,-2.337592124938965,1.5730794668197632,-0.01606299914419651
303,-1.5683156251907349,-0.753419816493988,-1.7746739387512207,-2.3374853134155273,1.5731086730957031,-0.016129881143569946
304,-1.5683448314666748,-0.7533917427062988,-1.7747023105621338,-2.337378978729248,1.5731382369995117,-0.01619647815823555
305,-1.568374514579773,-0.7533637285232544,-1.7747310400009155,-2.3372724056243896,1.5731675624847412,-0.016263538971543312
306,-1.568403720855713,-0.7533355355262756,-1.7747595310211182,-2.3371658325195312,1.5731968879699707,-0.016330193728208542
307,-1.568433165550232,-0.7533074617385864,-1.7747882604599,-2.3370587825775146,1.5732263326644897,-0.016396965831518173
308,-1.568462610244751,-0.7532795071601868,-1.7748167514801025,-2.3369524478912354,1.5732557773590088,-0.01646379381418228
309,-1.56849205493927,-0.7532512545585632,-1.7748453617095947,-2.336845874786377,1.5732851028442383,-0.016530632972717285
310,-1.5685216188430786,-0.7532232999801636,-1.7748740911483765,-2.3367388248443604,1.5733145475387573,-0.016597582027316093
311,-1.568550944328308,-0.7531951665878296,-1.7749024629592896,-2.336632490158081,1.5733438730239868,-0.01666424050927162
312,-1.5685803890228271,-0.7531670928001404,-1.7749311923980713,-2.3365256786346436,1.5733733177185059,-0.016731131821870804
313,-1.5686099529266357,-0.7531390190124512,-1.7749598026275635,-2.3364193439483643,1.5734028816223145,-0.01679805852472782
314,-1.5686393976211548,-0.7531108856201172,-1.7749886512756348,-2.3363125324249268,1.573432207107544,-0.01686486415565014
315,-1.5686684846878052,-0.7530827522277832,-1.7750170230865479,-2.3362061977386475,1.5734617710113525,-0.016931351274251938
316,-1.5686979293823242,-0.753054678440094,-1.7750458717346191,-2.33609938621521,1.5734912157058716,-0.01699810102581978
317,-1.5687276124954224,-0.7530267834663391,-1.7750742435455322,-2.3359928131103516,1.5735207796096802,-0.017065180465579033
318,-1.5687569379806519,-0.7529985904693604,-1.7751028537750244,-2.335886240005493,1.5735502243041992,-0.017131902277469635
319,-1.5687865018844604,-0.7529705762863159,-1.7751315832138062,-2.3357794284820557,1.5735797882080078,-0.017198773100972176
320,-1.5688159465789795,-0.7529423832893372,-1.775160312652588,-2.3356728553771973,1.5736093521118164,-0.01726555824279785
321,-1.5688453912734985,-0.7529144287109375,-1.77518892288208,-2.3355660438537598,1.573638916015625,-0.017332343384623528
322,-1.568874478340149,-0.7528862357139587,-1.7752175331115723,-2.3354594707489014,1.573668360710144,-0.017398836091160774
323,-1.5689040422439575,-0.7528582811355591,-1.775246024131775,-2.335353136062622,1.5736979246139526,-0.017465678974986076
324,-1.568933367729187,-0.7528301477432251,-1.775274634361267,-2.3352463245391846,1.5737274885177612,-0.017532410100102425
325,-1.5689629316329956,-0.7528020739555359,-1.7753033638000488,-2.335139751434326,1.5737571716308594,-0.017599230632185936
326,-1.5689923763275146,-0.7527740597724915,-1.7753322124481201,-2.3350329399108887,1.573786735534668,-0.01766604743897915
327,-1.569021463394165,-0.7527458667755127,-1.7753608226776123,-2.3349263668060303,1.5738162994384766,-0.017732489854097366
328,-1.5690510272979736,-0.7527178525924683,-1.775389552116394,-2.3348195552825928,1.5738459825515747,-0.017799340188503265
329,-1.5690804719924927,-0.7526898384094238,-1.7754180431365967,-2.3347132205963135,1.5738754272460938,-0.017866190522909164
330,-1.5691099166870117,-0.7526617646217346,-1.775446891784668,-2.334606409072876,1.573905110359192,-0.017932958900928497
331,-1.5691393613815308,-0.7526337504386902,-1.775475263595581,-2.3344998359680176,1.5739346742630005,-0.017999691888689995
332,-1.5691686868667603,-0.7526055574417114,-1.775504231452942,-2.334393262863159,1.5739644765853882,-0.01806628331542015
333,-1.5691978931427002,-0.7525774240493774,-1.775532841682434,-2.3342864513397217,1.5739940404891968,-0.018132874742150307
334,-1.5692273378372192,-0.7525493502616882,-1.7755615711212158,-2.3341798782348633,1.574023723602295,-0.0181996151804924
335,-1.5692567825317383,-0.7525213360786438,-1.775590419769287,-2.334073066711426,1.574053406715393,-0.018266411498188972
336,-1.5692862272262573,-0.7524933815002441,-1.7756187915802002,-2.3339664936065674,1.5740830898284912,-0.01833312399685383
337,-1.5693154335021973,-0.7524652481079102,-1.7756476402282715,-2.33385968208313,1.574112892150879,-0.018399657681584358
338,-1.5693448781967163,-0.752437174320221,-1.7756764888763428,-2.3337531089782715,1.5741424560546875,-0.018466463312506676
339,-1.5693743228912354,-0.7524091005325317,-1.7757049798965454,-2.333646535873413,1.5741722583770752,-0.01853317767381668
340,-1.5694037675857544,-0.7523810267448425,-1.7757337093353271,-2.3335399627685547,1.574202060699463,-0.018599923700094223
341,-1.5694332122802734,-0.7523530125617981,-1.7757625579833984,-2.333433151245117,1.574231743812561,-0.018666638061404228
342,-1.5694624185562134,-0.7523248791694641,-1.7757911682128906,-2.333326816558838,1.5742615461349487,-0.018733149394392967
343,-1.5694918632507324,-0.7522968649864197,-1.7758197784423828,-2.3332200050354004,1.5742912292480469,-0.01879989542067051
344,-1.5695210695266724,-0.7522687315940857,-1.775848627090454,-2.333113431930542,1.5743210315704346,-0.018866410478949547
345,-1.5695505142211914,-0.752240777015686,-1.7758773565292358,-2.3330066204071045,1.5743507146835327,-0.018933068960905075
346,-1.5695797204971313,-0.752212643623352,-1.775905966758728,-2.332900285720825,1.57438063621521,-0.0189996138215065
347,-1.5696094036102295,-0.7521845698356628,-1.7759349346160889,-2.3327932357788086,1.5744104385375977,-0.01906660385429859
348,-1.5696386098861694,-0.7521565556526184,-1.775963544845581,-2.3326869010925293,1.5744402408599854,-0.019133061170578003
349,-1.569667935371399,-0.7521284222602844,-1.7759923934936523,-2.332580089569092,1.574470043182373,-0.019199637696146965
350,-1.5696971416473389,-0.7521003484725952,-1.776021122932434,-2.332473039627075,1.5744998455047607,-0.01926618628203869
351,-1.569726586341858,-0.7520723938941956,-1.7760496139526367,-2.332366704940796,1.5745296478271484,-0.0193328820168972
352,-1.5697557926177979,-0.7520443201065063,-1.7760785818099976,-2.3322598934173584,1.5745595693588257,-0.019399316981434822
353,-1.569785237312317,-0.7520163059234619,-1.7761073112487793,-2.3321533203125,1.574589490890503,-0.019466014578938484
354,-1.569814682006836,-0.7519882321357727,-1.7761359214782715,-2.3320469856262207,1.5746194124221802,-0.019532743841409683
355,-1.569844126701355,-0.7519602179527283,-1.7761645317077637,-2.331940174102783,1.5746492147445679,-0.019599473103880882
356,-1.5698732137680054,-0.7519321441650391,-1.776193380355835,-2.331833600997925,1.5746791362762451,-0.019665788859128952
357,-1.5699026584625244,-0.7519040703773499,-1.7762222290039062,-2.3317267894744873,1.574709177017212,-0.019732464104890823
358,-1.5699318647384644,-0.7518759965896606,-1.776250958442688,-2.331620454788208,1.5747389793395996,-0.01979896053671837
359,-1.5699613094329834,-0.7518478631973267,-1.7762798070907593,-2.3315136432647705,1.5747689008712769,-0.019865697249770164
360,-1.5699907541275024,-0.7518198490142822,-1.7763087749481201,-2.331406593322754,1.5747989416122437,-0.01993231289088726
361,-1.5700199604034424,-0.7517918944358826,-1.7763371467590332,-2.3313002586364746,1.574828863143921,-0.019998781383037567
362,-1.5700492858886719,-0.7517637610435486,-1.7763659954071045,-2.331193447113037,1.5748587846755981,-0.020065343007445335
363,-1.5700784921646118,-0.7517357468605042,-1.7763948440551758,-2.3310868740081787,1.574888825416565,-0.020131874829530716
364,-1.5701079368591309,-0.7517077326774597,-1.776423454284668,-2.3309803009033203,1.5749188661575317,-0.02019849419593811
365,-1.5701371431350708,-0.7516796588897705,-1.7764525413513184,-2.330873489379883,1.5749486684799194,-0.0202648788690567
366,-1.5701664686203003,-0.7516515851020813,-1.7764813899993896,-2.3307666778564453,1.5749788284301758,-0.020331446081399918
367,-1.5701955556869507,-0.7516234517097473,-1.776510238647461,-2.330660104751587,1.575008749961853,-0.02039782889187336
368,-1.5702251195907593,-0.7515955567359924,-1.7765388488769531,-2.3305532932281494,1.5750387907028198,-0.02046460285782814
369,-1.5702542066574097,-0.7515673041343689,-1.7765676975250244,-2.330446720123291,1.5750688314437866,-0.020530903711915016
370,-1.5702836513519287,-0.7515393495559692,-1.7765964269638062,-2.3303401470184326,1.5750987529754639,-0.020597558468580246
371,-1.5703130960464478,-0.7515113353729248,-1.776625394821167,-2.330233335494995,1.5751289129257202,-0.02066424861550331
372,-1.5703423023223877,-0.7514833211898804,-1.7766538858413696,-2.330127000808716,1.5751590728759766,-0.02073066681623459
373,-1.570371389389038,-0.7514551281929016,-1.7766830921173096,-2.330019950866699,1.5751891136169434,-0.020796915516257286
374,-1.5704007148742676,-0.7514271140098572,-1.7767117023468018,-2.329913377761841,1.5752191543579102,-0.020863454788923264
375,-1.570429801940918,-0.751399040222168,-1.776740550994873,-2.3298068046569824,1.575249195098877,-0.020929789170622826
376,-1.570459246635437,-0.7513709664344788,-1.7767696380615234,-2.329699993133545,1.5752793550491333,-0.020996391773223877
377,-1.570488452911377,-0.7513430118560791,-1.7767980098724365,-2.3295936584472656,1.5753095149993896,-0.02106284722685814
378,-1.570517897605896,-0.7513148784637451,-1.776827096939087,-2.329486846923828,1.5753395557403564,-0.021129483357071877
379,-1.570547103881836,-0.7512869238853455,-1.7768559455871582,-2.3293797969818115,1.5753698348999023,-0.02119588479399681
380,-1.5705761909484863,-0.7512587904930115,-1.7768847942352295,-2.3292734622955322,1.5753998756408691,-0.021262167021632195
381,-1.5706056356430054,-0.7512307167053223,-1.7769136428833008,-2.3291666507720947,1.5754300355911255,-0.021328862756490707
382,-1.5706347227096558,-0.7512027621269226,-1.776942253112793,-2.3290600776672363,1.5754601955413818,-0.021395085379481316
383,-1.5706639289855957,-0.7511746883392334,-1.7769713401794434,-2.328953266143799,1.5754905939102173,-0.02146145887672901
384,-1.5706932544708252,-0.751146674156189,-1.777000069618225,-2.3288466930389404,1.5755207538604736,-0.021527951583266258
385,-1.5707228183746338,-0.7511186599731445,-1.777029037475586,-2.328739881515503,1.57555091381073,-0.021594678983092308
386,-1.5707519054412842,-0.7510905265808105,-1.7770581245422363,-2.3286330699920654,1.5755810737609863,-0.02166096866130829
387,-1.5707809925079346,-0.7510626316070557,-1.7770864963531494,-2.328526735305786,1.5756113529205322,-0.021727226674556732
388,-1.570810079574585,-0.7510343790054321,-1.7771157026290894,-2.3284199237823486,1.5756416320800781,-0.021793456748127937
389,-1.570839285850525,-0.7510064840316772,-1.7771443128585815,-2.328313112258911,1.575671911239624,-0.02185983397066593
390,-1.5708686113357544,-0.750978410243988,-1.7771732807159424,-2.3282065391540527,1.5757020711898804,-0.0219263918697834
391,-1.5708978176116943,-0.7509503364562988,-1.7772021293640137,-2.3280999660491943,1.5757324695587158,-0.021992715075612068
392,-1.5709272623062134,-0.7509222626686096,-1.777231216430664,-2.327993154525757,1.5757626295089722,-0.022059332579374313
393,-1.5709563493728638,-0.75089430809021,-1.7772600650787354,-2.3278863430023193,1.575792908668518,-0.02212565205991268
394,-1.5709855556488037,-0.7508662343025208,-1.7772889137268066,-2.327779769897461,1.5758233070373535,-0.02219191938638687
395,-1.571014642715454,-0.7508381605148315,-1.7773178815841675,-2.3276731967926025,1.5758535861968994,-0.022258182987570763
396,-1.5710437297821045,-0.7508100867271423,-1.7773466110229492,-2.327566385269165,1.5758839845657349,-0.022324426099658012
397,-1.5710728168487549,-0.7507820129394531,-1.7773756980895996,-2.3274595737457275,1.5759142637252808,-0.022390691563487053
398,-1.571102261543274,-0.7507539987564087,-1.7774046659469604,-2.3273532390594482,1.5759445428848267,-0.022457195445895195
399,-1.5711313486099243,-0.7507259249687195,-1.7774333953857422,-2.3272464275360107,1.5759750604629517,-0.022523466497659683
400,-1.5711604356765747,-0.7506978511810303,-1.7774624824523926,-2.3271396160125732,1.576005220413208,-0.02258973754942417
401,-1.5711898803710938,-0.7506698369979858,-1.7774914503097534,-2.3270328044891357,1.576035737991333,-0.022656243294477463
402,-1.5712189674377441,-0.7506418824195862,-1.7775201797485352,-2.3269262313842773,1.5760661363601685,-0.022722486406564713
403,-1.5712480545043945,-0.7506137490272522,-1.7775490283966064,-2.326819658279419,1.576096534729004,-0.02278873324394226
404,-1.571277141571045,-0.7505857348442078,-1.7775781154632568,-2.3267126083374023,1.5761269330978394,-0.02285497635602951
405,-1.5713063478469849,-0.7505577206611633,-1.7776069641113281,-2.326606273651123,1.5761573314666748,-0.022921312600374222
406,-1.5713355541229248,-0.7505296468734741,-1.777635931968689,-2.3264992237091064,1.5761878490447998,-0.022987589240074158
407,-1.5713645219802856,-0.7505016326904297,-1.7776648998260498,-2.326392650604248,1.5762182474136353,-0.023053690791130066
408,-1.5713939666748047,-0.7504735589027405,-1.7776939868927002,-2.3262860774993896,1.5762487649917603,-0.023120233789086342
409,-1.571422815322876,-0.750445544719696,-1.7777225971221924,-2.3261795043945312,1.5762791633605957,-0.023186275735497475
410,-1.5714519023895264,-0.7504174709320068,-1.7777516841888428,-2.3260726928710938,1.5763095617294312,-0.023252466693520546
411,-1.5714809894561768,-0.7503893375396729,-1.7777807712554932,-2.3259658813476562,1.5763400793075562,-0.023318687453866005
412,-1.5715104341506958,-0.750361442565918,-1.7778096199035645,-2.325859308242798,1.5763705968856812,-0.023385176435112953
413,-1.5715395212173462,-0.7503333687782288,-1.7778387069702148,-2.3257524967193604,1.5764011144638062,-0.02345127984881401
414,-1.5715686082839966,-0.7503053545951843,-1.777867317199707,-2.325645923614502,1.5764316320419312,-0.023517565801739693
415,-1.571597695350647,-0.7502773404121399,-1.7778964042663574,-2.3255393505096436,1.5764622688293457,-0.0235836710780859
416,-1.5716266632080078,-0.7502492070198059,-1.7779254913330078,-2.325432538986206,1.5764927864074707,-0.02364984154701233
417,-1.5716558694839478,-0.7502211928367615,-1.777954339981079,-2.3253257274627686,1.5765231847763062,-0.023716071620583534
418,-1.5716849565505981,-0.750193178653717,-1.7779834270477295,-2.32521915435791,1.5765538215637207,-0.023782270029187202
419,-1.5717140436172485,-0.7501651644706726,-1.7780122756958008,-2.3251123428344727,1.5765844583511353,-0.023848436772823334
420,-1.571743130683899,-0.7501370906829834,-1.778041124343872,-2.3250060081481934,1.5766150951385498,-0.023914549499750137
421,-1.5717719793319702,-0.7501089572906494,-1.7780702114105225,-2.324899196624756,1.5766456127166748,-0.02398054488003254
422,-1.5718010663986206,-0.750080943107605,-1.7780991792678833,-2.3247926235198975,1.5766762495040894,-0.024046745151281357
423,-1.571830153465271,-0.7500528693199158,-1.7781281471252441,-2.32468581199646,1.576706886291504,-0.02411286160349846
424,-1.5718592405319214,-0.7500248551368713,-1.7781574726104736,-2.3245790004730225,1.576737403869629,-0.024179067462682724
425,-1.5718884468078613,-0.7499969005584717,-1.778186321258545,-2.324472188949585,1.576768159866333,-0.02424527145922184
426,-1.5719174146652222,-0.7499687671661377,-1.7782154083251953,-2.3243656158447266,1.576798677444458,-0.024311359971761703
427,-1.5719465017318726,-0.7499406933784485,-1.7782444953918457,-2.324258804321289,1.576829433441162,-0.02437750995159149
428,-1.571975588798523,-0.7499127388000488,-1.778273344039917,-2.3241522312164307,1.5768600702285767,-0.02444368787109852
429,-1.5720046758651733,-0.7498846650123596,-1.7783024311065674,-2.324045419692993,1.5768908262252808,-0.024509746581315994
430,-1.5720336437225342,-0.7498565316200256,-1.7783315181732178,-2.3239386081695557,1.5769213438034058,-0.024575838819146156
431,-1.5720624923706055,-0.7498284578323364,-1.7783604860305786,-2.3238322734832764,1.5769520998001099,-0.024641726166009903
432,-1.5720915794372559,-0.7498005032539368,-1.7783894538879395,-2.323725461959839,1.576982855796814,-0.024707939475774765
433,-1.5721206665039062,-0.7497725486755371,-1.7784183025360107,-2.3236186504364014,1.5770134925842285,-0.024774061515927315
434,-1.572149395942688,-0.7497444152832031,-1.7784476280212402,-2.323511838912964,1.5770443677902222,-0.02483980357646942
435,-1.572178602218628,-0.7497164011001587,-1.778476595878601,-2.3234050273895264,1.5770751237869263,-0.024906044825911522
436,-1.5722075700759888,-0.7496882081031799,-1.778505802154541,-2.323298454284668,1.5771057605743408,-0.024972079321742058
437,-1.5722367763519287,-0.749660313129425,-1.7785346508026123,-2.3231918811798096,1.5771366357803345,-0.025038357824087143
438,-1.5722657442092896,-0.7496322393417358,-1.7785638570785522,-2.323085069656372,1.577167272567749,-0.02510433830320835
439,-1.5722945928573608,-0.7496041059494019,-1.7785929441452026,-2.3229782581329346,1.5771981477737427,-0.02517017349600792
440,-1.5723236799240112,-0.7495761513710022,-1.7786219120025635,-2.322871685028076,1.5772290229797363,-0.02523627318441868
441,-1.5723525285720825,-0.749548077583313,-1.7786508798599243,-2.3227651119232178,1.5772597789764404,-0.025302166119217873
442,-1.5723814964294434,-0.7495200634002686,-1.7786798477172852,-2.3226585388183594,1.5772905349731445,-0.02536812238395214
443,-1.5724105834960938,-0.7494920492172241,-1.778709053993225,-2.3225514888763428,1.5773214101791382,-0.02543419599533081
444,-1.5724395513534546,-0.7494639754295349,-1.778738021850586,-2.3224449157714844,1.5773522853851318,-0.025500241667032242
445,-1.5724684000015259,-0.7494359016418457,-1.7787671089172363,-2.322338104248047,1.5773831605911255,-0.02556608058512211
446,-1.5724971294403076,-0.7494078278541565,-1.7787961959838867,-2.3222315311431885,1.5774139165878296,-0.02563183195888996
447,-1.572526216506958,-0.7493798732757568,-1.778825044631958,-2.32212495803833,1.5774447917938232,-0.025697998702526093
448,-1.5725551843643188,-0.7493517398834229,-1.7788543701171875,-2.3220181465148926,1.5774757862091064,-0.02576398476958275
449,-1.5725840330123901,-0.7493237257003784,-1.7788833379745483,-2.321911573410034,1.5775065422058105,-0.02582976594567299
450,-1.5726127624511719,-0.7492955327033997,-1.7789127826690674,-2.3218045234680176,1.5775374174118042,-0.025895584374666214
451,-1.5726418495178223,-0.749267578125,-1.7789416313171387,-2.321697950363159,1.577568531036377,-0.025961577892303467
452,-1.5726709365844727,-0.7492396235466003,-1.77897047996521,-2.321591377258301,1.5775994062423706,-0.02602768875658512
453,-1.5726996660232544,-0.7492114901542664,-1.7789998054504395,-2.3214845657348633,1.5776302814483643,-0.026093386113643646
454,-1.5727287530899048,-0.7491835355758667,-1.7790287733078003,-2.321377992630005,1.5776612758636475,-0.026159441098570824
455,-1.5727574825286865,-0.7491554617881775,-1.7790579795837402,-2.3212711811065674,1.5776922702789307,-0.026225166395306587
456,-1.5727864503860474,-0.7491274476051331,-1.7790870666503906,-2.321164608001709,1.5777231454849243,-0.026291195303201675
457,-1.572815179824829,-0.7490992546081543,-1.7791163921356201,-2.3210575580596924,1.5777541399002075,-0.026356898248195648
458,-1.5728440284729004,-0.7490712404251099,-1.779145359992981,-2.320951223373413,1.5777852535247803,-0.02642275020480156
459,-1.5728731155395508,-0.7490432858467102,-1.779174566268921,-2.3208441734313965,1.577816128730774,-0.02648874744772911
460,-1.572901725769043,-0.7490150928497314,-1.7792036533355713,-2.320737600326538,1.5778471231460571,-0.02655436098575592
461,-1.5729308128356934,-0.7489871382713318,-1.7792327404022217,-2.3206307888031006,1.5778782367706299,-0.026620453223586082
462,-1.572959542274475,-0.7489590644836426,-1.7792620658874512,-2.320523977279663,1.577909231185913,-0.026686128228902817
463,-1.5729882717132568,-0.7489309906959534,-1.7792911529541016,-2.3204174041748047,1.5779403448104858,-0.02675180695950985
464,-1.5730170011520386,-0.7489028573036194,-1.779320240020752,-2.3203108310699463,1.5779714584350586,-0.02681751921772957
465,-1.5730459690093994,-0.7488749027252197,-1.7793493270874023,-2.320204019546509,1.5780023336410522,-0.026883458718657494
466,-1.5730746984481812,-0.7488468885421753,-1.7793785333633423,-2.3200972080230713,1.5780335664749146,-0.026949113234877586
467,-1.5731035470962524,-0.7488186955451965,-1.7794077396392822,-2.319990634918213,1.5780646800994873,-0.02701491303741932
468,-1.5731326341629028,-0.7487907409667969,-1.7794368267059326,-2.3198838233947754,1.57809579372406,-0.027080977335572243
469,-1.5731613636016846,-0.7487627863883972,-1.779465913772583,-2.319777011871338,1.5781267881393433,-0.027146661654114723
470,-1.5731900930404663,-0.7487346529960632,-1.7794950008392334,-2.3196706771850586,1.578157901763916,-0.02721237577497959
471,-1.5732187032699585,-0.7487066388130188,-1.779524326324463,-2.319563865661621,1.5781891345977783,-0.027277853339910507
472,-1.5732474327087402,-0.74867844581604,-1.7795536518096924,-2.3194570541381836,1.578220248222351,-0.027343565598130226
473,-1.5732765197753906,-0.7486505508422852,-1.7795825004577637,-2.319350481033325,1.5782513618469238,-0.027409549802541733
474,-1.5733048915863037,-0.7486222982406616,-1.7796119451522827,-2.3192436695098877,1.5782825946807861,-0.02747485041618347
475,-1.573333978652954,-0.7485944628715515,-1.7796409130096436,-2.31913685798645,1.5783137083053589,-0.027540864422917366
476,-1.5733625888824463,-0.7485663294792175,-1.779670000076294,-2.319030284881592,1.5783449411392212,-0.027606436982750893
477,-1.5733914375305176,-0.7485382556915283,-1.7796995639801025,-2.3189234733581543,1.5783761739730835,-0.027672214433550835
478,-1.5734200477600098,-0.7485101819038391,-1.779728651046753,-2.318816661834717,1.5784072875976562,-0.02773769572377205
479,-1.5734487771987915,-0.7484821081161499,-1.7797576189041138,-2.3187100887298584,1.5784385204315186,-0.027803445234894753
480,-1.5734775066375732,-0.7484540343284607,-1.7797868251800537,-2.318603277206421,1.5784697532653809,-0.027869053184986115
481,-1.573506236076355,-0.7484259009361267,-1.7798161506652832,-2.3184967041015625,1.5785009860992432,-0.027934744954109192
482,-1.5735348463058472,-0.748397946357727,-1.7798453569412231,-2.318390130996704,1.578532338142395,-0.028000174090266228
483,-1.573563575744629,-0.7483698725700378,-1.779874563217163,-2.3182830810546875,1.5785636901855469,-0.02806580811738968
484,-1.5735923051834106,-0.7483416795730591,-1.7799040079116821,-2.318176507949829,1.5785948038101196,-0.028131509199738503
485,-1.5736210346221924,-0.7483137845993042,-1.7799330949783325,-2.3180696964263916,1.578626036643982,-0.028197145089507103
486,-1.5736497640609741,-0.748285710811615,-1.7799620628356934,-2.317963123321533,1.5786575078964233,-0.02826269529759884
487,-1.5736783742904663,-0.748257577419281,-1.779991626739502,-2.3178560733795166,1.5786887407302856,-0.028328241780400276
488,-1.573707103729248,-0.7482295036315918,-1.7800207138061523,-2.3177497386932373,1.578720211982727,-0.028393885120749474
489,-1.5737358331680298,-0.7482016086578369,-1.7800500392913818,-2.3176426887512207,1.5787513256072998,-0.028459466993808746
490,-1.5737642049789429,-0.7481733560562134,-1.7800792455673218,-2.3175361156463623,1.5787826776504517,-0.028524748980998993
491,-1.573792815208435,-0.7481452822685242,-1.7801084518432617,-2.317429542541504,1.578814148902893,-0.0285902488976717
492,-1.5738215446472168,-0.748117208480835,-1.7801377773284912,-2.3173227310180664,1.5788453817367554,-0.028655897825956345
493,-1.5738502740859985,-0.7480892539024353,-1.7801668643951416,-2.317216157913208,1.5788768529891968,-0.028721479699015617
494,-1.5738790035247803,-0.7480612397193909,-1.780196189880371,-2.3171093463897705,1.5789082050323486,-0.02878706343472004
495,-1.5739073753356934,-0.7480331063270569,-1.7802255153656006,-2.317002534866333,1.5789395570755005,-0.02885238267481327
496,-1.5739364624023438,-0.7480050921440125,-1.780254602432251,-2.3168959617614746,1.578971028327942,-0.028918299823999405
497,-1.5739647150039673,-0.7479769587516785,-1.7802839279174805,-2.316789150238037,1.5790024995803833,-0.028983447700738907
498,-1.5739933252334595,-0.747948944568634,-1.78031325340271,-2.3166823387145996,1.5790338516235352,-0.029048915952444077
499,-1.574021816253662,-0.7479209303855896,-1.7803423404693604,-2.316575765609741,1.5790653228759766,-0.029114210978150368
500,-1.5740505456924438,-0.7478928565979004,-1.7803716659545898,-2.3164689540863037,1.579096794128418,-0.02917986363172531
501,-1.574079155921936,-0.7478647232055664,-1.7804009914398193,-2.3163623809814453,1.5791282653808594,-0.029245274141430855
502,-1.5741075277328491,-0.7478365898132324,-1.7804303169250488,-2.316255807876587,1.5791596174240112,-0.029310571029782295
503,-1.5741361379623413,-0.747808575630188,-1.7804595232009888,-2.3161489963531494,1.5791910886764526,-0.02937604859471321
504,-1.574164628982544,-0.747780442237854,-1.7804888486862183,-2.316042184829712,1.5792226791381836,-0.0294413473457098
505,-1.5741932392120361,-0.7477523684501648,-1.7805180549621582,-2.3159356117248535,1.579254150390625,-0.029506824910640717
506,-1.5742219686508179,-0.7477243542671204,-1.7805476188659668,-2.315828800201416,1.579285740852356,-0.02957236021757126
507,-1.574250340461731,-0.7476962804794312,-1.7805768251419067,-2.3157217502593994,1.579317331314087,-0.02963760681450367
508,-1.5742788314819336,-0.7476682066917419,-1.7806060314178467,-2.31561541557312,1.5793488025665283,-0.029702965170145035
509,-1.5743072032928467,-0.747640073299408,-1.7806353569030762,-2.3155086040496826,1.5793802738189697,-0.02976815216243267
510,-1.5743358135223389,-0.7476119995117188,-1.7806646823883057,-2.315402030944824,1.5794118642807007,-0.029833633452653885
511,-1.574364185333252,-0.7475839257240295,-1.7806940078735352,-2.315295457839966,1.5794434547424316,-0.02989882044494152
512,-1.574392557144165,-0.7475557923316956,-1.7807235717773438,-2.315188407897949,1.579474925994873,-0.029964005574584007
513,-1.5744212865829468,-0.7475277185440063,-1.7807527780532837,-2.315081834793091,1.579506754875183,-0.030029522255063057
514,-1.574449896812439,-0.7474997639656067,-1.7807819843292236,-2.3149752616882324,1.5795382261276245,-0.030094942077994347
515,-1.5744781494140625,-0.7474716305732727,-1.7808115482330322,-2.314868211746216,1.5795698165893555,-0.030160076916217804
516,-1.5745066404342651,-0.7474436163902283,-1.7808406352996826,-2.3147616386413574,1.579601526260376,-0.030225355178117752
517,-1.5745348930358887,-0.7474153637886047,-1.780869960784912,-2.314655065536499,1.579633116722107,-0.030290372669696808
518,-1.5745636224746704,-0.7473874688148499,-1.7808995246887207,-2.3145482540130615,1.5796648263931274,-0.030355975031852722
519,-1.574591875076294,-0.7473593950271606,-1.7809284925460815,-2.3144419193267822,1.5796964168548584,-0.030421050265431404
520,-1.574620246887207,-0.7473312020301819,-1.7809581756591797,-2.3143346309661865,1.579728126525879,-0.030486159026622772
521,-1.5746489763259888,-0.7473032474517822,-1.78098726272583,-2.314228057861328,1.5797597169876099,-0.030551735311746597
522,-1.5746773481369019,-0.747275173664093,-1.7810165882110596,-2.3141214847564697,1.57979154586792,-0.030616842210292816
523,-1.5747056007385254,-0.7472469210624695,-1.7810461521148682,-2.3140146732330322,1.5798231363296509,-0.030681947246193886
524,-1.5747339725494385,-0.7472189664840698,-1.781075358390808,-2.3139078617095947,1.579854965209961,-0.03074708953499794
525,-1.574762225151062,-0.7471907734870911,-1.7811048030853271,-2.3138012886047363,1.579886555671692,-0.030812200158834457
526,-1.5747908353805542,-0.7471627593040466,-1.7811341285705566,-2.313694477081299,1.579918384552002,-0.03087751753628254
527,-1.5748188495635986,-0.7471345663070679,-1.7811635732650757,-2.3135879039764404,1.5799500942230225,-0.030942389741539955
528,-1.5748474597930908,-0.7471065521240234,-1.7811930179595947,-2.313481092453003,1.5799819231033325,-0.03100777231156826
529,-1.574875831604004,-0.7470784783363342,-1.7812223434448242,-2.3133742809295654,1.580013632774353,-0.031072882935404778
530,-1.5749040842056274,-0.747050404548645,-1.7812517881393433,-2.313267469406128,1.5800453424453735,-0.031137965619564056
531,-1.5749324560165405,-0.747022271156311,-1.7812811136245728,-2.3131611347198486,1.5800771713256836,-0.031203079968690872
532,-1.574960708618164,-0.7469941973686218,-1.7813103199005127,-2.313054323196411,1.5801090002059937,-0.03126814216375351
533,-1.5749890804290771,-0.7469660639762878,-1.7813398838043213,-2.3129475116729736,1.5801408290863037,-0.031333159655332565
534,-1.5750173330307007,-0.7469380497932434,-1.7813692092895508,-2.3128409385681152,1.5801725387573242,-0.03139824792742729
535,-1.5750455856323242,-0.7469099760055542,-1.7813986539840698,-2.3127338886260986,1.5802044868469238,-0.03146327659487724
536,-1.5750739574432373,-0.7468817830085754,-1.781428337097168,-2.3126273155212402,1.5802361965179443,-0.03152843192219734
537,-1.5751022100448608,-0.7468537092208862,-1.7814573049545288,-2.312520742416382,1.580268144607544,-0.031593430787324905
538,-1.5751302242279053,-0.7468254566192627,-1.781486988067627,-2.3124141693115234,1.580299973487854,-0.03165816515684128
539,-1.5751585960388184,-0.746797502040863,-1.7815163135528564,-2.312307119369507,1.5803319215774536,-0.03172328323125839
540,-1.575186848640442,-0.746769368648529,-1.781545639038086,-2.3122007846832275,1.5803637504577637,-0.03178829327225685
541,-1.5752151012420654,-0.7467413544654846,-1.7815752029418945,-2.31209397315979,1.5803956985473633,-0.03185326233506203
542,-1.575243353843689,-0.7467132210731506,-1.7816047668457031,-2.3119871616363525,1.580427646636963,-0.03191832825541496
543,-1.5752716064453125,-0.7466850876808167,-1.7816340923309326,-2.311880588531494,1.580459475517273,-0.03198327496647835
544,-1.5752997398376465,-0.7466568946838379,-1.7816636562347412,-2.3117737770080566,1.5804914236068726,-0.03204815834760666
545,-1.57532799243927,-0.7466288208961487,-1.7816929817199707,-2.3116672039031982,1.5805234909057617,-0.03211311250925064
546,-1.575356364250183,-0.746600866317749,-1.7817223072052002,-2.3115603923797607,1.5805554389953613,-0.03217823803424835
547,-1.575384259223938,-0.746572732925415,-1.7817516326904297,-2.3114538192749023,1.580587387084961,-0.03224283456802368
548,-1.5754125118255615,-0.7465445399284363,-1.7817811965942383,-2.311347007751465,1.580619215965271,-0.03230784088373184
549,-1.575440764427185,-0.7465164661407471,-1.7818107604980469,-2.3112401962280273,1.5806512832641602,-0.032372768968343735
550,-1.5754690170288086,-0.7464883923530579,-1.7818403244018555,-2.31113338470459,1.5806832313537598,-0.03243780881166458
551,-1.575497031211853,-0.7464602589607239,-1.781869888305664,-2.3110265731811523,1.580715298652649,-0.03250252082943916
552,-1.5755252838134766,-0.7464320659637451,-1.7818992137908936,-2.310920238494873,1.580747365951538,-0.03256741911172867
553,-1.575553297996521,-0.7464040517807007,-1.7819286584854126,-2.3108131885528564,1.5807793140411377,-0.032632190734148026
554,-1.575581431388855,-0.7463759779930115,-1.7819581031799316,-2.310706615447998,1.5808113813400269,-0.032697029411792755
555,-1.5756093263626099,-0.7463476657867432,-1.7819879055023193,-2.3105998039245605,1.580843448638916,-0.03276169300079346
556,-1.5756373405456543,-0.7463196516036987,-1.7820171117782593,-2.310493230819702,1.5808755159378052,-0.03282635286450386
557,-1.5756655931472778,-0.7462915778160095,-1.7820465564727783,-2.3103864192962646,1.5809075832366943,-0.03289131447672844
558,-1.575693964958191,-0.7462634444236755,-1.782076120376587,-2.310279607772827,1.580939769744873,-0.032956335693597794
559,-1.5757218599319458,-0.7462352514266968,-1.782105565071106,-2.310173273086548,1.5809717178344727,-0.0330209918320179
560,-1.5757498741149902,-0.746207058429718,-1.782135248184204,-2.3100664615631104,1.5810039043426514,-0.03308562561869621
561,-1.5757780075073242,-0.7461791038513184,-1.7821645736694336,-2.309959888458252,1.5810359716415405,-0.033150531351566315
562,-1.575805902481079,-0.7461508512496948,-1.7821942567825317,-2.3098528385162354,1.5810681581497192,-0.033215079456567764
563,-1.5758339166641235,-0.7461227774620056,-1.7822237014770508,-2.309746265411377,1.5811002254486084,-0.033279743045568466
564,-1.5758620500564575,-0.7460947036743164,-1.7822530269622803,-2.3096396923065186,1.581132411956787,-0.033344533294439316
565,-1.575890064239502,-0.7460666298866272,-1.7822825908660889,-2.309532880783081,1.5811645984649658,-0.03340931981801987
566,-1.5759178400039673,-0.7460383772850037,-1.7823119163513184,-2.3094265460968018,1.581196665763855,-0.033473726361989975
567,-1.5759462118148804,-0.746010422706604,-1.7823415994644165,-2.3093197345733643,1.5812289714813232,-0.03353877738118172
568,-1.5759738683700562,-0.7459821105003357,-1.7823712825775146,-2.3092129230499268,1.581261157989502,-0.03360309451818466
569,-1.5760020017623901,-0.7459540963172913,-1.7824008464813232,-2.3091061115264893,1.5812933444976807,-0.03366788476705551
570,-1.5760300159454346,-0.745926022529602,-1.7824302911758423,-2.3089993000030518,1.5813255310058594,-0.033732496201992035
571,-1.5760577917099,-0.7458978295326233,-1.7824599742889404,-2.3088927268981934,1.5813578367233276,-0.03379696235060692
572,-1.5760858058929443,-0.7458696961402893,-1.782489538192749,-2.308785915374756,1.5813900232315063,-0.03386169672012329
573,-1.5761137008666992,-0.7458415031433105,-1.7825188636779785,-2.3086793422698975,1.5814223289489746,-0.03392619639635086
574,-1.5761417150497437,-0.7458134293556213,-1.782548427581787,-2.308572769165039,1.5814545154571533,-0.03399089723825455
575,-1.576169490814209,-0.7457852363586426,-1.7825779914855957,-2.3084661960601807,1.5814868211746216,-0.034055277705192566
576,-1.5761973857879639,-0.7457571029663086,-1.7826075553894043,-2.308359384536743,1.5815191268920898,-0.0341198705136776
577,-1.5762253999710083,-0.7457290291786194,-1.782637119293213,-2.3082525730133057,1.581551432609558,-0.03418451175093651
578,-1.5762535333633423,-0.7457008361816406,-1.7826669216156006,-2.308145761489868,1.5815837383270264,-0.034249197691679
579,-1.576281189918518,-0.7456726431846619,-1.78269624710083,-2.3080391883850098,1.5816160440444946,-0.03431354835629463
580,-1.5763089656829834,-0.7456446290016174,-1.7827258110046387,-2.3079326152801514,1.581648349761963,-0.03437795862555504
581,-1.5763368606567383,-0.7456164360046387,-1.7827553749084473,-2.307825803756714,1.5816806554794312,-0.034442462027072906
582,-1.5763648748397827,-0.7455883026123047,-1.782785177230835,-2.3077189922332764,1.581713080406189,-0.034507062286138535
583,-1.576392650604248,-0.7455601096153259,-1.7828147411346436,-2.307612180709839,1.5817453861236572,-0.03457147255539894
584,-1.5764201879501343,-0.7455318570137024,-1.7828445434570312,-2.3075056076049805,1.581777811050415,-0.03463568538427353
585,-1.5764482021331787,-0.745503842830658,-1.7828738689422607,-2.307399034500122,1.5818102359771729,-0.03470027819275856
586,-1.5764760971069336,-0.745475709438324,-1.7829034328460693,-2.3072922229766846,1.5818425416946411,-0.03476475179195404
587,-1.5765035152435303,-0.7454473972320557,-1.782933235168457,-2.307185649871826,1.581874966621399,-0.0348287969827652
588,-1.5765314102172852,-0.745419442653656,-1.7829623222351074,-2.3070790767669678,1.5819073915481567,-0.03489329665899277
589,-1.5765594244003296,-0.745391309261322,-1.7829921245574951,-2.3069722652435303,1.5819398164749146,-0.03495793417096138
590,-1.5765868425369263,-0.7453630566596985,-1.7830219268798828,-2.306865692138672,1.5819722414016724,-0.035021934658288956
591,-1.5766147375106812,-0.7453349232673645,-1.7830514907836914,-2.3067588806152344,1.5820047855377197,-0.03508647903800011
592,-1.576642632484436,-0.7453067898750305,-1.783081293106079,-2.306652069091797,1.5820372104644775,-0.035150930285453796
593,-1.5766701698303223,-0.7452785968780518,-1.7831108570098877,-2.3065452575683594,1.5820696353912354,-0.03521508723497391
594,-1.5766979455947876,-0.7452504634857178,-1.7831404209136963,-2.306438684463501,1.5821020603179932,-0.03527942672371864
595,-1.5767258405685425,-0.745222270488739,-1.7831699848175049,-2.3063321113586426,1.58213472366333,-0.035343874245882034
596,-1.5767532587051392,-0.745194137096405,-1.7831995487213135,-2.306225299835205,1.5821670293807983,-0.03540797904133797
597,-1.576780915260315,-0.7451658248901367,-1.7832293510437012,-2.3061187267303467,1.5821996927261353,-0.035472169518470764
598,-1.5768084526062012,-0.7451377511024475,-1.7832589149475098,-2.3060121536254883,1.5822322368621826,-0.03553630784153938
599,-1.5768364667892456,-0.7451096177101135,-1.7832887172698975,-2.3059051036834717,1.58226478099823,-0.03560090810060501
600,-1.5768638849258423,-0.7450814843177795,-1.783318281173706,-2.3057987689971924,1.5822973251342773,-0.03566483408212662
601,-1.5768917798995972,-0.7450533509254456,-1.7833480834960938,-2.305691719055176,1.5823298692703247,-0.03572932630777359
602,-1.5769193172454834,-0.7450251579284668,-1.7833776473999023,-2.3055851459503174,1.5823622941970825,-0.035793453454971313
603,-1.57694673538208,-0.7449969053268433,-1.7834073305130005,-2.30547833442688,1.5823949575424194,-0.035857416689395905
604,-1.5769742727279663,-0.7449687123298645,-1.7834370136260986,-2.3053719997406006,1.5824275016784668,-0.03592148795723915
605,-1.5770020484924316,-0.7449405789375305,-1.7834665775299072,-2.305265426635742,1.5824602842330933,-0.03598574921488762
606,-1.5770295858383179,-0.7449123859405518,-1.783496379852295,-2.3051583766937256,1.5824928283691406,-0.03604988381266594
607,-1.577057123184204,-0.7448842525482178,-1.7835259437561035,-2.305051803588867,1.582525372505188,-0.03611396253108978
608,-1.5770848989486694,-0.7448561787605286,-1.783555507659912,-2.304945230484009,1.582558035850525,-0.036178313195705414
609,-1.5771124362945557,-0.744827926158905,-1.7835853099822998,-2.3048384189605713,1.5825906991958618,-0.036242421716451645
610,-1.5771398544311523,-0.7447997331619263,-1.783614993095398,-2.304731607437134,1.5826233625411987,-0.03630638122558594
611,-1.5771671533584595,-0.7447715401649475,-1.783644676208496,-2.3046252727508545,1.5826560258865356,-0.036370258778333664
612,-1.5771949291229248,-0.744743287563324,-1.7836744785308838,-2.304518222808838,1.5826886892318726,-0.03643452003598213
613,-1.5772223472595215,-0.7447152137756348,-1.7837040424346924,-2.3044116497039795,1.5827213525772095,-0.036498457193374634
614,-1.5772498846054077,-0.744687020778656,-1.783733606338501,-2.3043053150177,1.5827540159225464,-0.03656259551644325
615,-1.577277421951294,-0.7446588277816772,-1.7837635278701782,-2.3041980266571045,1.5827867984771729,-0.03662656620144844
616,-1.5773048400878906,-0.7446305155754089,-1.7837932109832764,-2.304091691970825,1.5828195810317993,-0.03669050335884094
617,-1.5773320198059082,-0.7446022629737854,-1.783823013305664,-2.303985118865967,1.5828522443771362,-0.0367542989552021
618,-1.577359914779663,-0.7445741891860962,-1.7838529348373413,-2.30387806892395,1.5828850269317627,-0.03681870922446251
619,-1.5773869752883911,-0.7445459961891174,-1.7838823795318604,-2.303771734237671,1.5829176902770996,-0.03688225895166397
620,-1.5774145126342773,-0.7445177435874939,-1.783912181854248,-2.3036649227142334,1.5829505920410156,-0.03694632276892662
621,-1.5774420499801636,-0.7444896101951599,-1.7839419841766357,-2.303558111190796,1.5829832553863525,-0.037010353058576584
622,-1.5774692296981812,-0.7444614171981812,-1.7839716672897339,-2.3034517765045166,1.5830161571502686,-0.03707399591803551
623,-1.5774965286254883,-0.7444332242012024,-1.784001350402832,-2.303345203399658,1.5830488204956055,-0.03713785111904144
624,-1.5775240659713745,-0.7444048523902893,-1.7840313911437988,-2.3032381534576416,1.5830817222595215,-0.037201859056949615
625,-1.5775514841079712,-0.7443767189979553,-1.7840611934661865,-2.303131341934204,1.583114504814148,-0.03726571798324585
626,-1.5775786638259888,-0.7443485260009766,-1.7840907573699951,-2.303025007247925,1.5831472873687744,-0.037329450249671936
627,-1.5776060819625854,-0.7443203926086426,-1.7841205596923828,-2.3029181957244873,1.5831801891326904,-0.037393394857645035
628,-1.577633261680603,-0.7442920804023743,-1.7841503620147705,-2.302811622619629,1.5832130908966064,-0.037457048892974854
629,-1.5776607990264893,-0.7442639470100403,-1.784179925918579,-2.3027050495147705,1.5832459926605225,-0.03752105310559273
630,-1.5776878595352173,-0.744235634803772,-1.7842098474502563,-2.302598237991333,1.583278775215149,-0.03758462145924568
631,-1.577715277671814,-0.7442074418067932,-1.7842397689819336,-2.3024914264678955,1.5833117961883545,-0.03764856234192848
632,-1.5777424573898315,-0.7441792488098145,-1.7842693328857422,-2.302385091781616,1.583344578742981,-0.03771218657493591
633,-1.5777697563171387,-0.7441509962081909,-1.7842992544174194,-2.3022782802581787,1.5833775997161865,-0.03777593374252319
634,-1.5777969360351562,-0.7441228032112122,-1.7843289375305176,-2.3021717071533203,1.5834105014801025,-0.037839557975530624
635,-1.577824354171753,-0.7440946102142334,-1.7843587398529053,-2.302064895629883,1.5834434032440186,-0.03790345415472984
636,-1.577851414680481,-0.7440662980079651,-1.784388542175293,-2.3019583225250244,1.5834763050079346,-0.03796698525547981
637,-1.5778788328170776,-0.7440382242202759,-1.7844182252883911,-2.301851511001587,1.5835093259811401,-0.03803088515996933
638,-1.5779057741165161,-0.7440098524093628,-1.784448266029358,-2.3017446994781494,1.5835422277450562,-0.038094308227300644
639,-1.5779331922531128,-0.743981659412384,-1.7844781875610352,-2.301638126373291,1.5835752487182617,-0.038158174604177475
640,-1.5779602527618408,-0.74395352602005,-1.7845077514648438,-2.3015315532684326,1.5836081504821777,-0.03822171315550804
641,-1.5779874324798584,-0.7439252734184265,-1.7845373153686523,-2.301424980163574,1.5836411714553833,-0.03828531503677368
642,-1.5780147314071655,-0.743897020816803,-1.7845673561096191,-2.301318407058716,1.5836741924285889,-0.03834909200668335
643,-1.5780417919158936,-0.7438687682151794,-1.7845971584320068,-2.3012115955352783,1.5837072134017944,-0.03841251879930496
644,-1.5780689716339111,-0.7438405752182007,-1.784627079963684,-2.301104784011841,1.583740234375,-0.03847615048289299
645,-1.5780960321426392,-0.7438123822212219,-1.7846567630767822,-2.3009982109069824,1.5837732553482056,-0.03853972628712654
646,-1.5781230926513672,-0.7437840700149536,-1.7846866846084595,-2.300891637802124,1.5838062763214111,-0.03860321268439293
647,-1.5781502723693848,-0.7437557578086853,-1.7847166061401367,-2.3007848262786865,1.5838394165039062,-0.038666754961013794
648,-1.5781772136688232,-0.7437275648117065,-1.7847462892532349,-2.3006784915924072,1.5838724374771118,-0.03873012214899063
649,-1.5782043933868408,-0.7436993718147278,-1.784776210784912,-2.3005714416503906,1.5839056968688965,-0.03879373520612717
650,-1.5782313346862793,-0.7436710000038147,-1.784806251525879,-2.3004648685455322,1.583938717842102,-0.038857098668813705
651,-1.5782581567764282,-0.7436426877975464,-1.784835934638977,-2.300358533859253,1.5839717388153076,-0.03892035037279129
652,-1.578285574913025,-0.7436146140098572,-1.7848658561706543,-2.3002517223358154,1.5840049982070923,-0.038984138518571854
653,-1.5783122777938843,-0.7435862421989441,-1.784895658493042,-2.300145149230957,1.5840380191802979,-0.03904731199145317
654,-1.5783394575119019,-0.7435580492019653,-1.7849255800247192,-2.3000385761260986,1.584071159362793,-0.03911092132329941
655,-1.5783663988113403,-0.743529736995697,-1.7849555015563965,-2.299931764602661,1.5841044187545776,-0.039174169301986694
656,-1.5783932209014893,-0.7435015439987183,-1.7849851846694946,-2.2998249530792236,1.5841375589370728,-0.039237428456544876
657,-1.5784204006195068,-0.7434732913970947,-1.7850151062011719,-2.2997183799743652,1.5841706991195679,-0.03930103778839111
658,-1.5784472227096558,-0.7434449791908264,-1.7850451469421387,-2.299611806869507,1.584203839302063,-0.03936433419585228
659,-1.5784739255905151,-0.7434167265892029,-1.7850749492645264,-2.2995049953460693,1.5842370986938477,-0.03942740708589554
660,-1.5785009860992432,-0.7433884739875793,-1.7851049900054932,-2.299398422241211,1.5842702388763428,-0.03949078544974327
661,-1.5785280466079712,-0.7433602213859558,-1.7851345539093018,-2.2992920875549316,1.5843034982681274,-0.03955421969294548
662,-1.5785547494888306,-0.7433319091796875,-1.7851645946502686,-2.299185276031494,1.5843366384506226,-0.0396173931658268
663,-1.5785818099975586,-0.7433037161827087,-1.7851943969726562,-2.2990787029266357,1.5843698978424072,-0.03968080133199692
664,-1.578608512878418,-0.7432754039764404,-1.785224437713623,-2.2989718914031982,1.584403157234192,-0.039743825793266296
665,-1.578635573387146,-0.7432470917701721,-1.7852544784545898,-2.2988650798797607,1.5844365358352661,-0.03980730101466179
666,-1.5786622762680054,-0.7432188391685486,-1.7852842807769775,-2.2987585067749023,1.5844697952270508,-0.03987038508057594
667,-1.5786893367767334,-0.743190586566925,-1.7853143215179443,-2.298651695251465,1.5845030546188354,-0.03993377089500427
668,-1.5787160396575928,-0.7431623339653015,-1.785344123840332,-2.2985453605651855,1.5845363140106201,-0.039996881037950516
669,-1.5787428617477417,-0.743134081363678,-1.7853741645812988,-2.298438549041748,1.5845696926116943,-0.04006009176373482
670,-1.5787696838378906,-0.7431057691574097,-1.785404086112976,-2.2983319759368896,1.584602952003479,-0.04012326896190643
671,-1.57879638671875,-0.7430774569511414,-1.7854337692260742,-2.2982254028320312,1.5846363306045532,-0.0401863269507885
672,-1.5788230895996094,-0.743049144744873,-1.7854640483856201,-2.2981185913085938,1.584669589996338,-0.040249358862638474
673,-1.5788496732711792,-0.7430208921432495,-1.7854937314987183,-2.2980120182037354,1.584702968597412,-0.040312327444553375
674,-1.5788763761520386,-0.7429925799369812,-1.7855236530303955,-2.297905445098877,1.5847363471984863,-0.04037538915872574
675,-1.5789034366607666,-0.7429643273353577,-1.7855539321899414,-2.2977986335754395,1.58476984500885,-0.04043875262141228
676,-1.5789300203323364,-0.7429359555244446,-1.785583734512329,-2.29769229888916,1.5848031044006348,-0.040501631796360016
677,-1.5789567232131958,-0.742907702922821,-1.7856135368347168,-2.2975854873657227,1.584836483001709,-0.04056479036808014
678,-1.5789830684661865,-0.742879331111908,-1.7856435775756836,-2.2974789142608643,1.5848698616027832,-0.040627434849739075
679,-1.579010009765625,-0.7428510785102844,-1.7856736183166504,-2.297372341156006,1.584903359413147,-0.04069068282842636
680,-1.5790367126464844,-0.7428228259086609,-1.785703420639038,-2.2972657680511475,1.5849367380142212,-0.04075371474027634
681,-1.5790632963180542,-0.742794394493103,-1.7857338190078735,-2.29715895652771,1.5849701166152954,-0.04081666097044945
682,-1.5790901184082031,-0.742766261100769,-1.7857633829116821,-2.2970526218414307,1.5850037336349487,-0.04087978973984718
683,-1.5791163444519043,-0.7427378296852112,-1.7857937812805176,-2.296945571899414,1.585037112236023,-0.04094238206744194
684,-1.5791432857513428,-0.7427096366882324,-1.7858233451843262,-2.2968392372131348,1.5850706100463867,-0.04100559651851654
685,-1.579169750213623,-0.7426812052726746,-1.785853624343872,-2.2967324256896973,1.5851041078567505,-0.04106840118765831
686,-1.5791963338851929,-0.7426528930664062,-1.7858834266662598,-2.296625852584839,1.5851376056671143,-0.041131261736154556
687,-1.5792229175567627,-0.7426245808601379,-1.7859137058258057,-2.2965192794799805,1.5851709842681885,-0.041194185614585876
688,-1.5792492628097534,-0.7425962090492249,-1.7859437465667725,-2.296412467956543,1.5852046012878418,-0.04125681146979332
689,-1.579276204109192,-0.7425679564476013,-1.7859735488891602,-2.2963058948516846,1.5852380990982056,-0.041320063173770905
690,-1.5793023109436035,-0.7425395846366882,-1.786003589630127,-2.296199321746826,1.5852715969085693,-0.041382454335689545
691,-1.5793288946151733,-0.7425112724304199,-1.7860336303710938,-2.2960927486419678,1.5853052139282227,-0.04144532233476639
692,-1.5793554782867432,-0.7424829602241516,-1.7860636711120605,-2.2959861755371094,1.585338830947876,-0.04150821641087532
693,-1.5793817043304443,-0.7424545884132385,-1.7860939502716064,-2.295879364013672,1.5853723287582397,-0.041570816189050674
694,-1.5794082880020142,-0.7424262762069702,-1.7861238718032837,-2.2957727909088135,1.585405945777893,-0.04163362458348274
695,-1.5794346332550049,-0.7423979640007019,-1.7861535549163818,-2.295666217803955,1.5854395627975464,-0.04169628769159317
696,-1.5794613361358643,-0.7423697710037231,-1.7861837148666382,-2.2955596446990967,1.5854731798171997,-0.041759248822927475
697,-1.5794878005981445,-0.7423412799835205,-1.7862138748168945,-2.295452833175659,1.5855066776275635,-0.04182196781039238
698,-1.5795141458511353,-0.7423129677772522,-1.7862439155578613,-2.29534649848938,1.5855404138565063,-0.04188463091850281
699,-1.5795403718948364,-0.7422845363616943,-1.7862739562988281,-2.2952399253845215,1.5855740308761597,-0.041947055608034134
700,-1.5795669555664062,-0.742256224155426,-1.786304235458374,-2.295132875442505,1.585607647895813,-0.04200989380478859
701,-1.579593300819397,-0.7422279119491577,-1.7863341569900513,-2.2950265407562256,1.5856413841247559,-0.04207253456115723
702,-1.5796195268630981,-0.7421995997428894,-1.7863640785217285,-2.294919967651367,1.5856750011444092,-0.042135026305913925
703,-1.5796457529067993,-0.7421712279319763,-1.7863941192626953,-2.294813394546509,1.5857086181640625,-0.04219751060009003
704,-1.57967209815979,-0.7421427965164185,-1.7864245176315308,-2.2947065830230713,1.5857423543930054,-0.042260151356458664
705,-1.5796983242034912,-0.7421144843101501,-1.786454200744629,-2.294600248336792,1.5857759714126587,-0.042322609573602676
706,-1.5797245502471924,-0.7420861124992371,-1.7864842414855957,-2.2944936752319336,1.5858097076416016,-0.042385075241327286
707,-1.5797507762908936,-0.7420576810836792,-1.7865146398544312,-2.294386625289917,1.5858434438705444,-0.04244755953550339
708,-1.5797771215438843,-0.7420294284820557,-1.7865445613861084,-2.2942802906036377,1.5858771800994873,-0.042510200291872025
709,-1.5798035860061646,-0.7420011758804321,-1.7865747213363647,-2.2941734790802,1.5859110355377197,-0.04257287457585335
710,-1.5798295736312866,-0.7419726252555847,-1.786604642868042,-2.294067144393921,1.5859447717666626,-0.04263506457209587
711,-1.579856038093567,-0.7419443130493164,-1.786634922027588,-2.2939603328704834,1.585978388786316,-0.04269782826304436
712,-1.579882025718689,-0.7419158816337585,-1.7866649627685547,-2.293853759765625,1.586012363433838,-0.0427599661052227
713,-1.5799082517623901,-0.7418875694274902,-1.7866950035095215,-2.2937471866607666,1.5860460996627808,-0.04282248765230179
714,-1.5799344778060913,-0.7418592572212219,-1.7867252826690674,-2.293640613555908,1.586079716682434,-0.04288492724299431
715,-1.5799607038497925,-0.7418308258056641,-1.7867553234100342,-2.29353404045105,1.586113691329956,-0.04294739291071892
716,-1.579986572265625,-0.7418023943901062,-1.786785364151001,-2.2934274673461914,1.586147427558899,-0.04300947114825249
717,-1.5800127983093262,-0.7417740225791931,-1.7868156433105469,-2.293320894241333,1.5861812829971313,-0.04307188466191292
718,-1.5800386667251587,-0.7417455315589905,-1.7868456840515137,-2.2932145595550537,1.5862151384353638,-0.04313403367996216
719,-1.580065131187439,-0.7417173981666565,-1.7868757247924805,-2.293107748031616,1.5862489938735962,-0.04319664090871811
720,-1.5800909996032715,-0.7416888475418091,-1.786906123161316,-2.2930009365081787,1.5862828493118286,-0.043258730322122574
721,-1.5801169872283936,-0.7416604161262512,-1.7869362831115723,-2.2928943634033203,1.586316704750061,-0.04332093521952629
722,-1.5801430940628052,-0.7416321635246277,-1.78696608543396,-2.292788028717041,1.586350679397583,-0.043383222073316574
723,-1.5801692008972168,-0.741603672504425,-1.786996603012085,-2.2926812171936035,1.5863845348358154,-0.04344552010297775
724,-1.5801951885223389,-0.7415753602981567,-1.7870265245437622,-2.292574644088745,1.5864185094833374,-0.04350769892334938
725,-1.5802209377288818,-0.7415467500686646,-1.787056803703308,-2.292468309402466,1.5864523649215698,-0.043569669127464294
726,-1.580247163772583,-0.7415183782577515,-1.787087082862854,-2.2923614978790283,1.5864863395690918,-0.043632082641124725
727,-1.580272912979126,-0.7414899468421936,-1.7871172428131104,-2.29225492477417,1.5865201950073242,-0.04369402304291725
728,-1.5802990198135376,-0.7414617538452148,-1.787147045135498,-2.2921485900878906,1.5865541696548462,-0.043756257742643356
729,-1.5803251266479492,-0.7414332628250122,-1.7871774435043335,-2.2920420169830322,1.5865881443023682,-0.043818555772304535
730,-1.5803508758544922,-0.7414048910140991,-1.7872077226638794,-2.2919352054595947,1.5866222381591797,-0.04388050362467766
731,-1.5803768634796143,-0.741376519203186,-1.7872377634048462,-2.2918288707733154,1.5866562128067017,-0.04394262284040451
732,-1.5804026126861572,-0.7413479685783386,-1.7872681617736816,-2.291721820831299,1.5866901874542236,-0.04400463029742241
733,-1.5804283618927002,-0.7413195371627808,-1.787298321723938,-2.2916152477264404,1.5867241621017456,-0.04406648129224777
734,-1.5804543495178223,-0.7412911057472229,-1.7873284816741943,-2.291508913040161,1.5867582559585571,-0.04412863776087761
735,-1.5804800987243652,-0.7412627339363098,-1.7873587608337402,-2.2914023399353027,1.586792230606079,-0.044190555810928345
736,-1.5805059671401978,-0.7412341833114624,-1.7873889207839966,-2.2912957668304443,1.5868263244628906,-0.04425261914730072
737,-1.5805317163467407,-0.7412058115005493,-1.7874191999435425,-2.291188955307007,1.5868602991104126,-0.04431450739502907
738,-1.5805575847625732,-0.7411773800849915,-1.7874493598937988,-2.2910826206207275,1.5868942737579346,-0.044376447796821594
739,-1.5805833339691162,-0.7411489486694336,-1.7874794006347656,-2.290976047515869,1.586928367614746,-0.044438403099775314
740,-1.5806092023849487,-0.741120457649231,-1.787509799003601,-2.2908694744110107,1.5869625806808472,-0.04450041055679321
741,-1.5806350708007812,-0.7410921454429626,-1.7875399589538574,-2.2907626628875732,1.5869965553283691,-0.044562362134456635
742,-1.5806604623794556,-0.74106365442276,-1.7875702381134033,-2.290656328201294,1.5870306491851807,-0.04462398961186409
743,-1.5806862115859985,-0.7410351634025574,-1.7876002788543701,-2.2905497550964355,1.5870648622512817,-0.04468584805727005
744,-1.580712080001831,-0.7410067915916443,-1.787630558013916,-2.290443181991577,1.5870990753173828,-0.04474783316254616
745,-1.580737829208374,-0.7409783601760864,-1.7876609563827515,-2.2903363704681396,1.5871330499649048,-0.04480966553092003
746,-1.580763339996338,-0.7409499883651733,-1.7876909971237183,-2.2902300357818604,1.5871671438217163,-0.04487131908535957
747,-1.5807889699935913,-0.7409214377403259,-1.7877211570739746,-2.290123701095581,1.587201476097107,-0.04493306949734688
748,-1.5808145999908447,-0.7408928871154785,-1.7877516746520996,-2.2900168895721436,1.5872355699539185,-0.044994838535785675
749,-1.5808402299880981,-0.7408644556999207,-1.7877819538116455,-2.289910316467285,1.5872697830200195,-0.04505659267306328
750,-1.580865740776062,-0.7408359050750732,-1.7878122329711914,-2.2898037433624268,1.587303876876831,-0.045118216425180435
751,-1.580891489982605,-0.7408075332641602,-1.7878425121307373,-2.2896971702575684,1.5873382091522217,-0.045180048793554306
752,-1.5809168815612793,-0.7407790422439575,-1.7878726720809937,-2.28959059715271,1.5873723030090332,-0.04524156451225281
753,-1.5809426307678223,-0.7407506108283997,-1.787903070449829,-2.2894840240478516,1.5874065160751343,-0.045303404331207275
754,-1.5809681415557861,-0.740722119808197,-1.787933349609375,-2.289377450942993,1.587440848350525,-0.045364949852228165
755,-1.58099365234375,-0.7406937479972839,-1.7879633903503418,-2.2892708778381348,1.587475061416626,-0.04542664438486099
756,-1.5810189247131348,-0.740665078163147,-1.7879940271377563,-2.2891643047332764,1.5875093936920166,-0.04548804461956024
757,-1.5810446739196777,-0.7406366467475891,-1.7880244255065918,-2.289057731628418,1.5875436067581177,-0.045549824833869934
758,-1.581070065498352,-0.7406081557273865,-1.7880544662475586,-2.2889511585235596,1.5875779390335083,-0.04561131075024605
759,-1.5810954570770264,-0.7405797243118286,-1.788084626197815,-2.2888448238372803,1.5876121520996094,-0.045672766864299774
760,-1.5811206102371216,-0.7405511140823364,-1.78811514377594,-2.288738489151001,1.587646484375,-0.04573401063680649
761,-1.5811463594436646,-0.7405228018760681,-1.7881453037261963,-2.2886316776275635,1.5876808166503906,-0.04579589143395424
762,-1.5811717510223389,-0.7404941916465759,-1.7881758213043213,-2.288524866104126,1.5877151489257812,-0.045857321470975876
763,-1.5811971426010132,-0.7404657006263733,-1.7882061004638672,-2.2884185314178467,1.5877494812011719,-0.0459187775850296
764,-1.5812225341796875,-0.7404372096061707,-1.788236379623413,-2.2883119583129883,1.5877838134765625,-0.04598020762205124
765,-1.5812479257583618,-0.7404088377952576,-1.7882664203643799,-2.288205623626709,1.5878181457519531,-0.04604167491197586
766,-1.5812733173370361,-0.7403802871704102,-1.7882969379425049,-2.2880990505218506,1.5878525972366333,-0.04610313102602959
767,-1.5812987089157104,-0.7403517365455627,-1.7883274555206299,-2.287992238998413,1.587886929512024,-0.046164534986019135
768,-1.5813236236572266,-0.7403230667114258,-1.7883577346801758,-2.287885904312134,1.587921380996704,-0.04622555524110794
769,-1.5813490152359009,-0.7402946949005127,-1.7883880138397217,-2.2877793312072754,1.5879557132720947,-0.046287018805742264
770,-1.5813744068145752,-0.7402661442756653,-1.7884185314178467,-2.287672519683838,1.5879900455474854,-0.046348415315151215
771,-1.5813994407653809,-0.7402375340461731,-1.7884490489959717,-2.2875661849975586,1.5880244970321655,-0.046409498900175095
772,-1.5814248323440552,-0.7402090430259705,-1.7884790897369385,-2.2874596118927,1.5880589485168457,-0.04647096246480942
773,-1.58145010471344,-0.7401805520057678,-1.7885096073150635,-2.287353038787842,1.5880934000015259,-0.04653225839138031
774,-1.5814752578735352,-0.7401520609855652,-1.7885398864746094,-2.2872467041015625,1.5881279706954956,-0.046593476086854935
775,-1.5815002918243408,-0.7401235103607178,-1.7885704040527344,-2.287139892578125,1.5881624221801758,-0.04665447399020195
776,-1.581525444984436,-0.7400949597358704,-1.7886006832122803,-2.2870335578918457,1.5881967544555664,-0.046715762466192245
777,-1.5815505981445312,-0.740066409111023,-1.7886310815811157,-2.2869269847869873,1.5882313251495361,-0.04677687957882881
778,-1.581575870513916,-0.7400379180908203,-1.7886614799499512,-2.286820411682129,1.5882657766342163,-0.046838175505399704
779,-1.5816009044647217,-0.7400093674659729,-1.7886919975280762,-2.2867138385772705,1.588300347328186,-0.04689919203519821
780,-1.5816259384155273,-0.7399808168411255,-1.7887223958969116,-2.286607503890991,1.5883349180221558,-0.04696027934551239
781,-1.581650972366333,-0.7399522662162781,-1.788752555847168,-2.286500930786133,1.588369369506836,-0.04702136293053627
782,-1.5816761255264282,-0.7399237155914307,-1.7887828350067139,-2.2863945960998535,1.5884039402008057,-0.04708251357078552
783,-1.5817011594772339,-0.7398951053619385,-1.7888133525848389,-2.286288022994995,1.5884385108947754,-0.04714355990290642
784,-1.58172607421875,-0.7398665547370911,-1.7888438701629639,-2.2861814498901367,1.5884729623794556,-0.04720441624522209
785,-1.5817511081695557,-0.7398380041122437,-1.7888742685317993,-2.2860748767852783,1.5885076522827148,-0.047265440225601196
786,-1.5817761421203613,-0.7398094534873962,-1.7889046669006348,-2.28596830368042,1.588542103767395,-0.04732649773359299
787,-1.5818010568618774,-0.7397809028625488,-1.7889349460601807,-2.2858619689941406,1.5885767936706543,-0.047387439757585526
788,-1.581826090812683,-0.7397522926330566,-1.7889657020568848,-2.285755157470703,1.588611364364624,-0.047448497265577316
789,-1.5818510055541992,-0.7397237420082092,-1.7889959812164307,-2.285648822784424,1.5886460542678833,-0.04750940576195717
790,-1.5818756818771362,-0.7396950721740723,-1.7890264987945557,-2.2855422496795654,1.588680624961853,-0.04756999388337135
791,-1.5819008350372314,-0.7396665811538696,-1.7890568971633911,-2.285435914993286,1.5887153148651123,-0.047631118446588516
792,-1.581925868988037,-0.7396379709243774,-1.7890874147415161,-2.2853291034698486,1.5887500047683716,-0.04769212380051613
793,-1.5819505453109741,-0.7396094799041748,-1.7891175746917725,-2.2852230072021484,1.5887844562530518,-0.04775282368063927
794,-1.5819753408432007,-0.7395808696746826,-1.7891480922698975,-2.285116195678711,1.5888192653656006,-0.04781359061598778
795,-1.5820003747940063,-0.7395523190498352,-1.7891786098480225,-2.2850098609924316,1.5888538360595703,-0.04787462204694748
796,-1.5820249319076538,-0.7395236492156982,-1.7892091274261475,-2.2849032878875732,1.5888886451721191,-0.04793509095907211
797,-1.58204984664917,-0.739495038986206,-1.7892396450042725,-2.284796714782715,1.5889233350753784,-0.04799598455429077
798,-1.582074522972107,-0.7394664883613586,-1.7892699241638184,-2.2846903800964355,1.5889580249786377,-0.048056598752737045
799,-1.5820993185043335,-0.7394378781318665,-1.7893006801605225,-2.284583568572998,1.588992714881897,-0.04811737313866615
800,-1.5821239948272705,-0.7394092679023743,-1.7893309593200684,-2.2844772338867188,1.5890275239944458,-0.048177991062402725
801,-1.5821486711502075,-0.7393805980682373,-1.7893614768981934,-2.2843708992004395,1.5890623331069946,-0.048238638788461685
802,-1.582173466682434,-0.7393519282341003,-1.7893919944763184,-2.284264087677002,1.5890969038009644,-0.04829941689968109
803,-1.5821980237960815,-0.7393233180046082,-1.7894227504730225,-2.2841575145721436,1.5891317129135132,-0.04835992306470871
804,-1.5822229385375977,-0.7392947673797607,-1.7894530296325684,-2.2840511798858643,1.5891666412353516,-0.04842071607708931
805,-1.5822473764419556,-0.7392661571502686,-1.7894835472106934,-2.283944606781006,1.5892013311386108,-0.0484810508787632
806,-1.5822721719741821,-0.7392375469207764,-1.7895140647888184,-2.2838382720947266,1.5892361402511597,-0.0485418476164341
807,-1.58229660987854,-0.739208996295929,-1.7895443439483643,-2.2837319374084473,1.5892709493637085,-0.04860217869281769
808,-1.582321286201477,-0.7391802072525024,-1.7895749807357788,-2.283625364303589,1.5893057584762573,-0.04866277426481247
809,-1.5823458433151245,-0.7391515970230103,-1.789605736732483,-2.2835185527801514,1.5893406867980957,-0.04872328042984009
810,-1.5823702812194824,-0.7391230463981628,-1.7896358966827393,-2.283412456512451,1.589375376701355,-0.048783641308546066
