GiorgioMedico/spline/trajectory.csv
,J1,J2,J3,J4,J5,J6
0,-1.5215353965759277,-0.9338086843490601,-1.3985379934310913,-2.3705193996429443,1.6347182989120483,0.015285514295101166
1,-1.5213332176208496,-0.9335808753967285,-1.398777961730957,-2.3698551654815674,1.6344406604766846,0.01575184240937233
2,-1.5211302042007446,-0.9333530068397522,-1.3990178108215332,-2.3691909313201904,1.6341623067855835,0.016218779608607292
3,-1.5209273099899292,-0.9331250786781311,-1.3992576599121094,-2.3685271739959717,1.6338837146759033,0.016685497015714645
4,-1.520723581314087,-0.93289715051651,-1.3994977474212646,-2.3678629398345947,1.6336045265197754,0.017152773216366768
5,-1.5205198526382446,-0.9326692819595337,-1.3997377157211304,-2.367199182510376,1.6333250999450684,0.017619837075471878
6,-1.5203157663345337,-0.9324412941932678,-1.399977684020996,-2.3665359020233154,1.6330450773239136,0.018087157979607582
7,-1.5201114416122437,-0.9322133660316467,-1.4002180099487305,-2.3658721446990967,1.6327646970748901,0.01855440065264702
8,-1.5199066400527954,-0.9319855570793152,-1.4004576206207275,-2.3652091026306152,1.6324838399887085,0.019022051244974136
9,-1.5197014808654785,-0.9317575693130493,-1.4006975889205933,-2.364546537399292,1.6322026252746582,0.01948980987071991
10,-1.5194960832595825,-0.9315295219421387,-1.4009380340576172,-2.3638832569122314,1.6319209337234497,0.019957618787884712
11,-1.5192902088165283,-0.9313017129898071,-1.4011777639389038,-2.3632209300994873,1.631638765335083,0.02042568475008011
12,-1.5190843343734741,-0.931073784828186,-1.4014180898666382,-2.362558126449585,1.631356120109558,0.020893529057502747
13,-1.5188781023025513,-0.9308457970619202,-1.401658296585083,-2.3618955612182617,1.6310731172561646,0.021361690014600754
14,-1.5186713933944702,-0.9306178092956543,-1.4018983840942383,-2.3612334728240967,1.6307897567749023,0.021830080077052116
15,-1.5184646844863892,-0.9303898811340332,-1.4021387100219727,-2.3605711460113525,1.6305058002471924,0.02229824848473072
16,-1.51825749874115,-0.9301618337631226,-1.4023791551589966,-2.3599092960357666,1.6302216053009033,0.022766640409827232
17,-1.518049955368042,-0.9299338459968567,-1.4026196002960205,-2.3592472076416016,1.629936695098877,0.023235199972987175
18,-1.5178422927856445,-0.9297060370445251,-1.4028594493865967,-2.358586072921753,1.6296515464782715,0.023703748360276222
19,-1.5176341533660889,-0.929478108882904,-1.403099775314331,-2.357924461364746,1.6293659210205078,0.024172553792595863
20,-1.5174260139465332,-0.9292500615119934,-1.4033405780792236,-2.3572630882263184,1.629079818725586,0.024641189724206924
21,-1.5172173976898193,-0.9290220737457275,-1.403580904006958,-2.3566017150878906,1.6287933588027954,0.02511005662381649
22,-1.517008662223816,-0.9287941455841064,-1.4038212299346924,-2.355940818786621,1.6285063028335571,0.025578761473298073
23,-1.5167995691299438,-0.9285660982131958,-1.4040621519088745,-2.3552796840667725,1.6282188892364502,0.026047782972455025
24,-1.5165902376174927,-0.9283381104469299,-1.4043028354644775,-2.354618787765503,1.6279311180114746,0.026516787707805634
25,-1.5163806676864624,-0.9281102418899536,-1.4045432806015015,-2.3539583683013916,1.6276428699493408,0.026985839009284973
26,-1.5161709785461426,-0.9278823733329773,-1.4047834873199463,-2.3532981872558594,1.6273540258407593,0.027454840019345284
27,-1.515960931777954,-0.9276543855667114,-1.4050244092941284,-2.352637529373169,1.6270649433135986,0.027923956513404846
28,-1.5157506465911865,-0.9274264574050903,-1.405265212059021,-2.351977586746216,1.6267753839492798,0.028393050655722618
29,-1.5155401229858398,-0.9271984696388245,-1.4055061340332031,-2.3513171672821045,1.6264852285385132,0.02886231429874897
30,-1.5153294801712036,-0.9269706606864929,-1.4057466983795166,-2.3506574630737305,1.6261948347091675,0.029331417754292488
31,-1.5151187181472778,-0.9267427921295166,-1.4059877395629883,-2.3499975204467773,1.6259039640426636,0.02980056218802929
32,-1.5149073600769043,-0.9265145659446716,-1.406229019165039,-2.3493378162384033,1.6256126165390015,0.030269930139183998
33,-1.5146961212158203,-0.9262868165969849,-1.406469702720642,-2.3486783504486084,1.6253207921981812,0.03073909878730774
34,-1.5144844055175781,-0.9260590076446533,-1.4067106246948242,-2.3480191230773926,1.6250286102294922,0.031208476051688194
35,-1.514272689819336,-0.9258310198783875,-1.406951904296875,-2.3473596572875977,1.6247358322143555,0.03167770802974701
36,-1.5140604972839355,-0.9256031513214111,-1.4071931838989258,-2.346700668334961,1.62444269657135,0.032147154211997986
37,-1.5138486623764038,-0.9253753423690796,-1.407434105873108,-2.3460419178009033,1.624149203300476,0.03261609002947807
38,-1.5136361122131348,-0.9251475930213928,-1.4076752662658691,-2.3453829288482666,1.6238551139831543,0.03308551758527756
39,-1.5134236812591553,-0.9249196648597717,-1.407916784286499,-2.344724178314209,1.6235606670379639,0.033554598689079285
40,-1.5132108926773071,-0.9246918559074402,-1.4081580638885498,-2.3440656661987305,1.6232658624649048,0.03402392566204071
41,-1.5129979848861694,-0.9244639277458191,-1.4083995819091797,-2.343407154083252,1.622970461845398,0.03449306637048721
42,-1.5127849578857422,-0.9242361783981323,-1.4086412191390991,-2.3427484035491943,1.6226747035980225,0.03496217727661133
43,-1.5125715732574463,-0.9240084886550903,-1.40888249874115,-2.3420908451080322,1.6223785877227783,0.03543147072196007
44,-1.51235830783844,-0.9237805604934692,-1.4091242551803589,-2.341432809829712,1.622081995010376,0.03590040281414986
45,-1.5121448040008545,-0.9235528707504272,-1.4093660116195679,-2.3407742977142334,1.6217849254608154,0.03636935353279114
46,-1.5119311809539795,-0.92332524061203,-1.4096076488494873,-2.340116500854492,1.6214873790740967,0.03683823347091675
47,-1.5117173194885254,-0.9230974316596985,-1.4098496437072754,-2.33945894241333,1.6211893558502197,0.03730710595846176
48,-1.5115033388137817,-0.9228697419166565,-1.4100914001464844,-2.338801383972168,1.6208909749984741,0.03777599334716797
49,-1.511289358139038,-0.9226419925689697,-1.4103333950042725,-2.338143825531006,1.6205921173095703,0.03824463486671448
50,-1.5110750198364258,-0.9224143624305725,-1.4105753898620605,-2.337486505508423,1.6202929019927979,0.038713403046131134
51,-1.510860562324524,-0.9221866726875305,-1.4108176231384277,-2.33682918548584,1.6199932098388672,0.03918210044503212
52,-1.5106459856033325,-0.9219591021537781,-1.4110593795776367,-2.336172103881836,1.6196929216384888,0.039650678634643555
53,-1.5104315280914307,-0.9217314124107361,-1.411301851272583,-2.335515022277832,1.6193923950195312,0.04011891782283783
54,-1.5102167129516602,-0.9215037822723389,-1.4115443229675293,-2.334857940673828,1.619091272354126,0.040587376803159714
55,-1.5100018978118896,-0.9212762117385864,-1.4117869138717651,-2.3342010974884033,1.618789792060852,0.0410555824637413
56,-1.5097869634628296,-0.9210485219955444,-1.4120293855667114,-2.3335444927215576,1.6184879541397095,0.0415237732231617
57,-1.50957190990448,-0.9208211302757263,-1.412271499633789,-2.332887887954712,1.6181856393814087,0.041991833597421646
58,-1.5093568563461304,-0.9205936789512634,-1.4125139713287354,-2.3322317600250244,1.6178828477859497,0.042459625750780106
59,-1.5091416835784912,-0.9203661680221558,-1.4127570390701294,-2.3315746784210205,1.6175795793533325,0.04292743280529976
60,-1.508926272392273,-0.9201387166976929,-1.4129995107650757,-2.330919027328491,1.6172759532928467,0.043395254760980606
61,-1.5087107419967651,-0.9199113845825195,-1.4132423400878906,-2.3302628993988037,1.6169718503952026,0.04386289790272713
62,-1.5084952116012573,-0.9196838736534119,-1.4134852886199951,-2.329606771469116,1.6166672706604004,0.0443304069340229
63,-1.508279800415039,-0.9194564819335938,-1.4137284755706787,-2.3289506435394287,1.6163623332977295,0.04479750618338585
64,-1.5080642700195312,-0.9192290306091309,-1.4139716625213623,-2.3282947540283203,1.6160569190979004,0.04526468366384506
65,-1.5078485012054443,-0.9190018177032471,-1.4142146110534668,-2.327639102935791,1.615751028060913,0.045731812715530396
66,-1.507632851600647,-0.918774425983429,-1.4144580364227295,-2.3269834518432617,1.6154448986053467,0.0461985245347023
67,-1.5074172019958496,-0.9185471534729004,-1.4147014617919922,-2.3263275623321533,1.6151381731033325,0.04666506499052048
68,-1.5072011947631836,-0.9183198809623718,-1.4149446487426758,-2.3256723880767822,1.6148309707641602,0.0471317358314991
69,-1.5069853067398071,-0.9180927276611328,-1.4151883125305176,-2.325016736984253,1.6145234107971191,0.04759816825389862
70,-1.5067695379257202,-0.9178653955459595,-1.415432333946228,-2.324361562728882,1.61421537399292,0.04806423559784889
71,-1.5065536499023438,-0.9176384806632996,-1.415675401687622,-2.32370662689209,1.613906979560852,0.0485302209854126
72,-1.5063377618789673,-0.9174114465713501,-1.4159191846847534,-2.3230512142181396,1.613598108291626,0.04899594932794571
73,-1.5061218738555908,-0.9171842336654663,-1.4161630868911743,-2.3223965167999268,1.6132887601852417,0.04946151375770569
74,-1.5059057474136353,-0.9169571399688721,-1.4164073467254639,-2.3217411041259766,1.6129790544509888,0.04992705583572388
75,-1.5056897401809692,-0.9167301654815674,-1.4166512489318848,-2.3210864067077637,1.6126689910888672,0.050392311066389084
76,-1.5054738521575928,-0.9165032505989075,-1.4168953895568848,-2.320431709289551,1.6123583316802979,0.05085717886686325
77,-1.5052578449249268,-0.9162760376930237,-1.417140007019043,-2.319776773452759,1.6120471954345703,0.05132197216153145
78,-1.5050418376922607,-0.9160492420196533,-1.417384386062622,-2.319122076034546,1.6117358207702637,0.05178659409284592
79,-1.5048258304595947,-0.9158223867416382,-1.4176286458969116,-2.318467855453491,1.6114239692687988,0.05225101485848427
80,-1.5046099424362183,-0.9155955910682678,-1.4178731441497803,-2.3178133964538574,1.6111116409301758,0.05271506309509277
81,-1.5043940544128418,-0.9153687357902527,-1.4181180000305176,-2.3171586990356445,1.610798954963684,0.05317887291312218
82,-1.5041781663894653,-0.9151419401168823,-1.4183627367019653,-2.316504716873169,1.6104857921600342,0.05364253744482994
83,-1.5039621591567993,-0.9149153232574463,-1.418607234954834,-2.3158507347106934,1.6101720333099365,0.05410604178905487
84,-1.5037463903427124,-0.9146885871887207,-1.4188525676727295,-2.3151962757110596,1.6098581552505493,0.05456915870308876
85,-1.5035306215286255,-0.9144618511199951,-1.419097661972046,-2.314542293548584,1.609543800354004,0.05503195524215698
86,-1.5033148527145386,-0.9142352938652039,-1.4193427562713623,-2.3138880729675293,1.6092288494110107,0.05549469217658043
87,-1.5030993223190308,-0.9140089154243469,-1.4195880889892578,-2.3132340908050537,1.6089136600494385,0.05595678091049194
88,-1.5028834342956543,-0.9137821793556213,-1.4198336601257324,-2.3125803470611572,1.6085978746414185,0.0564192533493042
89,-1.502668023109436,-0.9135558009147644,-1.420078992843628,-2.3119263648986816,1.6082817316055298,0.056880850344896317
90,-1.5024524927139282,-0.9133293032646179,-1.4203248023986816,-2.311272621154785,1.6079652309417725,0.057342395186424255
91,-1.50223708152771,-0.9131029844284058,-1.4205704927444458,-2.3106191158294678,1.6076481342315674,0.057803645730018616
92,-1.5020215511322021,-0.9128766655921936,-1.420816421508789,-2.3099653720855713,1.6073307991027832,0.05826476588845253
93,-1.501806378364563,-0.9126502275466919,-1.4210623502731323,-2.309311628341675,1.6070129871368408,0.05872529000043869
94,-1.5015913248062134,-0.9124240279197693,-1.4213085174560547,-2.3086581230163574,1.6066948175430298,0.059185512363910675
95,-1.5013761520385742,-0.9121977686882019,-1.4215548038482666,-2.30800461769104,1.6063761711120605,0.0596456341445446
96,-1.5011614561080933,-0.9119716882705688,-1.421800971031189,-2.3073513507843018,1.6060571670532227,0.06010502949357033
97,-1.5009465217590332,-0.9117456078529358,-1.4220476150512695,-2.3066978454589844,1.6057376861572266,0.060564469546079636
98,-1.5007317066192627,-0.9115194082260132,-1.42229425907135,-2.306044340133667,1.6054178476333618,0.06102357059717178
99,-1.5005171298980713,-0.9112934470176697,-1.4225409030914307,-2.3053910732269287,1.6050975322723389,0.06148228049278259
100,-1.5003026723861694,-0.9110674262046814,-1.4227879047393799,-2.3047378063201904,1.6047768592834473,0.06194063276052475
101,-1.5000882148742676,-0.9108414649963379,-1.4230351448059082,-2.304084539413452,1.604455590248108,0.062398768961429596
102,-1.4998739957809448,-0.9106155633926392,-1.4232820272445679,-2.303431749343872,1.6041340827941895,0.06285638362169266
103,-1.4996598958969116,-0.9103899002075195,-1.4235291481018066,-2.302778482437134,1.6038120985031128,0.06331371515989304
104,-1.4994457960128784,-0.9101639986038208,-1.4237765073776245,-2.3021256923675537,1.6034897565841675,0.06377077847719193
105,-1.4992320537567139,-0.9099383354187012,-1.4240241050720215,-2.3014721870422363,1.603166937828064,0.06422730535268784
106,-1.4990185499191284,-0.9097128510475159,-1.424271583557129,-2.300819158554077,1.6028437614440918,0.06468337774276733
107,-1.498805046081543,-0.9094870686531067,-1.4245195388793945,-2.300166130065918,1.6025203466415405,0.06513913720846176
108,-1.4985917806625366,-0.9092615246772766,-1.424767255783081,-2.299513578414917,1.6021963357925415,0.06559459120035172
109,-1.4983786344528198,-0.9090360999107361,-1.4250149726867676,-2.298860788345337,1.6018719673156738,0.06604965776205063
110,-1.4981656074523926,-0.908810555934906,-1.4252636432647705,-2.2982075214385986,1.6015472412109375,0.06650428473949432
111,-1.4979530572891235,-0.9085853695869446,-1.4255115985870361,-2.2975547313690186,1.6012219190597534,0.06695831567049026
112,-1.4977402687072754,-0.9083598852157593,-1.4257603883743286,-2.2969019412994385,1.6008963584899902,0.0674123540520668
113,-1.4975279569625854,-0.9081346988677979,-1.426008701324463,-2.2962489128112793,1.6005703210830688,0.06786563247442245
114,-1.4973156452178955,-0.9079094529151917,-1.426257610321045,-2.2955963611602783,1.6002439260482788,0.06831876188516617
115,-1.4971039295196533,-0.9076843857765198,-1.4265062808990479,-2.2949435710906982,1.5999171733856201,0.06877109408378601
116,-1.496891975402832,-0.9074591994285583,-1.426755428314209,-2.294290781021118,1.5995899438858032,0.06922338157892227
117,-1.496680498123169,-0.9072341322898865,-1.4270045757293701,-2.293637990951538,1.5992624759674072,0.06967506557703018
118,-1.4964690208435059,-0.9070091247558594,-1.4272539615631104,-2.292985200881958,1.598934292793274,0.07012642174959183
119,-1.49625825881958,-0.9067842960357666,-1.4275035858154297,-2.292332172393799,1.598605990409851,0.07057687640190125
120,-1.4960473775863647,-0.9065594673156738,-1.42775297164917,-2.291679620742798,1.5982773303985596,0.0710272341966629
121,-1.495836853981018,-0.9063348770141602,-1.4280025959014893,-2.291027069091797,1.5979481935501099,0.07147704809904099
122,-1.4956265687942505,-0.9061101675033569,-1.4282523393630981,-2.290374517440796,1.597618579864502,0.0719263106584549
123,-1.4954164028167725,-0.9058853387832642,-1.4285029172897339,-2.289721727371216,1.5972886085510254,0.0723753571510315
124,-1.495206594467163,-0.90566086769104,-1.4287526607513428,-2.289069175720215,1.5969583988189697,0.07282368093729019
125,-1.4949970245361328,-0.9054363369941711,-1.4290032386779785,-2.2884163856506348,1.5966277122497559,0.07327165454626083
126,-1.4947878122329712,-0.905211865901947,-1.4292538166046143,-2.2877633571624756,1.5962965488433838,0.07371901720762253
127,-1.4945785999298096,-0.9049875140190125,-1.42950439453125,-2.2871108055114746,1.5959651470184326,0.07416617125272751
128,-1.4943699836730957,-0.9047632217407227,-1.4297552108764648,-2.2864582538604736,1.5956332683563232,0.07461249083280563
129,-1.4941614866256714,-0.9045389294624329,-1.430006504058838,-2.2858052253723145,1.5953010320663452,0.07505849003791809
130,-1.4939535856246948,-0.9043149352073669,-1.4302573204040527,-2.2851526737213135,1.594968557357788,0.07550358772277832
131,-1.4937456846237183,-0.9040906429290771,-1.4305088520050049,-2.2844998836517334,1.5946354866027832,0.0759485587477684
132,-1.4935382604599,-0.9038668274879456,-1.430760145187378,-2.2838473320007324,1.5943021774291992,0.0763927772641182
133,-1.4933310747146606,-0.9036427736282349,-1.4310120344161987,-2.2831943035125732,1.593968391418457,0.07683663070201874
134,-1.493124008178711,-0.9034188985824585,-1.43126380443573,-2.282541513442993,1.5936342477798462,0.07727999240159988
135,-1.492917537689209,-0.9031950831413269,-1.4315156936645508,-2.2818892002105713,1.5932997465133667,0.07772266864776611
136,-1.4927116632461548,-0.9029714465141296,-1.4317677021026611,-2.281236410140991,1.592965006828308,0.07816439867019653
137,-1.492505669593811,-0.9027478098869324,-1.4320199489593506,-2.280583620071411,1.5926297903060913,0.07860612869262695
138,-1.492300033569336,-0.9025241136550903,-1.4322727918624878,-2.279930353164673,1.5922942161560059,0.07904721796512604
139,-1.4920947551727295,-0.9023005962371826,-1.432525396347046,-2.2792770862579346,1.5919581651687622,0.07948782294988632
140,-1.4918901920318604,-0.9020772576332092,-1.4327783584594727,-2.2786242961883545,1.5916218757629395,0.07992736995220184
141,-1.4916857481002808,-0.9018539190292358,-1.4330312013626099,-2.2779715061187744,1.591285228729248,0.0803666040301323
142,-1.4914817810058594,-0.9016306400299072,-1.4332845211029053,-2.277318239212036,1.5909481048583984,0.08080513030290604
143,-1.491277813911438,-0.9014074206352234,-1.4335377216339111,-2.276665449142456,1.5906107425689697,0.08124350011348724
144,-1.4910746812820435,-0.9011841416358948,-1.4337918758392334,-2.2760117053985596,1.5902730226516724,0.08168074488639832
145,-1.490871787071228,-0.9009612202644348,-1.4340455532073975,-2.2753584384918213,1.5899349451065063,0.08211749792098999
146,-1.4906691312789917,-0.9007382988929749,-1.4342994689941406,-2.274705648422241,1.5895963907241821,0.0825539082288742
147,-1.4904670715332031,-0.9005154967308044,-1.4345531463623047,-2.274052858352661,1.5892575979232788,0.082989402115345
148,-1.4902653694152832,-0.9002926349639893,-1.4348077774047852,-2.2733991146087646,1.5889183282852173,0.08342436701059341
149,-1.490064263343811,-0.9000699520111084,-1.4350621700286865,-2.2727458477020264,1.5885789394378662,0.08385846763849258
150,-1.4898635149002075,-0.8998474478721619,-1.435316801071167,-2.272092580795288,1.588239073753357,0.0842919796705246
151,-1.4896628856658936,-0.8996248841285706,-1.4355719089508057,-2.2714388370513916,1.5878987312316895,0.0847252607345581
152,-1.489462971687317,-0.8994023203849792,-1.4358270168304443,-2.2707855701446533,1.5875582695007324,0.08515752106904984
153,-1.4892632961273193,-0.8991800546646118,-1.4360820055007935,-2.270131826400757,1.5872173309326172,0.08558928966522217
154,-1.4890642166137695,-0.8989577293395996,-1.436337947845459,-2.269477605819702,1.5868760347366333,0.08602023869752884
155,-1.4888654947280884,-0.8987356424331665,-1.4365931749343872,-2.268824338912964,1.5865345001220703,0.08645070344209671
156,-1.4886674880981445,-0.8985133767127991,-1.4368493556976318,-2.2681705951690674,1.5861926078796387,0.08688005805015564
157,-1.4884697198867798,-0.8982915282249451,-1.4371051788330078,-2.267516851425171,1.5858502388000488,0.08730905503034592
158,-1.4882725477218628,-0.8980696797370911,-1.437361478805542,-2.266862630844116,1.5855077505111694,0.08773718029260635
159,-1.4880759716033936,-0.8978477716445923,-1.4376181364059448,-2.2662084102630615,1.5851647853851318,0.08816453814506531
160,-1.4878795146942139,-0.8976261615753174,-1.4378745555877686,-2.265554666519165,1.5848214626312256,0.0885915532708168
161,-1.4876837730407715,-0.8974044322967529,-1.43813157081604,-2.2649004459381104,1.5844779014587402,0.08901763707399368
162,-1.4874885082244873,-0.8971829414367676,-1.4383883476257324,-2.2642462253570557,1.5841339826583862,0.08944306522607803
163,-1.4872937202453613,-0.8969613909721375,-1.438645839691162,-2.263592004776001,1.5837898254394531,0.08986759930849075
164,-1.487099528312683,-0.896740198135376,-1.4389030933380127,-2.2629377841949463,1.5834453105926514,0.09029142558574677
165,-1.486905813217163,-0.8965187668800354,-1.4391610622406006,-2.262282609939575,1.583100438117981,0.09071458131074905
166,-1.4867128133773804,-0.8962976932525635,-1.4394190311431885,-2.2616279125213623,1.582755208015442,0.09113676100969315
167,-1.4865200519561768,-0.8960766196250916,-1.4396770000457764,-2.2609732151031494,1.5824096202850342,0.09155856817960739
168,-1.4863277673721313,-0.8958555459976196,-1.439935564994812,-2.2603185176849365,1.5820637941360474,0.09197956323623657
169,-1.486136555671692,-0.8956348299980164,-1.4401938915252686,-2.2596638202667236,1.5817177295684814,0.09239932149648666
170,-1.4859453439712524,-0.8954141139984131,-1.4404525756835938,-2.2590086460113525,1.5813713073730469,0.09281878173351288
171,-1.4857547283172607,-0.8951932787895203,-1.4407117366790771,-2.2583534717559814,1.5810242891311646,0.09323743730783463
172,-1.485565185546875,-0.8949729204177856,-1.440970778465271,-2.2576982975006104,1.5806775093078613,0.09365484863519669
173,-1.4853757619857788,-0.8947523832321167,-1.4412301778793335,-2.257042646408081,1.5803300142288208,0.09407192468643188
174,-1.48518705368042,-0.8945320248603821,-1.4414901733398438,-2.2563865184783936,1.5799822807312012,0.09448800981044769
175,-1.4849988222122192,-0.8943118453025818,-1.4417495727539062,-2.2557318210601807,1.5796343088150024,0.09490333497524261
176,-1.4848114252090454,-0.8940916061401367,-1.4420099258422852,-2.255075693130493,1.5792860984802246,0.09531769901514053
177,-1.4846243858337402,-0.8938716053962708,-1.442270278930664,-2.2544195652008057,1.5789375305175781,0.0957314744591713
178,-1.484438180923462,-0.8936517238616943,-1.442530632019043,-2.2537639141082764,1.5785887241363525,0.0961441695690155
179,-1.4842522144317627,-0.8934317231178284,-1.4427917003631592,-2.253107786178589,1.5782394409179688,0.09655638784170151
180,-1.4840672016143799,-0.893212080001831,-1.4430525302886963,-2.252451181411743,1.5778900384902954,0.09696752578020096
181,-1.4838829040527344,-0.8929924368858337,-1.4433138370513916,-2.2517950534820557,1.5775402784347534,0.09737757593393326
182,-1.483699083328247,-0.8927729725837708,-1.443575382232666,-2.25113844871521,1.5771902799606323,0.09778702259063721
183,-1.483515977859497,-0.892553448677063,-1.443837285041809,-2.2504818439483643,1.5768400430679321,0.09819541871547699
184,-1.4833332300186157,-0.8923342227935791,-1.4440991878509521,-2.2498247623443604,1.5764893293380737,0.0986032783985138
185,-1.4831514358520508,-0.8921151161193848,-1.4443612098693848,-2.2491676807403564,1.5761386156082153,0.09900995343923569
186,-1.4829703569412231,-0.8918959498405457,-1.4446237087249756,-2.2485110759735107,1.5757874250411987,0.0994158461689949
187,-1.4827897548675537,-0.8916770815849304,-1.4448862075805664,-2.247853994369507,1.575435996055603,0.0998208299279213
188,-1.4826099872589111,-0.89145827293396,-1.4451491832733154,-2.2471964359283447,1.5750843286514282,0.10022490471601486
189,-1.4824309349060059,-0.8912394642829895,-1.4454126358032227,-2.246537923812866,1.5747324228286743,0.10062795877456665
190,-1.4822522401809692,-0.8910208940505981,-1.4456757307052612,-2.2458808422088623,1.5743800401687622,0.10103040933609009
191,-1.4820746183395386,-0.8908023834228516,-1.445939540863037,-2.245222806930542,1.5740277767181396,0.10143156349658966
192,-1.4818973541259766,-0.8905839323997498,-1.4462037086486816,-2.2445642948150635,1.5736749172210693,0.10183221846818924
193,-1.4817211627960205,-0.8903656601905823,-1.4464678764343262,-2.243906259536743,1.5733219385147095,0.10223152488470078
194,-1.4815458059310913,-0.8901475667953491,-1.4467321634292603,-2.2432477474212646,1.5729687213897705,0.10262982547283173
195,-1.4813708066940308,-0.8899295330047607,-1.4469969272613525,-2.242589235305786,1.5726152658462524,0.10302744060754776
196,-1.4811967611312866,-0.8897117376327515,-1.4472616910934448,-2.2419302463531494,1.5722615718841553,0.10342393815517426
197,-1.4810231924057007,-0.8894938826560974,-1.4475269317626953,-2.2412712574005127,1.5719075202941895,0.10381963849067688
198,-1.4808505773544312,-0.8892762660980225,-1.4477925300598145,-2.240612268447876,1.5715532302856445,0.10421433299779892
199,-1.4806787967681885,-0.8890587687492371,-1.4480581283569336,-2.239952802658081,1.57119882106781,0.1046079769730568
200,-1.480507731437683,-0.8888413310050964,-1.4483239650726318,-2.239293336868286,1.570844054222107,0.10500054061412811
201,-1.480337381362915,-0.8886240124702454,-1.4485902786254883,-2.238633394241333,1.5704890489578247,0.10539218038320541
202,-1.4801677465438843,-0.8884068727493286,-1.4488567113876343,-2.23797345161438,1.570133924484253,0.10578285157680511
203,-1.4799989461898804,-0.8881897926330566,-1.4491236209869385,-2.2373135089874268,1.569778323173523,0.10617253184318542
204,-1.4798310995101929,-0.887972891330719,-1.4493908882141113,-2.2366526126861572,1.569422721862793,0.10656105726957321
205,-1.4796638488769531,-0.8877560496330261,-1.449657917022705,-2.235992670059204,1.5690668821334839,0.10694872587919235
206,-1.4794975519180298,-0.8875393867492676,-1.4499256610870361,-2.2353312969207764,1.5687108039855957,0.10733519494533539
207,-1.4793319702148438,-0.8873229026794434,-1.4501934051513672,-2.234670400619507,1.5683543682098389,0.10772079229354858
208,-1.4791672229766846,-0.8871064782142639,-1.4504616260528564,-2.234009027481079,1.5679978132247925,0.10810533165931702
209,-1.4790034294128418,-0.8868903517723083,-1.4507298469543457,-2.2333476543426514,1.5676411390304565,0.10848861932754517
210,-1.4788402318954468,-0.886674165725708,-1.4509985446929932,-2.2326862812042236,1.5672839879989624,0.10887116193771362
211,-1.4786781072616577,-0.8864579796791077,-1.4512677192687988,-2.2320239543914795,1.5669269561767578,0.10925232619047165
212,-1.478516697883606,-0.8862422704696655,-1.451536774635315,-2.2313621044158936,1.566569447517395,0.10963267087936401
213,-1.4783564805984497,-0.8860265016555786,-1.4518064260482788,-2.230699300765991,1.5662119388580322,0.1100115180015564
214,-1.4781968593597412,-0.8858108520507812,-1.4520764350891113,-2.230036497116089,1.5658540725708008,0.11038953065872192
215,-1.4780380725860596,-0.8855955004692078,-1.4523463249206543,-2.2293741703033447,1.5654960870742798,0.11076655238866806
216,-1.4778801202774048,-0.8853800892829895,-1.4526169300079346,-2.228710412979126,1.5651378631591797,0.11114246398210526
217,-1.477723240852356,-0.8851649761199951,-1.4528872966766357,-2.2280476093292236,1.5647794008255005,0.11151713877916336
218,-1.477567195892334,-0.8849499225616455,-1.4531583786010742,-2.227383852005005,1.5644208192825317,0.1118907704949379
219,-1.4774121046066284,-0.8847349882125854,-1.4534295797348022,-2.226719617843628,1.5640619993209839,0.11226315051317215
220,-1.4772578477859497,-0.8845202326774597,-1.4537012577056885,-2.226055383682251,1.5637030601501465,0.11263448745012283
221,-1.4771045446395874,-0.8843055367469788,-1.4539730548858643,-2.225391149520874,1.5633440017700195,0.11300460249185562
222,-1.476952314376831,-0.8840911984443665,-1.4542450904846191,-2.224726438522339,1.562984585762024,0.11337354779243469
223,-1.476800799369812,-0.8838768005371094,-1.4545178413391113,-2.2240612506866455,1.5626250505447388,0.11374151706695557
224,-1.476650357246399,-0.8836624622344971,-1.4547905921936035,-2.223396062850952,1.5622655153274536,0.114108145236969
225,-1.4765008687973022,-0.883448600769043,-1.4550633430480957,-2.222730875015259,1.5619056224822998,0.1144736260175705
226,-1.476352334022522,-0.8832347393035889,-1.4553368091583252,-2.222064733505249,1.561545729637146,0.11483793705701828
227,-1.476204752922058,-0.8830207586288452,-1.4556106328964233,-2.2213985919952393,1.561185359954834,0.11520110815763474
228,-1.476058006286621,-0.8828073143959045,-1.4558844566345215,-2.2207324504852295,1.5608251094818115,0.11556313931941986
229,-1.4759124517440796,-0.8825938105583191,-1.4561588764190674,-2.2200653553009033,1.56046462059021,0.11592378467321396
230,-1.4757676124572754,-0.8823805451393127,-1.4564335346221924,-2.219398260116577,1.5601038932800293,0.11628352105617523
231,-1.4756240844726562,-0.8821673393249512,-1.4567081928253174,-2.218731164932251,1.5597432851791382,0.11664174497127533
232,-1.475481629371643,-0.8819543123245239,-1.4569834470748901,-2.2180635929107666,1.5593822002410889,0.11699864268302917
233,-1.4753398895263672,-0.881741464138031,-1.457258939743042,-2.217395544052124,1.5590211153030396,0.11735466122627258
234,-1.4751992225646973,-0.8815286755561829,-1.4575350284576416,-2.2167270183563232,1.5586599111557007,0.11770939826965332
235,-1.4750597476959229,-0.8813161253929138,-1.457810878753662,-2.2160589694976807,1.5582984685897827,0.1180625781416893
236,-1.4749212265014648,-0.8811037540435791,-1.458087682723999,-2.2153899669647217,1.5579370260238647,0.11841471493244171
237,-1.4747836589813232,-0.8808916211128235,-1.4583642482757568,-2.2147209644317627,1.5575752258300781,0.1187657043337822
238,-1.4746474027633667,-0.8806794285774231,-1.458641767501831,-2.2140510082244873,1.557213544845581,0.11911508440971375
239,-1.474511981010437,-0.880467414855957,-1.4589190483093262,-2.21338152885437,1.5568517446517944,0.11946350336074829
240,-1.4743778705596924,-0.8802556991577148,-1.4591970443725586,-2.2127106189727783,1.5564898252487183,0.11981023102998734
241,-1.474244475364685,-0.8800440430641174,-1.4594752788543701,-2.2120401859283447,1.5561275482177734,0.1201561838388443
242,-1.4741125106811523,-0.8798327445983887,-1.4597535133361816,-2.211369752883911,1.5557653903961182,0.12050042301416397
243,-1.4739817380905151,-0.8796213269233704,-1.4600322246551514,-2.210698366165161,1.5554031133651733,0.12084327638149261
244,-1.4738515615463257,-0.8794101476669312,-1.4603115320205688,-2.210026502609253,1.5550405979156494,0.12118526548147202
245,-1.4737228155136108,-0.8791992664337158,-1.4605910778045654,-2.2093546390533447,1.5546780824661255,0.12152562290430069
246,-1.4735950231552124,-0.8789883852005005,-1.4608708620071411,-2.2086822986602783,1.5543153285980225,0.12186488509178162
247,-1.4734686613082886,-0.8787777423858643,-1.461150884628296,-2.208009958267212,1.553952693939209,0.12220253050327301
248,-1.4733432531356812,-0.8785673975944519,-1.4614312648773193,-2.207336664199829,1.5535898208618164,0.12253893166780472
249,-1.4732187986373901,-0.8783571124076843,-1.461712121963501,-2.2066633701324463,1.5532268285751343,0.12287421524524689
250,-1.4730956554412842,-0.8781468868255615,-1.4619934558868408,-2.205989122390747,1.5528638362884521,0.12320780754089355
251,-1.4729738235473633,-0.8779370784759521,-1.4622747898101807,-2.205315351486206,1.55250084400177,0.1235399842262268
252,-1.472853183746338,-0.877727210521698,-1.4625566005706787,-2.204641103744507,1.5521376132965088,0.12387076020240784
253,-1.472733497619629,-0.8775175213813782,-1.462839126586914,-2.203965425491333,1.5517743825912476,0.12420041859149933
254,-1.4726148843765259,-0.877308189868927,-1.4631214141845703,-2.2032902240753174,1.5514109134674072,0.12452875077724457
255,-1.472497820854187,-0.8770987391471863,-1.463404655456543,-2.2026145458221436,1.551047682762146,0.12485534697771072
256,-1.4723817110061646,-0.8768895864486694,-1.463687777519226,-2.2019383907318115,1.5506842136383057,0.12518075108528137
257,-1.4722670316696167,-0.876680850982666,-1.4639711380004883,-2.2012622356414795,1.5503206253051758,0.1255045384168625
258,-1.4721533060073853,-0.8764718770980835,-1.464255452156067,-2.200584650039673,1.549957036972046,0.1258271187543869
259,-1.472041130065918,-0.876263439655304,-1.4645400047302246,-2.199907064437866,1.549593448638916,0.12614797055721283
260,-1.471929669380188,-0.8760549426078796,-1.4648244380950928,-2.1992299556732178,1.549229621887207,0.12646783888339996
261,-1.4718197584152222,-0.8758467435836792,-1.4651097059249878,-2.1985514163970947,1.5488660335540771,0.12678606808185577
262,-1.4717111587524414,-0.8756385445594788,-1.465395450592041,-2.1978724002838135,1.5485023260116577,0.12710259854793549
263,-1.4716039896011353,-0.8754308223724365,-1.4656810760498047,-2.1971933841705322,1.5481384992599487,0.12741760909557343
264,-1.471497893333435,-0.8752232193946838,-1.4659671783447266,-2.1965138912200928,1.5477747917175293,0.12773138284683228
265,-1.4713926315307617,-0.8750155568122864,-1.4662537574768066,-2.195833921432495,1.5474106073379517,0.12804406881332397
266,-1.4712893962860107,-0.8748083710670471,-1.466540813446045,-2.1951534748077393,1.5470470190048218,0.1283544898033142
267,-1.4711869955062866,-0.8746011257171631,-1.4668281078338623,-2.194472551345825,1.5466830730438232,0.1286638081073761
268,-1.4710861444473267,-0.8743942379951477,-1.4671156406402588,-2.193791151046753,1.5463192462921143,0.12897150218486786
269,-1.470986247062683,-0.8741874694824219,-1.4674038887023926,-2.1931092739105225,1.5459550619125366,0.12927798926830292
270,-1.4708878993988037,-0.8739808201789856,-1.4676923751831055,-2.192426919937134,1.5455912351608276,0.12958268821239471
271,-1.4707908630371094,-0.873774528503418,-1.4679811000823975,-2.191744565963745,1.545227289199829,0.12988580763339996
272,-1.470694899559021,-0.8735681772232056,-1.4682704210281372,-2.19106125831604,1.544862985610962,0.13018780946731567
273,-1.4706007242202759,-0.8733623027801514,-1.468559980392456,-2.1903774738311768,1.5444992780685425,0.13048772513866425
274,-1.4705076217651367,-0.8731563091278076,-1.4688501358032227,-2.1896936893463135,1.5441352128982544,0.13078638911247253
275,-1.4704160690307617,-0.8729508519172668,-1.4691405296325684,-2.1890084743499756,1.5437713861465454,0.13108330965042114
276,-1.4703257083892822,-0.8727453947067261,-1.4694312810897827,-2.1883232593536377,1.5434074401855469,0.13137882947921753
277,-1.4702366590499878,-0.8725401759147644,-1.4697222709655762,-2.1876380443573,1.5430434942245483,0.13167287409305573
278,-1.470149040222168,-0.8723350167274475,-1.4700140953063965,-2.1869513988494873,1.5426795482635498,0.13196519017219543
279,-1.4700630903244019,-0.8721302151679993,-1.470306158065796,-2.186264753341675,1.5423158407211304,0.1322556436061859
280,-1.4699780941009521,-0.8719255924224854,-1.4705982208251953,-2.185577630996704,1.5419517755508423,0.13254497945308685
281,-1.4698950052261353,-0.8717212080955505,-1.470890998840332,-2.184890031814575,1.541588306427002,0.13283215463161469
282,-1.4698131084442139,-0.87151700258255,-1.471184253692627,-2.18420147895813,1.541224479675293,0.13311803340911865
283,-1.469732403755188,-0.8713127970695496,-1.47147798538208,-2.1835134029388428,1.540860652923584,0.13340246677398682
284,-1.4696533679962158,-0.871109127998352,-1.4717715978622437,-2.182823896408081,1.540497064590454,0.13368503749370575
285,-1.4695756435394287,-0.8709054589271545,-1.4720661640167236,-2.182133913040161,1.5401333570480347,0.1339661031961441
286,-1.4694994688034058,-0.8707019090652466,-1.4723609685897827,-2.181443929672241,1.5397698879241943,0.13424541056156158
287,-1.469424843788147,-0.8704988360404968,-1.472656011581421,-2.180752992630005,1.539406418800354,0.1345229595899582
288,-1.4693514108657837,-0.8702955842018127,-1.472951889038086,-2.1800615787506104,1.5390427112579346,0.13479913771152496
289,-1.4692795276641846,-0.8700928688049316,-1.473247766494751,-2.1793696880340576,1.5386794805526733,0.13507357239723206
290,-1.4692093133926392,-0.8698902130126953,-1.4735443592071533,-2.1786768436431885,1.538316249847412,0.13534609973430634
291,-1.4691405296325684,-0.8696879148483276,-1.4738413095474243,-2.177983522415161,1.5379530191421509,0.13561709225177765
292,-1.4690732955932617,-0.8694857954978943,-1.4741382598876953,-2.177290201187134,1.5375899076461792,0.1358862817287445
293,-1.4690072536468506,-0.8692836761474609,-1.4744362831115723,-2.17659592628479,1.5372267961502075,0.13615405559539795
294,-1.4689428806304932,-0.8690819144248962,-1.4747343063354492,-2.175901174545288,1.5368638038635254,0.13641999661922455
295,-1.468880295753479,-0.8688803911209106,-1.475032925605774,-2.1752054691314697,1.5365010499954224,0.13668398559093475
296,-1.4688187837600708,-0.8686789274215698,-1.4753323793411255,-2.174509286880493,1.5361381769180298,0.1369466632604599
297,-1.468759298324585,-0.8684778213500977,-1.4756317138671875,-2.1738126277923584,1.5357755422592163,0.13720718026161194
298,-1.4687011241912842,-0.8682770133018494,-1.4759314060211182,-2.1731154918670654,1.5354130268096924,0.13746607303619385
299,-1.468644380569458,-0.8680762648582458,-1.476231575012207,-2.1724178791046143,1.5350505113601685,0.1377234160900116
300,-1.4685893058776855,-0.8678758144378662,-1.476532220840454,-2.171719789505005,1.5346883535385132,0.13797888159751892
301,-1.4685357809066772,-0.8676753640174866,-1.4768338203430176,-2.171020269393921,1.5343259572982788,0.13823264837265015
302,-1.4684841632843018,-0.8674754500389099,-1.477135419845581,-2.170320749282837,1.5339640378952026,0.13848434388637543
303,-1.4684338569641113,-0.8672756552696228,-1.4774374961853027,-2.1696202754974365,1.5336021184921265,0.13873444497585297
304,-1.468385100364685,-0.8670761585235596,-1.4777398109436035,-2.168919801712036,1.5332401990890503,0.13898290693759918
305,-1.4683377742767334,-0.8668767213821411,-1.4780429601669312,-2.168217897415161,1.5328785181045532,0.1392296552658081
306,-1.4682925939559937,-0.8666775822639465,-1.478346347808838,-2.167515993118286,1.5325170755386353,0.1394740790128708
307,-1.4682486057281494,-0.8664787411689758,-1.4786500930786133,-2.1668131351470947,1.5321556329727173,0.13971717655658722
308,-1.4682064056396484,-0.8662799596786499,-1.4789544343948364,-2.166109800338745,1.5317944288253784,0.1399582177400589
309,-1.4681657552719116,-0.8660815358161926,-1.4792592525482178,-2.165405511856079,1.531433343887329,0.14019760489463806
310,-1.4681267738342285,-0.8658832907676697,-1.4795644283294678,-2.164700746536255,1.5310724973678589,0.14043503999710083
311,-1.4680896997451782,-0.865685224533081,-1.479870319366455,-2.1639950275421143,1.5307118892669678,0.14067058265209198
312,-1.4680540561676025,-0.8654874563217163,-1.480176568031311,-2.1632888317108154,1.5303512811660767,0.14090436697006226
313,-1.4680202007293701,-0.8652899861335754,-1.480483055114746,-2.1625821590423584,1.5299910306930542,0.14113609492778778
314,-1.4679878950119019,-0.8650928139686584,-1.4807896614074707,-2.161875009536743,1.5296307802200317,0.14136627316474915
315,-1.4679574966430664,-0.8648957014083862,-1.4810973405838013,-2.1611669063568115,1.529270887374878,0.1415942758321762
316,-1.4679286479949951,-0.8646988272666931,-1.48140549659729,-2.1604578495025635,1.5289109945297241,0.14182056486606598
317,-1.467901349067688,-0.8645022511482239,-1.4817140102386475,-2.1597483158111572,1.5285513401031494,0.14204514026641846
318,-1.4678759574890137,-0.864305853843689,-1.4820231199264526,-2.1590378284454346,1.5281919240951538,0.14226752519607544
319,-1.467852234840393,-0.8641097545623779,-1.482332468032837,-2.158327341079712,1.5278327465057373,0.14248822629451752
320,-1.4678303003311157,-0.8639139533042908,-1.4826421737670898,-2.1576154232025146,1.5274738073349,0.14270681142807007
321,-1.4678102731704712,-0.8637183308601379,-1.4829528331756592,-2.156902551651001,1.5271152257919312,0.14292339980602264
322,-1.46779203414917,-0.8635230660438538,-1.4832634925842285,-2.1561896800994873,1.526756763458252,0.14313799142837524
323,-1.4677752256393433,-0.8633278608322144,-1.4835747480392456,-2.1554763317108154,1.5263983011245728,0.1433510035276413
324,-1.4677600860595703,-0.863132894039154,-1.483886480331421,-2.154761552810669,1.5260401964187622,0.14356207847595215
325,-1.4677470922470093,-0.862938404083252,-1.484198808670044,-2.1540462970733643,1.5256823301315308,0.14377093315124512
326,-1.4677356481552124,-0.8627439141273499,-1.4845116138458252,-2.153330087661743,1.5253247022628784,0.1439780741930008
327,-1.4677263498306274,-0.8625497817993164,-1.4848248958587646,-2.152613401412964,1.5249675512313843,0.14418278634548187
328,-1.467718482017517,-0.8623559474945068,-1.4851386547088623,-2.151895761489868,1.5246104001998901,0.14438597857952118
329,-1.4677125215530396,-0.862162172794342,-1.4854531288146973,-2.151177167892456,1.524253487586975,0.14458703994750977
330,-1.4677082300186157,-0.8619687557220459,-1.4857676029205322,-2.150458574295044,1.5238969326019287,0.14478632807731628
331,-1.467706322669983,-0.861775815486908,-1.4860827922821045,-2.1497385501861572,1.5235408544540405,0.14498306810855865
332,-1.4677057266235352,-0.8615829944610596,-1.486398458480835,-2.149017572402954,1.5231846570968628,0.14517828822135925
333,-1.4677069187164307,-0.8613902926445007,-1.4867146015167236,-2.148296594619751,1.5228286981582642,0.14537154138088226
334,-1.4677104949951172,-0.8611980080604553,-1.4870316982269287,-2.1475741863250732,1.5224734544754028,0.14556217193603516
335,-1.4677155017852783,-0.8610057830810547,-1.487349033355713,-2.146850824356079,1.522118330001831,0.14575140178203583
336,-1.4677225351333618,-0.8608139753341675,-1.4876667261123657,-2.1461269855499268,1.521763563156128,0.14593827724456787
337,-1.467731237411499,-0.8606223464012146,-1.4879848957061768,-2.145402669906616,1.5214087963104248,0.14612334966659546
338,-1.4677419662475586,-0.8604310750961304,-1.488303542137146,-2.1446774005889893,1.5210545063018799,0.14630627632141113
339,-1.4677547216415405,-0.8602399826049805,-1.4886231422424316,-2.1439507007598877,1.5207005739212036,0.14648692309856415
340,-1.4677692651748657,-0.8600491881370544,-1.4889428615570068,-2.143224000930786,1.520346999168396,0.14666567742824554
341,-1.4677855968475342,-0.8598588109016418,-1.4892630577087402,-2.14249587059021,1.5199936628341675,0.14684250950813293
342,-1.4678040742874146,-0.8596684336662292,-1.489583969116211,-2.1417672634124756,1.519640564918518,0.14701706171035767
343,-1.4678245782852173,-0.8594787120819092,-1.4899051189422607,-2.1410372257232666,1.5192879438400269,0.14718931913375854
344,-1.4678467512130737,-0.85928875207901,-1.490227460861206,-2.1403071880340576,1.5189356803894043,0.14735978841781616
345,-1.467870831489563,-0.8590993881225586,-1.4905495643615723,-2.139575719833374,1.5185836553573608,0.14752823114395142
346,-1.4678971767425537,-0.8589102625846863,-1.4908723831176758,-2.1388437747955322,1.5182321071624756,0.1476941555738449
347,-1.4679253101348877,-0.8587214350700378,-1.4911956787109375,-2.138110876083374,1.5178806781768799,0.14785826206207275
348,-1.467955231666565,-0.858532726764679,-1.4915199279785156,-2.137376546859741,1.517529845237732,0.14802028238773346
349,-1.4679874181747437,-0.8583444356918335,-1.4918442964553833,-2.1366422176361084,1.517179250717163,0.14817999303340912
350,-1.4680215120315552,-0.8581563234329224,-1.4921692609786987,-2.135906934738159,1.516829013824463,0.14833766222000122
351,-1.4680575132369995,-0.8579685688018799,-1.492495059967041,-2.1351702213287354,1.5164791345596313,0.14849315583705902
352,-1.4680957794189453,-0.8577811121940613,-1.4928209781646729,-2.134432554244995,1.516129970550537,0.1486463099718094
353,-1.4681358337402344,-0.8575940132141113,-1.493147373199463,-2.1336944103240967,1.5157808065414429,0.14879754185676575
354,-1.4681779146194458,-0.8574069738388062,-1.4934748411178589,-2.1329548358917236,1.5154321193695068,0.14894646406173706
355,-1.46822190284729,-0.8572201728820801,-1.493802785873413,-2.1322147846221924,1.5150837898254395,0.14909347891807556
356,-1.4682680368423462,-0.857033908367157,-1.4941308498382568,-2.131474256515503,1.5147358179092407,0.14923815429210663
357,-1.4683161973953247,-0.8568478226661682,-1.494459867477417,-2.1307318210601807,1.5143884420394897,0.1493806391954422
358,-1.4683666229248047,-0.8566620349884033,-1.4947891235351562,-2.1299889087677,1.514041543006897,0.14952068030834198
359,-1.468418836593628,-0.8564766049385071,-1.4951188564300537,-2.1292455196380615,1.5136947631835938,0.14965884387493134
360,-1.4684733152389526,-0.8562911748886108,-1.4954496622085571,-2.12850022315979,1.5133485794067383,0.14979460835456848
361,-1.4685298204421997,-0.8561065196990967,-1.4957804679870605,-2.1277544498443604,1.513002872467041,0.14992815256118774
362,-1.4685882329940796,-0.855921745300293,-1.4961121082305908,-2.1270081996917725,1.5126574039459229,0.15005967020988464
363,-1.46864914894104,-0.8557376265525818,-1.4964442253112793,-2.12626051902771,1.512312650680542,0.15018846094608307
364,-1.4687117338180542,-0.855553388595581,-1.496777057647705,-2.1255123615264893,1.5119681358337402,0.1503155380487442
365,-1.468776822090149,-0.8553697466850281,-1.49711012840271,-2.124762773513794,1.5116242170333862,0.15043993294239044
366,-1.4688438177108765,-0.855186402797699,-1.4974439144134521,-2.1240122318267822,1.5112807750701904,0.15056230127811432
367,-1.4689128398895264,-0.8550031185150146,-1.4977784156799316,-2.123260736465454,1.5109376907348633,0.1506824940443039
368,-1.4689842462539673,-0.8548204898834229,-1.4981133937835693,-2.1225082874298096,1.5105950832366943,0.1508002132177353
369,-1.4690576791763306,-0.8546378016471863,-1.4984488487243652,-2.1217548847198486,1.5102529525756836,0.15091562271118164
370,-1.4691330194473267,-0.8544555902481079,-1.4987848997116089,-2.121000051498413,1.509911298751831,0.15102910995483398
371,-1.4692107439041138,-0.8542736768722534,-1.4991217851638794,-2.120244264602661,1.5095701217651367,0.15114004909992218
372,-1.4692907333374023,-0.8540920615196228,-1.4994590282440186,-2.119488000869751,1.5092295408248901,0.15124866366386414
373,-1.4693727493286133,-0.8539106845855713,-1.4997968673706055,-2.1187307834625244,1.5088893175125122,0.15135502815246582
374,-1.4694572687149048,-0.8537298440933228,-1.5001353025436401,-2.1179721355438232,1.5085498094558716,0.1514587700366974
375,-1.46954345703125,-0.8535490036010742,-1.500474214553833,-2.1172125339508057,1.50821053981781,0.15156064927577972
376,-1.4696322679519653,-0.8533687591552734,-1.5008137226104736,-2.1164519786834717,1.5078719854354858,0.15165986120700836
377,-1.469722867012024,-0.8531886339187622,-1.501153826713562,-2.1156904697418213,1.5075337886810303,0.151757150888443
378,-1.4698160886764526,-0.8530089259147644,-1.5014946460723877,-2.1149280071258545,1.507196307182312,0.15185165405273438
379,-1.4699113368988037,-0.8528295159339905,-1.5018360614776611,-2.114163637161255,1.506859302520752,0.15194404125213623
380,-1.4700088500976562,-0.8526503443717957,-1.5021779537200928,-2.1133992671966553,1.50652277469635,0.15203405916690826
381,-1.4701087474822998,-0.8524717092514038,-1.502520203590393,-2.112633466720581,1.506186842918396,0.15212152898311615
382,-1.4702105522155762,-0.8522932529449463,-1.5028631687164307,-2.1118671894073486,1.5058512687683105,0.15220695734024048
383,-1.470314860343933,-0.8521150946617126,-1.503206729888916,-2.1110990047454834,1.505516529083252,0.15228979289531708
384,-1.470421552658081,-0.8519371747970581,-1.5035513639450073,-2.1103293895721436,1.5051823854446411,0.15237008035182953
385,-1.4705302715301514,-0.851759672164917,-1.5038962364196777,-2.1095592975616455,1.504848599433899,0.15244823694229126
386,-1.4706413745880127,-0.8515826463699341,-1.5042415857315063,-2.108788251876831,1.5045154094696045,0.15252390503883362
387,-1.470754861831665,-0.851405680179596,-1.5045881271362305,-2.108015775680542,1.5041829347610474,0.1525970995426178
388,-1.4708703756332397,-0.8512293696403503,-1.504934310913086,-2.1072423458099365,1.5038508176803589,0.15266810357570648
389,-1.4709885120391846,-0.8510531783103943,-1.5052814483642578,-2.1064679622650146,1.5035196542739868,0.15273639559745789
390,-1.4711085557937622,-0.8508772253990173,-1.5056297779083252,-2.105692148208618,1.5031887292861938,0.1528027057647705
391,-1.4712309837341309,-0.8507015705108643,-1.5059783458709717,-2.1049153804779053,1.5028586387634277,0.15286636352539062
392,-1.4713561534881592,-0.8505265116691589,-1.5063273906707764,-2.104137659072876,1.5025291442871094,0.15292733907699585
393,-1.4714832305908203,-0.8503515720367432,-1.5066771507263184,-2.103358507156372,1.5022001266479492,0.15298619866371155
394,-1.4716130495071411,-0.8501771092414856,-1.5070276260375977,-2.1025779247283936,1.501871943473816,0.1530422866344452
395,-1.4717445373535156,-0.8500028848648071,-1.5073784589767456,-2.101796865463257,1.5015439987182617,0.153096541762352
396,-1.4718791246414185,-0.8498291373252869,-1.5077300071716309,-2.1010143756866455,1.5012171268463135,0.15314751863479614
397,-1.4720157384872437,-0.8496556282043457,-1.508082389831543,-2.1002304553985596,1.5008907318115234,0.1531965285539627
398,-1.472154974937439,-0.8494824767112732,-1.5084352493286133,-2.0994455814361572,1.5005650520324707,0.15324266254901886
399,-1.472296118736267,-0.8493097424507141,-1.5087885856628418,-2.0986597537994385,1.5002398490905762,0.15328684449195862
400,-1.4724400043487549,-0.8491372466087341,-1.5091428756713867,-2.097872495651245,1.499915599822998,0.15332812070846558
401,-1.4725860357284546,-0.8489652276039124,-1.5094974040985107,-2.0970842838287354,1.4995917081832886,0.1533672958612442
402,-1.472734808921814,-0.8487935066223145,-1.5098528861999512,-2.096294641494751,1.4992687702178955,0.15340356528759003
403,-1.4728857278823853,-0.8486221432685852,-1.5102088451385498,-2.095503568649292,1.4989463090896606,0.1534375697374344
404,-1.473038911819458,-0.8484510183334351,-1.5105654001235962,-2.094712018966675,1.4986244440078735,0.15346921980381012
405,-1.4731948375701904,-0.8482803106307983,-1.5109227895736694,-2.093918561935425,1.4983034133911133,0.15349799394607544
406,-1.4733530282974243,-0.848110020160675,-1.5112805366516113,-2.0931246280670166,1.4979832172393799,0.1535244882106781
407,-1.4735136032104492,-0.8479399085044861,-1.51163911819458,-2.0923287868499756,1.4976634979248047,0.15354841947555542
408,-1.4736768007278442,-0.8477703332901001,-1.5119982957839966,-2.091531991958618,1.4973444938659668,0.15356968343257904
409,-1.4738423824310303,-0.847601056098938,-1.5123580694198608,-2.0907342433929443,1.4970263242721558,0.15358848869800568
410,-1.4740103483200073,-0.8474321365356445,-1.512718677520752,-2.0899345874786377,1.4967089891433716,0.15360480546951294
411,-1.474180817604065,-0.8472636342048645,-1.5130798816680908,-2.0891339778900146,1.4963922500610352,0.1536184698343277
412,-1.4743537902832031,-0.8470954895019531,-1.513441562652588,-2.088332414627075,1.4960761070251465,0.1536296010017395
413,-1.4745289087295532,-0.8469275236129761,-1.5138040781021118,-2.087529420852661,1.4957606792449951,0.15363851189613342
414,-1.474706768989563,-0.8467601537704468,-1.5141669511795044,-2.0867249965667725,1.4954460859298706,0.15364451706409454
415,-1.4748876094818115,-0.8465932607650757,-1.5145303010940552,-2.0859196186065674,1.4951326847076416,0.1536475270986557
416,-1.4750703573226929,-0.8464264869689941,-1.514894962310791,-2.0851128101348877,1.4948195219039917,0.15364855527877808
417,-1.4752558469772339,-0.8462600708007812,-1.5152602195739746,-2.0843045711517334,1.4945073127746582,0.15364669263362885
418,-1.4754436016082764,-0.846094012260437,-1.5156258344650269,-2.0834953784942627,1.494195818901062,0.15364260971546173
419,-1.475633978843689,-0.845928430557251,-1.5159919261932373,-2.0826847553253174,1.4938850402832031,0.15363575518131256
420,-1.4758269786834717,-0.8457632660865784,-1.5163590908050537,-2.0818727016448975,1.4935752153396606,0.1536262184381485
421,-1.476022481918335,-0.845598578453064,-1.5167266130447388,-2.081059217453003,1.4932661056518555,0.1536141186952591
422,-1.4762206077575684,-0.8454340696334839,-1.5170949697494507,-2.080244779586792,1.4929577112197876,0.15359924733638763
423,-1.4764208793640137,-0.8452698588371277,-1.5174639225006104,-2.0794289112091064,1.492650032043457,0.1535821408033371
424,-1.4766242504119873,-0.845106303691864,-1.5178337097167969,-2.0786116123199463,1.4923436641693115,0.15356189012527466
425,-1.4768298864364624,-0.8449429273605347,-1.518203854560852,-2.0777928829193115,1.4920377731323242,0.15353935956954956
426,-1.477038025856018,-0.8447801470756531,-1.5185747146606445,-2.0769731998443604,1.4917325973510742,0.15351426601409912
427,-1.4772489070892334,-0.844617486000061,-1.5189465284347534,-2.0761520862579346,1.4914283752441406,0.15348632633686066
428,-1.4774622917175293,-0.8444553017616272,-1.5193190574645996,-2.075329542160034,1.4911249876022339,0.15345582365989685
429,-1.4776780605316162,-0.8442935347557068,-1.5196921825408936,-2.074505090713501,1.4908223152160645,0.15342289209365845
430,-1.477896809577942,-0.8441323637962341,-1.5200655460357666,-2.0736801624298096,1.4905208349227905,0.1533869504928589
431,-1.4781179428100586,-0.843971312046051,-1.5204401016235352,-2.0728533267974854,1.4902198314666748,0.15334850549697876
432,-1.4783415794372559,-0.8438107967376709,-1.520815134048462,-2.0720255374908447,1.4899197816848755,0.1533074826002121
433,-1.4785678386688232,-0.8436505198478699,-1.5211906433105469,-2.0711963176727295,1.4896206855773926,0.15326377749443054
434,-1.4787969589233398,-0.8434908390045166,-1.5215671062469482,-2.0703651905059814,1.489322543144226,0.15321728587150574
435,-1.479028582572937,-0.843331515789032,-1.521944284439087,-2.069533109664917,1.4890251159667969,0.15316803753376007
436,-1.4792627096176147,-0.8431724905967712,-1.522322177886963,-2.068699598312378,1.488728642463684,0.1531163454055786
437,-1.4794995784759521,-0.8430139422416687,-1.522700548171997,-2.0678646564483643,1.4884331226348877,0.1530618816614151
438,-1.4797391891479492,-0.8428557515144348,-1.5230798721313477,-2.0670278072357178,1.4881385564804077,0.15300457179546356
439,-1.4799813032150269,-0.8426980972290039,-1.5234594345092773,-2.066190481185913,1.487844705581665,0.15294471383094788
440,-1.4802260398864746,-0.8425406217575073,-1.523840069770813,-2.0653512477874756,1.4875516891479492,0.15288221836090088
441,-1.4804733991622925,-0.8423836827278137,-1.524221658706665,-2.0645101070404053,1.487259864807129,0.15281696617603302
442,-1.4807236194610596,-0.8422271609306335,-1.5246033668518066,-2.0636684894561768,1.4869688749313354,0.15274889767169952
443,-1.4809763431549072,-0.8420709371566772,-1.5249861478805542,-2.0628249645233154,1.4866787195205688,0.15267829596996307
444,-1.4812318086624146,-0.8419153094291687,-1.52536940574646,-2.0619804859161377,1.4863895177841187,0.1526048332452774
445,-1.481489896774292,-0.8417600989341736,-1.5257532596588135,-2.061134099960327,1.486101508140564,0.15252883732318878
446,-1.481750726699829,-0.8416051864624023,-1.5261383056640625,-2.060285806655884,1.485814094543457,0.15244987607002258
447,-1.4820141792297363,-0.8414506912231445,-1.5265235900878906,-2.0594370365142822,1.485527753829956,0.152368426322937
448,-1.4822803735733032,-0.8412966728210449,-1.5269098281860352,-2.058586359024048,1.485242486000061,0.1522841602563858
449,-1.4825491905212402,-0.8411430716514587,-1.527296543121338,-2.057734251022339,1.4849581718444824,0.15219713747501373
450,-1.4828208684921265,-0.840989887714386,-1.527684211730957,-2.056880235671997,1.4846745729446411,0.1521073430776596
451,-1.4830951690673828,-0.8408370018005371,-1.5280725955963135,-2.056025266647339,1.4843922853469849,0.1520148515701294
452,-1.4833722114562988,-0.8406848907470703,-1.528461217880249,-2.055168867111206,1.484110951423645,0.15191957354545593
453,-1.4836517572402954,-0.8405328989028931,-1.5288509130477905,-2.0543110370635986,1.483830451965332,0.1518217921257019
454,-1.4839344024658203,-0.840381383895874,-1.5292415618896484,-2.0534508228302,1.483551025390625,0.15172086656093597
455,-1.4842196702957153,-0.8402304649353027,-1.529632568359375,-2.0525901317596436,1.4832727909088135,0.15161733329296112
456,-1.4845075607299805,-0.840079665184021,-1.5300246477127075,-2.051727056503296,1.4829952716827393,0.15151114761829376
457,-1.4847980737686157,-0.8399296402931213,-1.5304169654846191,-2.05086350440979,1.482718825340271,0.1514023244380951
458,-1.4850916862487793,-0.8397798538208008,-1.5308103561401367,-2.049997568130493,1.4824436902999878,0.15129029750823975
459,-1.485387921333313,-0.8396304845809937,-1.5312045812606812,-2.0491302013397217,1.482169508934021,0.15117564797401428
460,-1.485687017440796,-0.839481770992279,-1.5315990447998047,-2.048261880874634,1.481896162033081,0.15105818212032318
461,-1.485988736152649,-0.8393333554267883,-1.5319945812225342,-2.047391176223755,1.4816240072250366,0.15093807876110077
462,-1.4862931966781616,-0.839185357093811,-1.5323907136917114,-2.0465199947357178,1.4813529253005981,0.15081526339054108
463,-1.486600399017334,-0.8390378355979919,-1.532787561416626,-2.0456464290618896,1.4810826778411865,0.15068957209587097
464,-1.4869102239608765,-0.838890790939331,-1.5331852436065674,-2.044771432876587,1.4808133840560913,0.1505613476037979
465,-1.4872232675552368,-0.8387441635131836,-1.533583641052246,-2.0438950061798096,1.4805456399917603,0.1504298895597458
466,-1.4875389337539673,-0.8385979533195496,-1.533982753753662,-2.0430171489715576,1.4802788496017456,0.15029579401016235
467,-1.487857460975647,-0.838452160358429,-1.5343828201293945,-2.042137384414673,1.480013132095337,0.1501588225364685
468,-1.4881786108016968,-0.8383070826530457,-1.5347826480865479,-2.04125714302063,1.4797483682632446,0.15001922845840454
469,-1.488502860069275,-0.838162362575531,-1.5351841449737549,-2.0403740406036377,1.4794849157333374,0.14987660944461823
470,-1.488829255104065,-0.8380178213119507,-1.5355862379074097,-2.039489984512329,1.479222297668457,0.14973171055316925
471,-1.4891589879989624,-0.8378739953041077,-1.5359890460968018,-2.0386040210723877,1.4789608716964722,0.1495835781097412
472,-1.4894914627075195,-0.8377306461334229,-1.5363924503326416,-2.0377166271209717,1.4787005186080933,0.1494327187538147
473,-1.4898267984390259,-0.8375877141952515,-1.5367966890335083,-2.036827325820923,1.478441596031189,0.149278923869133
474,-1.4901647567749023,-0.8374452590942383,-1.5372014045715332,-2.0359370708465576,1.4781835079193115,0.14912258088588715
475,-1.4905056953430176,-0.8373030424118042,-1.5376073122024536,-2.0350449085235596,1.4779267311096191,0.14896325767040253
476,-1.4908493757247925,-0.8371616005897522,-1.5380134582519531,-2.034151315689087,1.4776709079742432,0.14880119264125824
477,-1.4911959171295166,-0.8370203375816345,-1.5384209156036377,-2.0332553386688232,1.4774163961410522,0.14863626658916473
478,-1.4915454387664795,-0.8368798494338989,-1.538828730583191,-2.032358407974243,1.4771629571914673,0.14846837520599365
479,-1.491897702217102,-0.836739718914032,-1.5392372608184814,-2.0314600467681885,1.4769108295440674,0.14829780161380768
480,-1.4922527074813843,-0.8366000056266785,-1.539646863937378,-2.030559778213501,1.4766596555709839,0.14812450110912323
481,-1.4926106929779053,-0.8364608883857727,-1.5400569438934326,-2.0296576023101807,1.4764097929000854,0.14794817566871643
482,-1.4929715394973755,-0.8363221883773804,-1.540467619895935,-2.0287539958953857,1.476161003112793,0.14776918292045593
483,-1.4933353662490845,-0.8361839056015015,-1.5408796072006226,-2.027848482131958,1.475913643836975,0.1475871354341507
484,-1.4937018156051636,-0.8360461592674255,-1.5412919521331787,-2.0269415378570557,1.4756672382354736,0.14740239083766937
485,-1.4940712451934814,-0.8359088897705078,-1.5417051315307617,-2.0260331630706787,1.4754222631454468,0.1472148597240448
486,-1.494443416595459,-0.8357720375061035,-1.542119026184082,-2.025122880935669,1.4751782417297363,0.14702457189559937
487,-1.4948186874389648,-0.8356358408927917,-1.5425336360931396,-2.0242111682891846,1.4749356508255005,0.146831214427948
488,-1.4951967000961304,-0.8355001211166382,-1.542948842048645,-2.0232975482940674,1.4746941328048706,0.14663513004779816
489,-1.4955774545669556,-0.8353647589683533,-1.543365240097046,-2.0223820209503174,1.4744539260864258,0.14643630385398865
490,-1.4959614276885986,-0.8352299928665161,-1.543782114982605,-2.0214650630950928,1.4742149114608765,0.146234393119812
491,-1.4963479042053223,-0.8350956439971924,-1.5441997051239014,-2.0205471515655518,1.473976969718933,0.1460300087928772
492,-1.4967375993728638,-0.8349618911743164,-1.5446181297302246,-2.0196263790130615,1.473740577697754,0.14582237601280212
493,-1.4971299171447754,-0.8348286151885986,-1.5450372695922852,-2.018704652786255,1.4735052585601807,0.14561225473880768
494,-1.4975253343582153,-0.8346956968307495,-1.5454574823379517,-2.0177805423736572,1.4732712507247925,0.14539895951747894
495,-1.4979236125946045,-0.8345633745193481,-1.545878291130066,-2.016855001449585,1.4730384349822998,0.14518298208713531
496,-1.4983248710632324,-0.8344315886497498,-1.5462994575500488,-2.015928030014038,1.4728070497512817,0.14496397972106934
497,-1.498728632926941,-0.8343002200126648,-1.5467216968536377,-2.0149996280670166,1.4725767374038696,0.14474256336688995
498,-1.4991357326507568,-0.8341695070266724,-1.5471447706222534,-2.014068841934204,1.4723479747772217,0.1445179432630539
499,-1.499545693397522,-0.8340392708778381,-1.5475683212280273,-2.013136625289917,1.4721202850341797,0.14429043233394623
500,-1.4999583959579468,-0.8339095115661621,-1.5479927062988281,-2.012202501296997,1.4718939065933228,0.14406031370162964
501,-1.5003741979599,-0.8337802290916443,-1.5484180450439453,-2.0112669467926025,1.4716689586639404,0.14382705092430115
502,-1.5007926225662231,-0.8336513638496399,-1.548844575881958,-2.010329008102417,1.471445083618164,0.1435912847518921
503,-1.5012142658233643,-0.8335232138633728,-1.5492711067199707,-2.009390115737915,1.4712227582931519,0.14335240423679352
504,-1.5016387701034546,-0.8333956003189087,-1.5496984720230103,-2.0084493160247803,1.4710017442703247,0.1431107372045517
505,-1.5020661354064941,-0.8332683444023132,-1.5501270294189453,-2.0075066089630127,1.470781922340393,0.14286617934703827
506,-1.5024962425231934,-0.8331416249275208,-1.5505564212799072,-2.0065619945526123,1.4705634117126465,0.1426190435886383
507,-1.5029295682907104,-0.8330155611038208,-1.5509859323501587,-2.0056159496307373,1.4703463315963745,0.14236871898174286
508,-1.5033657550811768,-0.8328899145126343,-1.5514167547225952,-2.0046679973602295,1.4701306819915771,0.14211565256118774
509,-1.5038046836853027,-0.8327648639678955,-1.5518481731414795,-2.003718137741089,1.4699161052703857,0.14185987412929535
510,-1.5042469501495361,-0.8326403498649597,-1.5522801876068115,-2.0027668476104736,1.469703197479248,0.14160087704658508
511,-1.5046918392181396,-0.8325163722038269,-1.55271315574646,-2.0018136501312256,1.4694913625717163,0.14133937656879425
512,-1.505139708518982,-0.8323927521705627,-1.5531470775604248,-2.0008585453033447,1.4692810773849487,0.14107494056224823
513,-1.5055906772613525,-0.8322699666023254,-1.5535814762115479,-1.9999016523361206,1.4690722227096558,0.14080747961997986
514,-1.5060445070266724,-0.8321475386619568,-1.5540165901184082,-1.9989432096481323,1.4688647985458374,0.14053721725940704
515,-1.5065011978149414,-0.8320256471633911,-1.5544527769088745,-1.9979828596115112,1.468658685684204,0.14026421308517456
516,-1.5069607496261597,-0.8319042921066284,-1.5548897981643677,-1.9970206022262573,1.4684537649154663,0.13998845219612122
517,-1.5074234008789062,-0.8317834138870239,-1.5553275346755981,-1.9960564374923706,1.4682502746582031,0.1397097408771515
518,-1.5078891515731812,-0.8316633105278015,-1.5557656288146973,-1.9950908422470093,1.4680485725402832,0.13942790031433105
519,-1.5083575248718262,-0.8315436244010925,-1.5562047958374023,-1.9941233396530151,1.4678478240966797,0.1391436904668808
520,-1.5088289976119995,-0.8314244747161865,-1.5566449165344238,-1.9931539297103882,1.4676487445831299,0.13885635137557983
521,-1.5093035697937012,-0.8313060402870178,-1.5570852756500244,-1.9921826124191284,1.4674512147903442,0.13856616616249084
522,-1.5097808837890625,-0.8311878442764282,-1.5575271844863892,-1.9912093877792358,1.467254638671875,0.138273224234581
523,-1.5102611780166626,-0.8310702443122864,-1.557969570159912,-1.9902342557907104,1.467059850692749,0.1379774808883667
524,-1.5107444524765015,-0.8309534192085266,-1.5584125518798828,-1.9892576932907104,1.4668664932250977,0.1376788169145584
525,-1.5112309455871582,-0.8308371305465698,-1.5588563680648804,-1.9882792234420776,1.466674566268921,0.1373770833015442
526,-1.5117201805114746,-0.830721378326416,-1.5593008995056152,-1.9872993230819702,1.4664840698242188,0.13707272708415985
527,-1.5122122764587402,-0.8306061029434204,-1.5597463846206665,-1.9863170385360718,1.4662950038909912,0.13676559925079346
528,-1.5127074718475342,-0.8304913640022278,-1.5601928234100342,-1.9853323698043823,1.4661073684692383,0.13645553588867188
529,-1.5132055282592773,-0.8303773403167725,-1.5606393814086914,-1.9843467473983765,1.465921401977539,0.136142760515213
530,-1.5137065649032593,-0.8302637934684753,-1.5610871315002441,-1.983359694480896,1.4657366275787354,0.1358269900083542
531,-1.5142107009887695,-0.8301509022712708,-1.5615358352661133,-1.982369303703308,1.465553641319275,0.13550831377506256
532,-1.5147178173065186,-0.8300384283065796,-1.5619851350784302,-1.9813779592514038,1.46537184715271,0.13518685102462769
533,-1.5152275562286377,-0.829926609992981,-1.562435269355774,-1.980385184288025,1.4651917219161987,0.13486281037330627
534,-1.5157405138015747,-0.8298153281211853,-1.5628862380981445,-1.979390025138855,1.465013027191162,0.1345358043909073
535,-1.516256332397461,-0.8297046422958374,-1.5633379220962524,-1.9783929586410522,1.4648360013961792,0.13420599699020386
536,-1.516775369644165,-0.829594612121582,-1.5637903213500977,-1.9773939847946167,1.4646602869033813,0.13387322425842285
537,-1.5172971487045288,-0.8294851779937744,-1.5642433166503906,-1.9763931035995483,1.4644861221313477,0.1335376352071762
538,-1.5178219079971313,-0.829376220703125,-1.564697504043579,-1.9753907918930054,1.4643135070800781,0.13319937884807587
539,-1.5183496475219727,-0.8292679786682129,-1.5651521682739258,-1.9743865728378296,1.4641424417495728,0.13285818696022034
540,-1.5188806056976318,-0.829160213470459,-1.5656077861785889,-1.9733799695968628,1.463973045349121,0.13251402974128723
541,-1.5194141864776611,-0.8290531635284424,-1.5660641193389893,-1.9723714590072632,1.4638049602508545,0.132167249917984
542,-1.5199506282806396,-0.8289465308189392,-1.566521167755127,-1.9713619947433472,1.4636383056640625,0.13181793689727783
543,-1.520490288734436,-0.8288404941558838,-1.5669794082641602,-1.970349669456482,1.4634734392166138,0.13146550953388214
544,-1.5210328102111816,-0.8287351727485657,-1.5674381256103516,-1.969335913658142,1.4633100032806396,0.13111039996147156
545,-1.5215785503387451,-0.8286305069923401,-1.5678975582122803,-1.9683202505111694,1.4631484746932983,0.13075211644172668
546,-1.5221269130706787,-0.8285263180732727,-1.5683577060699463,-1.9673022031784058,1.4629878997802734,0.13039150834083557
547,-1.5226786136627197,-0.8284227848052979,-1.5688188076019287,-1.9662832021713257,1.4628294706344604,0.1300276815891266
548,-1.5232328176498413,-0.8283197283744812,-1.5692808628082275,-1.9652618169784546,1.462672233581543,0.12966150045394897
549,-1.5237904787063599,-0.8282175660133362,-1.5697431564331055,-1.9642385244369507,1.4625169038772583,0.1292920559644699
550,-1.524350643157959,-0.8281157612800598,-1.570206880569458,-1.9632128477096558,1.4623630046844482,0.12892021238803864
551,-1.5249141454696655,-0.8280146718025208,-1.5706710815429688,-1.962185263633728,1.4622106552124023,0.12854528427124023
552,-1.5254801511764526,-0.8279139995574951,-1.5711359977722168,-1.961157202720642,1.4620596170425415,0.128167986869812
553,-1.5260496139526367,-0.8278142213821411,-1.5716019868850708,-1.9601253271102905,1.4619108438491821,0.12778745591640472
554,-1.526621699333191,-0.8277149796485901,-1.572068452835083,-1.9590929746627808,1.4617631435394287,0.12740452587604523
555,-1.5271971225738525,-0.8276164531707764,-1.572535753250122,-1.9580577611923218,1.4616174697875977,0.12701839208602905
556,-1.5277750492095947,-0.8275182843208313,-1.5730040073394775,-1.9570211172103882,1.4614731073379517,0.12662993371486664
557,-1.5283561944961548,-0.8274208307266235,-1.5734728574752808,-1.9559825658798218,1.4613304138183594,0.12623843550682068
558,-1.528939962387085,-0.8273240923881531,-1.5739426612854004,-1.9549421072006226,1.4611892700195312,0.1258445829153061
559,-1.529527187347412,-0.8272280097007751,-1.5744130611419678,-1.9538992643356323,1.4610497951507568,0.12544743716716766
560,-1.5301169157028198,-0.8271322846412659,-1.5748846530914307,-1.9528549909591675,1.4609121084213257,0.12504790723323822
561,-1.530709981918335,-0.8270374536514282,-1.5753566026687622,-1.9518088102340698,1.4607760906219482,0.12464533001184464
562,-1.5313055515289307,-0.8269431591033936,-1.575829267501831,-1.9507602453231812,1.4606415033340454,0.12424042075872421
563,-1.5319045782089233,-0.8268495798110962,-1.5763031244277954,-1.9497102499008179,1.4605088233947754,0.12383224070072174
564,-1.5325061082839966,-0.8267565965652466,-1.5767773389816284,-1.9486583471298218,1.46037757396698,0.12342178821563721
565,-1.5331107378005981,-0.8266642689704895,-1.5772526264190674,-1.9476035833358765,1.4602479934692383,0.12300845980644226
566,-1.5337183475494385,-0.8265725374221802,-1.5777286291122437,-1.9465478658676147,1.4601202011108398,0.12259234488010406
567,-1.5343291759490967,-0.8264815807342529,-1.5782053470611572,-1.945489764213562,1.4599943161010742,0.12217327952384949
568,-1.534942626953125,-0.8263911008834839,-1.5786830186843872,-1.9444297552108765,1.4598699808120728,0.12175174802541733
569,-1.535559058189392,-0.8263013958930969,-1.5791614055633545,-1.943367838859558,1.4597471952438354,0.12132749706506729
570,-1.5361781120300293,-0.8262121081352234,-1.5796406269073486,-1.942304015159607,1.4596258401870728,0.12090082466602325
571,-1.5368006229400635,-0.8261237740516663,-1.580120325088501,-1.941238284111023,1.459506630897522,0.12047094851732254
572,-1.5374256372451782,-0.8260359764099121,-1.5806007385253906,-1.9401711225509644,1.4593888521194458,0.12003876268863678
573,-1.5380538702011108,-0.8259488344192505,-1.5810824632644653,-1.9391010999679565,1.459272861480713,0.11960366368293762
574,-1.5386849641799927,-0.8258623480796814,-1.5815646648406982,-1.938029170036316,1.4591585397720337,0.11916592717170715
575,-1.5393189191818237,-0.8257764577865601,-1.5820480585098267,-1.9369553327560425,1.4590461254119873,0.11872536689043045
576,-1.5399558544158936,-0.825691282749176,-1.5825316905975342,-1.9358800649642944,1.4589353799819946,0.11828228831291199
577,-1.540595531463623,-0.8256067633628845,-1.5830161571502686,-1.9348028898239136,1.4588260650634766,0.11783667653799057
578,-1.5412381887435913,-0.8255229592323303,-1.5835015773773193,-1.9337233304977417,1.4587185382843018,0.1173882782459259
579,-1.541883945465088,-0.8254397511482239,-1.5839879512786865,-1.9326413869857788,1.4586129188537598,0.11693709343671799
580,-1.5425325632095337,-0.8253572583198547,-1.584474802017212,-1.9315580129623413,1.4585092067718506,0.11648326367139816
581,-1.5431841611862183,-0.8252755999565125,-1.5849623680114746,-1.9304732084274292,1.4584070444107056,0.11602669209241867
582,-1.543838620185852,-0.8251944184303284,-1.5854511260986328,-1.9293850660324097,1.4583066701889038,0.11556750535964966
583,-1.544495701789856,-0.8251140117645264,-1.5859401226043701,-1.928296446800232,1.4582078456878662,0.11510596424341202
584,-1.5451557636260986,-0.8250340819358826,-1.5864300727844238,-1.927204966545105,1.4581109285354614,0.1146417111158371
585,-1.5458190441131592,-0.8249549865722656,-1.586921215057373,-1.9261115789413452,1.4580157995224,0.11417452991008759
586,-1.5464847087860107,-0.824876606464386,-1.5874125957489014,-1.9250162839889526,1.457922339439392,0.11370522528886795
587,-1.5471538305282593,-0.8247988820075989,-1.5879051685333252,-1.9239190816879272,1.4578306674957275,0.11323269456624985
588,-1.5478254556655884,-0.8247218132019043,-1.5883982181549072,-1.922819972038269,1.4577409029006958,0.11275796592235565
589,-1.5485000610351562,-0.8246454000473022,-1.5888923406600952,-1.921718955039978,1.4576528072357178,0.11228057742118835
590,-1.5491777658462524,-0.824569821357727,-1.5893868207931519,-1.9206160306930542,1.457566738128662,0.11180032789707184
591,-1.5498578548431396,-0.8244948983192444,-1.5898823738098145,-1.9195107221603394,1.4574819803237915,0.1113179475069046
592,-1.5505410432815552,-0.8244205713272095,-1.5903784036636353,-1.91840398311615,1.4573991298675537,0.11083271354436874
593,-1.55122709274292,-0.8243468999862671,-1.5908757448196411,-1.9172943830490112,1.4573183059692383,0.11034493893384933
594,-1.5519158840179443,-0.8242741227149963,-1.5913734436035156,-1.9161838293075562,1.4572389125823975,0.10985476523637772
595,-1.5526078939437866,-0.8242020010948181,-1.591871738433838,-1.91507089138031,1.457161784172058,0.10936162620782852
596,-1.553302526473999,-0.8241304159164429,-1.5923713445663452,-1.913955569267273,1.457086205482483,0.10886619985103607
597,-1.5540000200271606,-0.8240598440170288,-1.592871069908142,-1.9128388166427612,1.4570125341415405,0.10836809873580933
598,-1.5547003746032715,-0.823989748954773,-1.5933719873428345,-1.9117201566696167,1.4569405317306519,0.10786757618188858
599,-1.555403709411621,-0.8239203691482544,-1.5938738584518433,-1.9105991125106812,1.4568705558776855,0.10736425966024399
600,-1.5561096668243408,-0.8238518238067627,-1.5943760871887207,-1.9094761610031128,1.456802248954773,0.10685866326093674
601,-1.5568186044692993,-0.8237839937210083,-1.5948790311813354,-1.9083513021469116,1.4567358493804932,0.10635048896074295
602,-1.5575302839279175,-0.8237167000770569,-1.5953831672668457,-1.9072245359420776,1.456671118736267,0.1058397889137268
603,-1.5582449436187744,-0.8236503005027771,-1.5958876609802246,-1.9060958623886108,1.4566084146499634,0.10532643646001816
604,-1.5589622259140015,-0.8235845565795898,-1.59639310836792,-1.904964804649353,1.456547498703003,0.10481075942516327
605,-1.5596824884414673,-0.8235196471214294,-1.5968992710113525,-1.9038318395614624,1.4564884901046753,0.10429241508245468
606,-1.5604054927825928,-0.823455274105072,-1.5974063873291016,-1.9026974439620972,1.4564311504364014,0.10377170890569687
607,-1.561131238937378,-0.8233917355537415,-1.597914218902588,-1.9015601873397827,1.4563758373260498,0.1032484918832779
608,-1.5618599653244019,-0.823328971862793,-1.5984225273132324,-1.9004215002059937,1.456322193145752,0.10272274166345596
609,-1.5625911951065063,-0.8232669234275818,-1.5989315509796143,-1.89928138256073,1.456270456314087,0.10219474136829376
610,-1.5633254051208496,-0.8232054114341736,-1.5994417667388916,-1.898138403892517,1.4562205076217651,0.10166414827108383
611,-1.5640623569488525,-0.8231449723243713,-1.5999524593353271,-1.8969935178756714,1.4561725854873657,0.10113106667995453
612,-1.5648024082183838,-0.8230851888656616,-1.6004639863967896,-1.8958467245101929,1.4561266899108887,0.10059532523155212
613,-1.565544605255127,-0.8230258822441101,-1.6009762287139893,-1.8946985006332397,1.4560821056365967,0.10005766898393631
614,-1.566290020942688,-0.8229676485061646,-1.6014889478683472,-1.8935478925704956,1.4560399055480957,0.09951717406511307
615,-1.5670380592346191,-0.8229098320007324,-1.6020030975341797,-1.8923953771591187,1.4559993743896484,0.09897445887327194
616,-1.567789077758789,-0.8228530883789062,-1.6025176048278809,-1.8912404775619507,1.4559608697891235,0.0984291061758995
617,-1.5685425996780396,-0.8227970004081726,-1.6030325889587402,-1.890084147453308,1.4559240341186523,0.09788153320550919
618,-1.5692988634109497,-0.8227414488792419,-1.6035490036010742,-1.8889254331588745,1.4558889865875244,0.09733159840106964
619,-1.570057988166809,-0.8226868510246277,-1.6040656566619873,-1.887764811515808,1.4558560848236084,0.09677916020154953
620,-1.5708199739456177,-0.8226332068443298,-1.6045830249786377,-1.8866022825241089,1.4558249711990356,0.09622427076101303
621,-1.571584701538086,-0.8225800395011902,-1.6051013469696045,-1.8854378461837769,1.4557960033416748,0.0956670343875885
622,-1.5723518133163452,-0.8225277066230774,-1.6056203842163086,-1.8842710256576538,1.4557685852050781,0.09510765224695206
623,-1.5731219053268433,-0.8224762082099915,-1.60614013671875,-1.883102297782898,1.4557433128356934,0.09454567730426788
624,-1.5738948583602905,-0.8224254250526428,-1.6066603660583496,-1.8819326162338257,1.4557198286056519,0.09398137778043747
625,-1.5746700763702393,-0.8223752975463867,-1.6071817874908447,-1.8807600736618042,1.4556981325149536,0.09341508895158768
626,-1.5754482746124268,-0.8223260641098022,-1.6077035665512085,-1.87958562374115,1.4556783437728882,0.09284605830907822
627,-1.576229453086853,-0.8222776055335999,-1.6082265377044678,-1.8784087896347046,1.4556609392166138,0.09227463603019714
628,-1.5770128965377808,-0.8222299814224243,-1.6087497472763062,-1.8772310018539429,1.455644965171814,0.09170123189687729
629,-1.5777993202209473,-0.8221830725669861,-1.6092736721038818,-1.8760508298873901,1.455631136894226,0.09112522006034851
630,-1.5785882472991943,-0.8221369385719299,-1.6097989082336426,-1.8748677968978882,1.4556190967559814,0.09054716676473618
631,-1.5793797969818115,-0.8220915794372559,-1.6103243827819824,-1.8736838102340698,1.4556089639663696,0.08996684104204178
632,-1.580174207687378,-0.8220470547676086,-1.6108508110046387,-1.8724974393844604,1.4556008577346802,0.08938413113355637
633,-1.580971121788025,-0.8220032453536987,-1.6113778352737427,-1.8713096380233765,1.4555946588516235,0.08879916369915009
634,-1.581770658493042,-0.8219602108001709,-1.611905813217163,-1.8701194524765015,1.4555902481079102,0.08821208029985428
635,-1.5825730562210083,-0.8219179511070251,-1.6124343872070312,-1.8689268827438354,1.4555881023406982,0.08762244135141373
636,-1.5833779573440552,-0.8218767046928406,-1.6129634380340576,-1.867733359336853,1.4555875062942505,0.08703082799911499
637,-1.5841856002807617,-0.8218360543251038,-1.6134934425354004,-1.8665369749069214,1.455588936805725,0.08643680065870285
638,-1.5849958658218384,-0.8217962980270386,-1.614024043083191,-1.8653391599655151,1.4555926322937012,0.085840605199337
639,-1.5858087539672852,-0.8217572569847107,-1.6145555973052979,-1.8641389608383179,1.455597996711731,0.08524220436811447
640,-1.5866243839263916,-0.8217191696166992,-1.6150877475738525,-1.8629368543624878,1.4556055068969727,0.0846414566040039
641,-1.5874425172805786,-0.8216817378997803,-1.6156206130981445,-1.861732840538025,1.4556149244308472,0.08403865247964859
642,-1.5882631540298462,-0.8216450810432434,-1.616154432296753,-1.8605269193649292,1.455626130104065,0.08343370258808136
643,-1.5890862941741943,-0.8216092586517334,-1.6166887283325195,-1.8593190908432007,1.4556392431259155,0.08282667398452759
644,-1.5899122953414917,-0.821574330329895,-1.617223858833313,-1.8581088781356812,1.4556546211242676,0.08221730589866638
645,-1.5907405614852905,-0.821540117263794,-1.6177594661712646,-1.8568977117538452,1.4556715488433838,0.08160606026649475
646,-1.5915718078613281,-0.821506917476654,-1.618295669555664,-1.8556841611862183,1.4556907415390015,0.08099226653575897
647,-1.5924053192138672,-0.8214743733406067,-1.618833065032959,-1.854467749595642,1.4557117223739624,0.08037665486335754
648,-1.593241810798645,-0.8214427828788757,-1.619370698928833,-1.8532508611679077,1.4557349681854248,0.07975850999355316
649,-1.5940805673599243,-0.8214120268821716,-1.6199092864990234,-1.852030634880066,1.4557600021362305,0.07913854718208313
650,-1.5949217081069946,-0.8213818669319153,-1.6204488277435303,-1.8508089780807495,1.4557867050170898,0.07851660996675491
651,-1.5957657098770142,-0.8213527202606201,-1.6209886074066162,-1.8495858907699585,1.4558159112930298,0.07789226621389389
652,-1.5966120958328247,-0.821324348449707,-1.6215295791625977,-1.8483604192733765,1.4558467864990234,0.07726603001356125
653,-1.5974611043930054,-0.821296751499176,-1.6220710277557373,-1.8471325635910034,1.455879807472229,0.07663757354021072
654,-1.5983126163482666,-0.821270227432251,-1.622612714767456,-1.845903754234314,1.4559146165847778,0.07600715011358261
655,-1.5991665124893188,-0.8212443590164185,-1.6231554746627808,-1.8446725606918335,1.455951452255249,0.07537470757961273
656,-1.6000231504440308,-0.8212193846702576,-1.6236989498138428,-1.8434394598007202,1.4559904336929321,0.07474000751972198
657,-1.6008821725845337,-0.8211953043937683,-1.6242430210113525,-1.8422044515609741,1.456031084060669,0.07410340756177902
658,-1.6017435789108276,-0.8211719393730164,-1.6247880458831787,-1.840967059135437,1.4560738801956177,0.07346492260694504
659,-1.6026073694229126,-0.8211494088172913,-1.6253337860107422,-1.839727759361267,1.4561187028884888,0.07282449305057526
660,-1.6034740209579468,-0.8211278915405273,-1.6258797645568848,-1.8384870290756226,1.4561655521392822,0.07218164950609207
661,-1.6043428182601929,-0.8211071491241455,-1.6264269351959229,-1.8372443914413452,1.456214189529419,0.07153725624084473
662,-1.605214238166809,-0.8210871815681458,-1.6269745826721191,-1.8359988927841187,1.4562649726867676,0.07089056819677353
663,-1.6060880422592163,-0.8210681080818176,-1.6275227069854736,-1.8347524404525757,1.4563177824020386,0.0702420026063919
664,-1.6069642305374146,-0.8210498094558716,-1.628071904182434,-1.8335040807724,1.4563724994659424,0.06959164142608643
665,-1.607843279838562,-0.8210326433181763,-1.628621220588684,-1.8322538137435913,1.4564292430877686,0.06893882900476456
666,-1.6087242364883423,-0.821016252040863,-1.629171371459961,-1.8310011625289917,1.456488013267517,0.06828463077545166
667,-1.6096079349517822,-0.8210006356239319,-1.6297225952148438,-1.8297466039657593,1.456548810005188,0.0676281601190567
668,-1.6104940176010132,-0.8209858536720276,-1.6302745342254639,-1.8284896612167358,1.4566115140914917,0.06696983426809311
669,-1.6113823652267456,-0.820972204208374,-1.630826473236084,-1.827231764793396,1.4566763639450073,0.06630976498126984
670,-1.6122733354568481,-0.820959210395813,-1.63137948513031,-1.8259719610214233,1.4567430019378662,0.06564747542142868
671,-1.6131665706634521,-0.8209471702575684,-1.6319332122802734,-1.8247097730636597,1.4568119049072266,0.06498353183269501
672,-1.614061951637268,-0.8209357857704163,-1.6324877738952637,-1.8234456777572632,1.4568824768066406,0.06431788951158524
673,-1.614959955215454,-0.8209255337715149,-1.633042812347412,-1.8221796751022339,1.456955075263977,0.06365014612674713
674,-1.6158602237701416,-0.8209160566329956,-1.6335984468460083,-1.82091224193573,1.4570300579071045,0.06298060715198517
675,-1.6167628765106201,-0.8209074139595032,-1.634155035018921,-1.8196419477462769,1.457106590270996,0.06230931356549263
676,-1.6176679134368896,-0.8208997249603271,-1.6347119808197021,-1.8183706998825073,1.4571853876113892,0.06163611263036728
677,-1.6185754537582397,-0.8208930492401123,-1.6352694034576416,-1.817097544670105,1.4572663307189941,0.06096084788441658
678,-1.6194849014282227,-0.8208872079849243,-1.635827660560608,-1.8158224821090698,1.4573488235473633,0.06028425320982933
679,-1.6203973293304443,-0.820882260799408,-1.6363868713378906,-1.8145445585250854,1.457433819770813,0.059605300426483154
680,-1.6213114261627197,-0.8208782076835632,-1.636946439743042,-1.8132656812667847,1.4575204849243164,0.058925047516822815
681,-1.6222281455993652,-0.8208749294281006,-1.6375067234039307,-1.8119844198226929,1.4576094150543213,0.05824277549982071
682,-1.6231473684310913,-0.8208727240562439,-1.6380677223205566,-1.8107017278671265,1.4577003717422485,0.057558584958314896
683,-1.6240684986114502,-0.8208712935447693,-1.6386291980743408,-1.8094171285629272,1.457793116569519,0.05687297508120537
684,-1.6249918937683105,-0.8208708763122559,-1.6391913890838623,-1.8081306219100952,1.457887887954712,0.05618560314178467
685,-1.6259177923202515,-0.8208713531494141,-1.639754295349121,-1.8068417310714722,1.4579848051071167,0.05549635365605354
686,-1.6268458366394043,-0.8208726644515991,-1.6403177976608276,-1.8055509328842163,1.4580836296081543,0.054805487394332886
687,-1.627776026725769,-0.8208749890327454,-1.6408817768096924,-1.804259181022644,1.4581844806671143,0.05411296710371971
688,-1.6287086009979248,-0.8208780884742737,-1.641446828842163,-1.8029645681381226,1.4582873582839966,0.05341861769556999
689,-1.6296435594558716,-0.8208822011947632,-1.6420122385025024,-1.8016685247421265,1.4583923816680908,0.052722539752721786
690,-1.6305806636810303,-0.8208873867988586,-1.642578125,-1.8003710508346558,1.4584991931915283,0.052024759352207184
691,-1.6315199136734009,-0.8208933472633362,-1.6431448459625244,-1.799071192741394,1.4586082696914673,0.051325466483831406
692,-1.6324613094329834,-0.8209001421928406,-1.643712043762207,-1.7977699041366577,1.45871901512146,0.050624553114175797
693,-1.633405089378357,-0.8209080100059509,-1.644279956817627,-1.7964662313461304,1.4588321447372437,0.04992184415459633
694,-1.6343510150909424,-0.8209167718887329,-1.6448484659194946,-1.7951611280441284,1.4589473009109497,0.049217525869607925
695,-1.6352990865707397,-0.8209264278411865,-1.6454179286956787,-1.7938536405563354,1.4590643644332886,0.048511672765016556
696,-1.63624906539917,-0.8209370374679565,-1.645987629890442,-1.7925447225570679,1.4591832160949707,0.047804467380046844
697,-1.6372015476226807,-0.8209486603736877,-1.6465580463409424,-1.7912338972091675,1.4593043327331543,0.04709530621767044
698,-1.6381561756134033,-0.8209611773490906,-1.6471288204193115,-1.7899216413497925,1.4594274759292603,0.04638461768627167
699,-1.6391128301620483,-0.820974588394165,-1.647700548171997,-1.7886070013046265,1.459552526473999,0.04567248374223709
700,-1.6400717496871948,-0.8209890723228455,-1.6482727527618408,-1.7872909307479858,1.4596796035766602,0.044958654791116714
701,-1.6410325765609741,-0.8210045099258423,-1.6488455533981323,-1.7859729528427124,1.4598087072372437,0.04424351081252098
702,-1.6419955492019653,-0.8210207223892212,-1.6494191884994507,-1.784652590751648,1.4599395990371704,0.0435267873108387
703,-1.642960786819458,-0.8210379481315613,-1.6499931812286377,-1.7833307981491089,1.4600727558135986,0.042808398604393005
704,-1.643928050994873,-0.8210561871528625,-1.6505680084228516,-1.782007098197937,1.4602080583572388,0.042088642716407776
705,-1.6448975801467896,-0.8210754990577698,-1.6511430740356445,-1.7806819677352905,1.4603452682495117,0.04136710241436958
706,-1.6458688974380493,-0.8210955262184143,-1.651719093322754,-1.779354453086853,1.4604843854904175,0.04064444825053215
707,-1.6468425989151,-0.82111656665802,-1.652295708656311,-1.778025507926941,1.4606255292892456,0.039920032024383545
708,-1.6478182077407837,-0.8211387395858765,-1.6528726816177368,-1.776694655418396,1.4607688188552856,0.03919423371553421
709,-1.6487956047058105,-0.8211617469787598,-1.6534502506256104,-1.7753623723983765,1.4609140157699585,0.03846734017133713
710,-1.6497753858566284,-0.8211857676506042,-1.6540284156799316,-1.774027705192566,1.4610611200332642,0.03773859143257141
711,-1.6507569551467896,-0.8212106227874756,-1.6546075344085693,-1.7726911306381226,1.4612103700637817,0.03700869530439377
712,-1.6517406702041626,-0.8212366104125977,-1.6551868915557861,-1.7713531255722046,1.4613616466522217,0.03627719357609749
713,-1.652726650238037,-0.8212636709213257,-1.6557666063308716,-1.7700132131576538,1.461514949798584,0.03554417937994003
714,-1.6537142992019653,-0.8212915658950806,-1.656347393989563,-1.7686718702316284,1.4616702795028687,0.03481006622314453
715,-1.6547040939331055,-0.8213205933570862,-1.656928539276123,-1.767328143119812,1.4618276357650757,0.03407438471913338
716,-1.6556956768035889,-0.8213503956794739,-1.6575102806091309,-1.765982985496521,1.461986780166626,0.033337585628032684
717,-1.6566896438598633,-0.8213813304901123,-1.6580924987792969,-1.7646363973617554,1.4621483087539673,0.03259911388158798
718,-1.6576850414276123,-0.8214132785797119,-1.658674955368042,-1.763287901878357,1.4623113870620728,0.031859736889600754
719,-1.6586828231811523,-0.8214461207389832,-1.6592586040496826,-1.7619370222091675,1.4624768495559692,0.031118610873818398
720,-1.659682273864746,-0.8214799761772156,-1.6598427295684814,-1.7605847120285034,1.4626439809799194,0.030376454815268517
721,-1.6606839895248413,-0.8215148448944092,-1.6604273319244385,-1.7592304944992065,1.462813377380371,0.02963266894221306
722,-1.6616873741149902,-0.821550726890564,-1.6610125303268433,-1.7578743696212769,1.4629848003387451,0.028887858614325523
723,-1.6626924276351929,-0.8215875625610352,-1.6615982055664062,-1.7565172910690308,1.4631577730178833,0.02814202383160591
724,-1.663699746131897,-0.8216254711151123,-1.662184476852417,-1.7551578283309937,1.463333249092102,0.027394523844122887
725,-1.6647088527679443,-0.8216643929481506,-1.662771224975586,-1.753796935081482,1.463510513305664,0.026645969599485397
726,-1.665719985961914,-0.8217042684555054,-1.6633585691452026,-1.7524341344833374,1.463689923286438,0.025895942002534866
727,-1.6667327880859375,-0.8217452168464661,-1.6639466285705566,-1.7510689496994019,1.4638711214065552,0.025144971907138824
728,-1.6677474975585938,-0.8217871785163879,-1.6645350456237793,-1.74970281124115,1.4640543460845947,0.02439269609749317
729,-1.6687642335891724,-0.821830153465271,-1.6651240587234497,-1.7483347654342651,1.4642397165298462,0.02363908663392067
730,-1.6697826385498047,-0.8218741416931152,-1.6657135486602783,-1.7469652891159058,1.4644269943237305,0.02288447692990303
731,-1.6708029508590698,-0.8219192028045654,-1.6663036346435547,-1.7455934286117554,1.4646164178848267,0.022128555923700333
732,-1.6718251705169678,-0.821965217590332,-1.6668944358825684,-1.7442201375961304,1.4648076295852661,0.02137145772576332
733,-1.6728488206863403,-0.8220122456550598,-1.6674854755401611,-1.7428454160690308,1.465000867843628,0.020613521337509155
734,-1.673874855041504,-0.8220604658126831,-1.6680768728256226,-1.7414687871932983,1.4651962518692017,0.01985391229391098
735,-1.6749022006988525,-0.8221095204353333,-1.6686694622039795,-1.740090250968933,1.4653931856155396,0.019093671813607216
736,-1.6759315729141235,-0.8221597075462341,-1.6692619323730469,-1.7387102842330933,1.4655925035476685,0.01833214983344078
737,-1.6769626140594482,-0.8222110271453857,-1.6698553562164307,-1.7373284101486206,1.4657937288284302,0.01756945066154003
738,-1.6779954433441162,-0.8222631216049194,-1.670449137687683,-1.7359451055526733,1.4659968614578247,0.01680576242506504
739,-1.6790300607681274,-0.8223166465759277,-1.6710431575775146,-1.7345603704452515,1.4662020206451416,0.016040869057178497
740,-1.6800663471221924,-0.8223708271980286,-1.6716384887695312,-1.7331727743148804,1.4664092063903809,0.015275124460458755
741,-1.681104302406311,-0.8224262595176697,-1.6722335815429688,-1.7317842245101929,1.4666180610656738,0.014508318156003952
742,-1.6821439266204834,-0.8224826455116272,-1.6728296279907227,-1.7303937673568726,1.4668290615081787,0.013740540482103825
743,-1.6831855773925781,-0.8225402235984802,-1.6734259128570557,-1.7290018796920776,1.4670422077178955,0.012971377931535244
744,-1.684228777885437,-0.8225988745689392,-1.6740226745605469,-1.727608561515808,1.4672571420669556,0.012201426550745964
745,-1.6852736473083496,-0.8226584196090698,-1.674620270729065,-1.7262128591537476,1.467474341392517,0.01143045723438263
746,-1.6863203048706055,-0.822719156742096,-1.675218105316162,-1.7248157262802124,1.4676932096481323,0.01065835915505886
747,-1.6873685121536255,-0.8227808475494385,-1.6758167743682861,-1.7234166860580444,1.4679139852523804,0.009885499253869057
748,-1.6884183883666992,-0.8228436708450317,-1.6764155626296997,-1.72201669216156,1.4681369066238403,0.009111645631492138
749,-1.6894700527191162,-0.8229076862335205,-1.6770148277282715,-1.7206147909164429,1.468361735343933,0.008336665108799934
750,-1.6905232667922974,-0.8229725956916809,-1.6776149272918701,-1.7192105054855347,1.4685885906219482,0.00756083196029067
751,-1.6915780305862427,-0.8230386972427368,-1.6782151460647583,-1.7178057432174683,1.4688172340393066,0.006784174591302872
752,-1.6926344633102417,-0.8231058716773987,-1.6788158416748047,-1.7163985967636108,1.469048023223877,0.006006503943353891
753,-1.6936924457550049,-0.823173999786377,-1.679417610168457,-1.7149895429611206,1.469280481338501,0.0052280486561357975
754,-1.6947518587112427,-0.8232434391975403,-1.6800191402435303,-1.713579535484314,1.4695149660110474,0.004448845516890287
755,-1.6958134174346924,-0.8233137726783752,-1.68062162399292,-1.7121671438217163,1.4697517156600952,0.003668274497613311
756,-1.696876049041748,-0.8233851790428162,-1.6812243461608887,-1.7107537984848022,1.4699900150299072,0.002887255745008588
757,-1.697940468788147,-0.8234578371047974,-1.6818276643753052,-1.7093385457992554,1.4702304601669312,0.0021051676012575626
758,-1.6990063190460205,-0.823531448841095,-1.6824314594268799,-1.7079213857650757,1.470472812652588,0.001322452211752534
759,-1.7000735998153687,-0.8236061930656433,-1.6830356121063232,-1.7065032720565796,1.470716953277588,0.0005389522993937135
760,-1.7011425495147705,-0.8236820697784424,-1.683640480041504,-1.7050827741622925,1.4709630012512207,-0.0002455195935908705
761,-1.702212929725647,-0.8237589597702026,-1.6842457056045532,-1.7036608457565308,1.4712110757827759,-0.0010307016782462597
762,-1.7032852172851562,-0.8238371014595032,-1.6848514080047607,-1.7022374868392944,1.471461296081543,-0.0018169009126722813
763,-1.7043585777282715,-0.8239163160324097,-1.6854573488235474,-1.7008126974105835,1.4717131853103638,-0.0026036230847239494
764,-1.7054338455200195,-0.8239966034889221,-1.6860642433166504,-1.6993855237960815,1.4719672203063965,-0.003391415346413851
765,-1.7065101861953735,-0.8240780234336853,-1.6866710186004639,-1.6979578733444214,1.4722228050231934,-0.004179565701633692
766,-1.7075880765914917,-0.8241604566574097,-1.6872786283493042,-1.696527361869812,1.4724806547164917,-0.00496860034763813
767,-1.7086673974990845,-0.8242440819740295,-1.6878867149353027,-1.6950958967208862,1.4727400541305542,-0.0057583218440413475
768,-1.7097481489181519,-0.8243289589881897,-1.6884946823120117,-1.6936630010604858,1.4730015993118286,-0.006548718083649874
769,-1.7108303308486938,-0.8244146704673767,-1.689103603363037,-1.6922286748886108,1.4732649326324463,-0.007339825388044119
770,-1.7119141817092896,-0.8245018720626831,-1.6897128820419312,-1.6907919645309448,1.4735302925109863,-0.008131785318255424
771,-1.7129993438720703,-0.8245900273323059,-1.6903226375579834,-1.6893543004989624,1.4737976789474487,-0.008924338035285473
772,-1.7140858173370361,-0.8246791958808899,-1.6909329891204834,-1.6879147291183472,1.4740666151046753,-0.009717557579278946
773,-1.715173602104187,-0.8247695565223694,-1.6915435791015625,-1.6864737272262573,1.4743376970291138,-0.010511301457881927
774,-1.7162628173828125,-0.8248611092567444,-1.6921544075012207,-1.6850312948226929,1.4746105670928955,-0.011305638588964939
775,-1.7173537015914917,-0.8249538540840149,-1.6927659511566162,-1.6835869550704956,1.4748854637145996,-0.012100943364202976
776,-1.7184457778930664,-0.8250476717948914,-1.6933777332305908,-1.6821411848068237,1.475162148475647,-0.012896704487502575
777,-1.7195391654968262,-0.8251427412033081,-1.6939901113510132,-1.680693507194519,1.4754407405853271,-0.013693015091121197
778,-1.720633864402771,-0.825238823890686,-1.6946028470993042,-1.679244875907898,1.4757212400436401,-0.014489889144897461
779,-1.7217298746109009,-0.8253360986709595,-1.6952160596847534,-1.677794337272644,1.4760034084320068,-0.015287349000573158
780,-1.7228271961212158,-0.8254345655441284,-1.6958295106887817,-1.6763423681259155,1.476287603378296,-0.016085298731923103
781,-1.723926067352295,-0.8255341649055481,-1.6964435577392578,-1.6748889684677124,1.4765737056732178,-0.016884000971913338
782,-1.7250257730484009,-0.8256347179412842,-1.6970579624176025,-1.6734336614608765,1.4768614768981934,-0.017682941630482674
783,-1.726127028465271,-0.8257367014884949,-1.6976728439331055,-1.6719774007797241,1.4771512746810913,-0.018482565879821777
784,-1.7272294759750366,-0.8258397579193115,-1.6982882022857666,-1.6705187559127808,1.477442979812622,-0.019282635301351547
785,-1.7283331155776978,-0.8259440660476685,-1.6989036798477173,-1.669059157371521,1.477736234664917,-0.020083211362361908
786,-1.729438066482544,-0.8260495066642761,-1.699519395828247,-1.6675981283187866,1.4780316352844238,-0.020884213969111443
787,-1.7305443286895752,-0.8261560201644897,-1.7001360654830933,-1.6661351919174194,1.4783287048339844,-0.02168576419353485
788,-1.7316515445709229,-0.8262636065483093,-1.7007529735565186,-1.6646708250045776,1.4786276817321777,-0.022487608715891838
789,-1.732759952545166,-0.8263725638389587,-1.7013700008392334,-1.6632055044174194,1.4789283275604248,-0.0232898760586977
790,-1.7338695526123047,-0.8264825344085693,-1.7019875049591064,-1.6617382764816284,1.4792308807373047,-0.02409246377646923
791,-1.7349798679351807,-0.8265937566757202,-1.7026053667068481,-1.6602696180343628,1.4795348644256592,-0.02489512227475643
792,-1.7360918521881104,-0.826706051826477,-1.7032235860824585,-1.6587995290756226,1.4798411130905151,-0.025698617100715637
793,-1.7372044324874878,-0.8268195986747742,-1.7038421630859375,-1.6573280096054077,1.4801489114761353,-0.026502026244997978
794,-1.7383180856704712,-0.8269341588020325,-1.7044610977172852,-1.6558550596237183,1.48045814037323,-0.02730569615960121
795,-1.7394328117370605,-0.8270500302314758,-1.705080509185791,-1.654380202293396,1.480769395828247,-0.028109697625041008
796,-1.7405486106872559,-0.8271669149398804,-1.7057000398635864,-1.6529048681259155,1.4810824394226074,-0.028914039954543114
797,-1.741665244102478,-0.8272850513458252,-1.70632004737854,-1.6514276266098022,1.4813971519470215,-0.029718389734625816
798,-1.7427830696105957,-0.8274044394493103,-1.7069401741027832,-1.6499489545822144,1.4817136526107788,-0.030523179098963737
799,-1.7439014911651611,-0.8275249004364014,-1.7075605392456055,-1.64846932888031,1.4820317029953003,-0.03132784739136696
800,-1.7450207471847534,-0.8276464939117432,-1.708181381225586,-1.6469882726669312,1.4823514223098755,-0.03213261812925339
801,-1.7461410760879517,-0.8277693390846252,-1.7088024616241455,-1.6455053091049194,1.482672929763794,-0.03293764591217041
802,-1.7472622394561768,-0.8278932571411133,-1.7094240188598633,-1.6440213918685913,1.4829959869384766,-0.03374277427792549
803,-1.7483842372894287,-0.828018307685852,-1.7100456953048706,-1.6425360441207886,1.483320713043213,-0.034547965973615646
804,-1.7495070695877075,-0.8281444907188416,-1.7106680870056152,-1.641048789024353,1.483647346496582,-0.03535331413149834
805,-1.750630497932434,-0.8282719850540161,-1.7112900018692017,-1.6395615339279175,1.4839752912521362,-0.03615843132138252
806,-1.7517552375793457,-0.8284006118774414,-1.7119126319885254,-1.6380723714828491,1.4843052625656128,-0.03696408122777939
807,-1.7528800964355469,-0.8285301923751831,-1.7125357389450073,-1.6365808248519897,1.4846364259719849,-0.03776915743947029
808,-1.7540059089660645,-0.8286610245704651,-1.7131588459014893,-1.6350892782211304,1.4849693775177002,-0.03857438638806343
809,-1.7551323175430298,-0.8287931084632874,-1.7137823104858398,-1.6335963010787964,1.4853039979934692,-0.03937957435846329
810,-1.756259560585022,-0.8289262652397156,-1.7144057750701904,-1.6321018934249878,1.485640048980713,-0.040184713900089264
811,-1.7573872804641724,-0.8290604948997498,-1.7150299549102783,-1.6306060552597046,1.4859776496887207,-0.040989626199007034
812,-1.7585158348083496,-0.8291962146759033,-1.715653657913208,-1.629109263420105,1.4863169193267822,-0.041794635355472565
813,-1.7596451044082642,-0.8293328285217285,-1.716278076171875,-1.6276110410690308,1.486657977104187,-0.04259949177503586
814,-1.760774850845337,-0.8294705748558044,-1.716902732849121,-1.626111388206482,1.4870002269744873,-0.04340421035885811
815,-1.7619051933288574,-0.8296096324920654,-1.7175276279449463,-1.6246107816696167,1.4873442649841309,-0.04420872777700424
816,-1.7630361318588257,-0.8297498226165771,-1.7181527614593506,-1.6231087446212769,1.487689733505249,-0.045013152062892914
817,-1.7641675472259521,-0.82989102602005,-1.718778133392334,-1.6216052770614624,1.4880367517471313,-0.04581724479794502
818,-1.7652993202209473,-0.830033540725708,-1.7194035053253174,-1.6201013326644897,1.4883850812911987,-0.04662098363041878
819,-1.7664321660995483,-0.8301771879196167,-1.7200289964675903,-1.6185959577560425,1.488735318183899,-0.04742495343089104
820,-1.7675650119781494,-0.8303218483924866,-1.7206552028656006,-1.6170886754989624,1.4890867471694946,-0.04822828248143196
