GiorgioMedico/spline/trajectory_new.csv
,J1,J2,J3,J4,J5,J6
0,-1.559484362602234,-0.7619946002960205,-1.766157627105713,-2.3697214126586914,1.5646682977676392,0.0041491198353469
1,-1.5595128536224363,-0.7619659304618835,-1.766185283660889,-2.369615077972412,1.56469464302063,0.0040824757888913
2,-1.55954110622406,-0.7619373798370361,-1.7662129402160645,-2.369509220123291,1.5647212266921997,0.0040160613134503
3,-1.5595697164535522,-0.761908769607544,-1.7662408351898191,-2.369402885437012,1.5647475719451904,0.003949265461415
4,-1.5595979690551758,-0.7618802189826965,-1.7662684917449951,-2.3692967891693115,1.5647741556167605,0.0038828807882964
5,-1.559626579284668,-0.7618516683578491,-1.7662960290908811,-2.369190454483032,1.56480073928833,0.0038161715492606
6,-1.5596548318862915,-0.7618229985237122,-1.766323804855347,-2.369084596633911,1.5648272037506104,0.0037497833836823
7,-1.559683322906494,-0.7617945075035095,-1.7663512229919434,-2.36897873878479,1.5648536682128906,0.003683129325509
8,-1.5597118139266968,-0.7617658376693726,-1.7663792371749878,-2.3688724040985107,1.5648800134658811,0.003616475732997
9,-1.55974018573761,-0.7617372870445251,-1.766406536102295,-2.3687665462493896,1.5649067163467407,0.0035500256344676
10,-1.559768795967102,-0.761708676815033,-1.7664344310760498,-2.3686602115631104,1.564933180809021,0.0034832512028515
11,-1.559797286987305,-0.7616800665855408,-1.7664620876312256,-2.36855411529541,1.5649597644805908,0.0034166243858635
12,-1.5598255395889282,-0.7616515159606934,-1.7664897441864014,-2.36844801902771,1.5649863481521606,0.0033502571750432
13,-1.5598541498184204,-0.761622965335846,-1.7665176391601562,-2.3683419227600098,1.565012812614441,0.0032835092861205
14,-1.5598827600479126,-0.7615944743156433,-1.766545057296753,-2.3682358264923096,1.5650395154953003,0.0032168196048587
15,-1.5599111318588257,-0.7615658044815063,-1.7665728330612185,-2.3681299686431885,1.5650659799575806,0.0031503036152571
16,-1.5599396228790283,-0.7615373134613037,-1.7666003704071045,-2.3680238723754883,1.5650925636291504,0.003083728486672
17,-1.559968113899231,-0.7615087032318115,-1.7666285037994385,-2.36791729927063,1.5651191473007202,0.0030170632526278
18,-1.5599967241287231,-0.7614802122116089,-1.7666560411453247,-2.3678109645843506,1.5651458501815796,0.0029503677505999
19,-1.560025334358215,-0.7614516019821167,-1.7666836977005005,-2.367705106735229,1.56517231464386,0.0028836415149271
20,-1.5600535869598389,-0.7614229917526245,-1.7667113542556765,-2.3675992488861084,1.5651990175247192,0.0028172670863568
21,-1.5600823163986206,-0.7613945603370667,-1.7667391300201416,-2.367492914199829,1.5652257204055786,0.0027504214085638
22,-1.5601106882095337,-0.7613658905029297,-1.7667667865753174,-2.367387056350708,1.5652523040771484,0.0026839580386877
23,-1.5601394176483154,-0.7613373398780823,-1.7667946815490725,-2.3672807216644287,1.5652788877487185,0.0026170790661126
24,-1.5601680278778076,-0.7613089084625244,-1.766822099685669,-2.3671746253967285,1.5653055906295776,0.0025504059158265
25,-1.5601965188980105,-0.7612802386283875,-1.7668499946594238,-2.367068290710449,1.565332293510437,0.0024838512763381
26,-1.560225248336792,-0.7612517476081848,-1.7668778896331787,-2.366962194442749,1.5653588771820068,0.0024170279502868
27,-1.5602537393569946,-0.7612231969833374,-1.766905426979065,-2.3668558597564697,1.5653856992721558,0.002350439550355
28,-1.5602824687957764,-0.7611948251724243,-1.7669330835342407,-2.3667500019073486,1.5654122829437256,0.0022835868876427
29,-1.5603107213974,-0.7611661553382874,-1.7669610977172852,-2.3666436672210693,1.565438985824585,0.002217230387032
30,-1.5603395700454712,-0.7611376643180847,-1.7669885158538818,-2.366537570953369,1.5654655694961548,0.0021502857562154
31,-1.5603679418563845,-0.7611090540885925,-1.7670164108276367,-2.366431713104248,1.5654922723770142,0.0020838400814682
32,-1.5603967905044556,-0.7610806226730347,-1.767043948173523,-2.366325616836548,1.565519094467163,0.0020169548224657
33,-1.5604254007339478,-0.7610520124435425,-1.7670718431472778,-2.366219282150269,1.5655457973480225,0.0019502399954944
34,-1.56045401096344,-0.7610235214233398,-1.7670996189117432,-2.3661131858825684,1.5655726194381714,0.0018836454255506
35,-1.560482621192932,-0.7609949707984924,-1.767127513885498,-2.366006851196289,1.5655994415283203,0.0018168999813497
36,-1.560511350631714,-0.7609665393829346,-1.7671549320220947,-2.365900993347168,1.5656261444091797,0.0017501256661489
37,-1.560539960861206,-0.7609379291534424,-1.7671830654144287,-2.3657944202423096,1.5656529664993286,0.0016834379639476
38,-1.5605684518814087,-0.760909378528595,-1.7672107219696045,-2.3656883239746094,1.5656795501708984,0.0016168071888387
39,-1.5605974197387695,-0.7608810067176819,-1.7672383785247805,-2.365582227706909,1.565706491470337,0.0015498839784413
40,-1.5606260299682615,-0.7608524560928345,-1.7672661542892456,-2.36547589302063,1.5657331943511963,0.0014831927837803
41,-1.560654640197754,-0.7608239650726318,-1.767293930053711,-2.3653697967529297,1.5657600164413452,0.0014164698077365
42,-1.5606833696365356,-0.7607954144477844,-1.7673218250274658,-2.365263700485229,1.565786838531494,0.0013496890896931
43,-1.5607118606567385,-0.760766863822937,-1.7673496007919312,-2.36515736579895,1.565813660621643,0.0012832009233534
44,-1.5607408285140991,-0.7607383728027344,-1.7673773765563965,-2.36505126953125,1.565840482711792,0.0012161222985014
45,-1.5607695579528809,-0.7607099413871765,-1.7674052715301514,-2.3649449348449707,1.565867304801941,0.0011493966449052
46,-1.560798168182373,-0.7606815099716187,-1.7674328088760376,-2.3648388385772705,1.5658941268920898,0.0010826990474015
47,-1.5608270168304443,-0.7606529593467712,-1.767460584640503,-2.3647327423095703,1.5659210681915283,0.0010158236837014
48,-1.5608556270599363,-0.7606245279312134,-1.7674883604049685,-2.36462664604187,1.5659478902816772,0.0009491519303992
49,-1.5608843564987185,-0.760595977306366,-1.7675161361694336,-2.364520311355591,1.5659749507904053,0.0008823919924907
50,-1.5609129667282104,-0.7605674266815186,-1.7675440311431885,-2.36441421508789,1.5660016536712646,0.0008157176780514
51,-1.5609419345855713,-0.7605390548706055,-1.7675719261169434,-2.3643078804016118,1.5660285949707031,0.0007487212424166
52,-1.560970664024353,-0.7605106234550476,-1.76759934425354,-2.3642020225524902,1.5660555362701416,0.0006820469279773
53,-1.5609995126724243,-0.760482132434845,-1.767627477645874,-2.364095687866211,1.5660823583602903,0.0006151352426968
54,-1.5610281229019165,-0.7604536414146423,-1.7676551342010498,-2.363989353179932,1.5661091804504397,0.0005485159344971
55,-1.5610568523406982,-0.7604252099990845,-1.7676829099655151,-2.3638832569122314,1.5661362409591677,0.0004817793960683
56,-1.561085820198059,-0.7603967785835266,-1.7677109241485596,-2.363776922225952,1.5661633014678955,0.0004147755098529
57,-1.5611146688461304,-0.7603683471679688,-1.7677385807037354,-2.363670587539673,1.5661901235580444,0.0003479486622381
58,-1.561143398284912,-0.7603398561477661,-1.767766356468201,-2.363564729690552,1.566217064857483,0.0002810882288031
59,-1.5611720085144043,-0.7603112459182739,-1.7677942514419556,-2.3634583950042725,1.5662440061569214,0.0002144932805094
60,-1.561201095581055,-0.7602828741073608,-1.7678221464157104,-2.363352060317993,1.56627094745636,0.0001474568853154
61,-1.561229586601257,-0.7602543234825134,-1.7678499221801758,-2.363245725631714,1.5662978887557983,8.085825538728386e-05
62,-1.5612585544586182,-0.7602259516716003,-1.7678778171539309,-2.3631396293640137,1.5663249492645264,1.3907579159422312e-05
63,-1.5612872838974,-0.7601974606513977,-1.7679057121276855,-2.3630332946777344,1.5663520097732544,-5.277950913296081e-05
64,-1.5613162517547607,-0.7601690292358398,-1.767933368682861,-2.362927198410034,1.5663789510726929,-0.0001197916208184
65,-1.561345100402832,-0.760140597820282,-1.7679612636566162,-2.362820863723755,1.566406011581421,-0.0001866295497165
66,-1.5613738298416138,-0.7601121664047241,-1.7679890394210815,-2.362714529037476,1.566433072090149,-0.0002533501246944
67,-1.5614029169082642,-0.7600836753845215,-1.7680168151855469,-2.3626086711883545,1.566460132598877,-0.0003203640517313
68,-1.561431884765625,-0.7600553035736084,-1.7680447101593018,-2.362502098083496,1.566487193107605,-0.0003873826062772
69,-1.5614604949951172,-0.760026752948761,-1.7680728435516355,-2.362395763397217,1.566514253616333,-0.0004540193185675
70,-1.561489462852478,-0.7599984407424927,-1.768100380897522,-2.3622896671295166,1.5665411949157717,-0.0005208897637203
71,-1.561518311500549,-0.7599700093269348,-1.7681281566619873,-2.3621835708618164,1.5665682554244995,-0.0005877639050595
72,-1.5615473985671997,-0.7599415183067322,-1.7681562900543213,-2.362076997756958,1.5665953159332275,-0.0006547545199282
73,-1.5615761280059814,-0.7599130868911743,-1.7681843042373655,-2.3619706630706787,1.5666224956512451,-0.0007215122459456
74,-1.5616049766540527,-0.7598845958709717,-1.768212080001831,-2.3618645668029785,1.5666496753692627,-0.0007883305079303
75,-1.5616340637207031,-0.7598561644554138,-1.768239974975586,-2.361758232116699,1.5666767358779907,-0.0008554140804335
76,-1.5616627931594849,-0.759827733039856,-1.7682677507400513,-2.361652135848999,1.5667037963867188,-0.0009221457876265
77,-1.5616917610168457,-0.7597993612289429,-1.7682956457138062,-2.36154580116272,1.5667309761047363,-0.0009890551446005
78,-1.561720609664917,-0.759770929813385,-1.7683236598968506,-2.3614394664764404,1.566758155822754,-0.0010558771900832
79,-1.5617496967315674,-0.7597424983978271,-1.7683513164520264,-2.36133337020874,1.5667853355407717,-0.0011228761868551
80,-1.5617786645889282,-0.7597141265869141,-1.7683794498443604,-2.361227035522461,1.5668123960494995,-0.0011898785596713
81,-1.56180739402771,-0.759685754776001,-1.768407106399536,-2.3611207008361816,1.566839575767517,-0.0012565283104777
82,-1.5618363618850708,-0.7596572637557983,-1.7684351205825806,-2.361014604568481,1.566866755485535,-0.0013234125217422
83,-1.5618653297424316,-0.7596288323402405,-1.768463134765625,-2.360908269882202,1.5668938159942627,-0.0013903573853895
84,-1.5618940591812134,-0.7596004605293274,-1.7684907913208008,-2.360802173614502,1.5669211149215698,-0.0014570712810382
85,-1.5619233846664429,-0.7595720291137695,-1.7685186862945557,-2.3606958389282227,1.566948413848877,-0.0015242825029417
86,-1.5619521141052246,-0.7595435976982117,-1.7685465812683103,-2.360589504241944,1.566975474357605,-0.0015910258516669
87,-1.5619810819625854,-0.7595152258872986,-1.7685744762420654,-2.360483169555664,1.567002773284912,-0.0016579775838181
88,-1.5620100498199463,-0.7594867944717407,-1.76860249042511,-2.360377073287964,1.5670299530029297,-0.0017248385120183
89,-1.562039136886597,-0.7594585418701172,-1.7686302661895752,-2.360270738601685,1.5670572519302368,-0.001791849383153
90,-1.5620681047439575,-0.7594300508499146,-1.7686582803726196,-2.3601644039154053,1.567084550857544,-0.0018587447702884
91,-1.5620970726013184,-0.7594016790390015,-1.7686861753463743,-2.360058069229126,1.567111849784851,-0.0019256999948993
92,-1.5621261596679688,-0.7593733668327332,-1.7687139511108398,-2.3599517345428467,1.5671390295028689,-0.0019926847890019
93,-1.5621551275253296,-0.7593449354171753,-1.7687419652938845,-2.3598453998565674,1.5671663284301758,-0.0020595518872141
94,-1.5621840953826904,-0.7593165636062622,-1.7687698602676392,-2.359739065170288,1.567193627357483,-0.0021264820825308
95,-1.5622130632400513,-0.7592881917953491,-1.768797755241394,-2.359632730484009,1.56722092628479,-0.0021933810785412
96,-1.5622421503067017,-0.7592597007751465,-1.7688260078430176,-2.359526395797729,1.5672482252120972,-0.0022603396791964
97,-1.5622711181640625,-0.7592312693595886,-1.7688539028167725,-2.35942006111145,1.5672755241394043,-0.0023272735998034
98,-1.562300205230713,-0.7592028975486755,-1.7688817977905271,-2.359313726425171,1.5673028230667114,-0.0023942647967487
99,-1.5623291730880735,-0.7591745257377625,-1.7689096927642822,-2.3592076301574707,1.567330241203308,-0.0024611705448478
100,-1.562358260154724,-0.7591462135314941,-1.768937587738037,-2.3591015338897705,1.5673575401306152,-0.0025281636044383
101,-1.562387228012085,-0.759117841720581,-1.768965482711792,-2.358994960784912,1.5673848390579224,-0.0025950702838599
102,-1.5624163150787354,-0.759089469909668,-1.7689933776855469,-2.358888864517212,1.567412257194519,-0.0026620682328939
103,-1.5624452829360962,-0.7590610980987549,-1.7690212726593018,-2.3587825298309326,1.5674395561218262,-0.0027288871351629
104,-1.5624746084213257,-0.7590327858924866,-1.7690494060516355,-2.3586761951446533,1.5674669742584229,-0.0027961495798081
105,-1.562503695487976,-0.7590044140815735,-1.7690773010253906,-2.358569860458374,1.5674943923950195,-0.00286312145181
106,-1.5625325441360474,-0.7589759826660156,-1.7691054344177246,-2.358463287353516,1.5675216913223269,-0.0029299166053533
107,-1.5625616312026978,-0.7589476704597473,-1.7691333293914795,-2.3583569526672363,1.5675489902496338,-0.0029968887101858
108,-1.5625910758972168,-0.7589194178581238,-1.7691609859466553,-2.358250856399536,1.56757652759552,-0.0030642144847661
109,-1.5626198053359983,-0.7588909268379211,-1.7691893577575684,-2.3581442832946777,1.5676039457321167,-0.0031308361794799
110,-1.562649130821228,-0.7588626742362976,-1.769217014312744,-2.358038187026977,1.567631483078003,-0.0031980474013835
111,-1.5626780986785889,-0.7588343024253845,-1.769245147705078,-2.357931613922119,1.5676589012145996,-0.0032649361528456
112,-1.5627071857452393,-0.7588059306144714,-1.769273042678833,-2.35782527923584,1.5676863193511963,-0.0033318859059363
113,-1.5627362728118896,-0.7587774395942688,-1.769301176071167,-2.35771918296814,1.5677138566970823,-0.0033988354261964
114,-1.5627652406692505,-0.7587491869926453,-1.769329071044922,-2.357612609863281,1.5677411556243896,-0.0034657276701182
115,-1.562794208526611,-0.7587207555770874,-1.7693570852279663,-2.357506513595581,1.567768692970276,-0.0035325333010405
116,-1.5628236532211304,-0.7586925029754639,-1.7693850994110107,-2.3573999404907227,1.5677963495254517,-0.0035998076200485
117,-1.5628526210784912,-0.758664071559906,-1.7694129943847656,-2.3572938442230225,1.5678237676620483,-0.0036667336244136
118,-1.5628817081451416,-0.7586358189582825,-1.7694411277770996,-2.357187509536743,1.5678513050079346,-0.0037336298264563
119,-1.562911033630371,-0.7586075663566589,-1.7694690227508545,-2.3570809364318848,1.5678788423538208,-0.0038008210249245
120,-1.5629401206970217,-0.7585791349411011,-1.769497036933899,-2.356974840164185,1.567906379699707,-0.0038677190896123
121,-1.562969446182251,-0.7585509419441223,-1.7695250511169434,-2.356868267059326,1.5679339170455933,-0.0039349421858787
122,-1.5629985332489014,-0.7585224509239197,-1.7695531845092771,-2.356761693954468,1.5679614543914795,-0.0040018730796873
123,-1.5630275011062622,-0.7584941983222961,-1.7695810794830322,-2.356655597686768,1.5679888725280762,-0.0040687741711735
124,-1.5630565881729126,-0.7584658861160278,-1.7696090936660769,-2.3565495014190674,1.568016529083252,-0.0041356463916599
125,-1.563085913658142,-0.7584375143051147,-1.7696372270584106,-2.35644268989563,1.5680440664291382,-0.0042028464376926
126,-1.5631150007247925,-0.7584091424942017,-1.7696651220321655,-2.356336832046509,1.5680716037750244,-0.0042697507888078
127,-1.5631440877914429,-0.7583808898925781,-1.76969313621521,-2.3562302589416504,1.5680992603302002,-0.0043367473408579
128,-1.5631734132766724,-0.7583525776863098,-1.769721269607544,-2.356123924255371,1.568126916885376,-0.0044038598425686
129,-1.5632025003433228,-0.7583242654800415,-1.7697492837905884,-2.3560173511505127,1.5681544542312622,-0.0044707981869578
130,-1.5632318258285522,-0.7582959532737732,-1.7697772979736328,-2.3559110164642334,1.568182110786438,-0.004537942353636
131,-1.563260793685913,-0.7582675814628601,-1.7698051929473877,-2.355804920196533,1.5682097673416138,-0.0046047968789935
132,-1.5632898807525637,-0.7582392692565918,-1.7698333263397217,-2.355698347091675,1.5682373046875,-0.0046717068180441
133,-1.5633193254470823,-0.7582110166549683,-1.769861340522766,-2.3555920124053955,1.568265080451965,-0.0047390325926244
134,-1.563348412513733,-0.7581827044487,-1.7698893547058103,-2.355485439300537,1.5682928562164309,-0.0048058573156595
135,-1.5633777379989624,-0.7581544518470764,-1.7699174880981443,-2.355379343032837,1.5683202743530271,-0.0048730364069342
136,-1.5634068250656128,-0.7581260204315186,-1.7699456214904783,-2.3552727699279785,1.568348050117493,-0.0049400143325328
137,-1.5634361505508425,-0.7580977082252502,-1.7699737548828125,-2.355166435241699,1.568375825881958,-0.0050070462748408
138,-1.563464879989624,-0.7580692768096924,-1.7700016498565674,-2.35506010055542,1.5684033632278442,-0.0050736125558614
139,-1.5634945631027222,-0.7580412030220032,-1.7700297832489014,-2.3549537658691406,1.5684312582015991,-0.0051411213353276
140,-1.5635236501693726,-0.7580128908157349,-1.7700575590133667,-2.3548476696014404,1.568458914756775,-0.0052080415189266
141,-1.563552737236023,-0.7579845786094666,-1.7700855731964111,-2.354741096496582,1.568486571311951,-0.0052749929018318
142,-1.5635820627212524,-0.7579562664031982,-1.7701137065887451,-2.3546347618103027,1.568514347076416,-0.0053420313633978
143,-1.5636115074157717,-0.7579280734062195,-1.770141839981079,-2.354527950286865,1.5685421228408811,-0.0054092505015432
144,-1.563640594482422,-0.757899820804596,-1.770169973373413,-2.354421854019165,1.5685697793960571,-0.0054762046784162
145,-1.5636699199676514,-0.7578713893890381,-1.770198106765747,-2.354315280914306,1.568597674369812,-0.0055433367379009
146,-1.5636990070343018,-0.7578431367874146,-1.7702261209487915,-2.3542091846466064,1.5686253309249878,-0.005610205233097
147,-1.5637283325195312,-0.7578147649765015,-1.7702542543411257,-2.354102373123169,1.5686531066894531,-0.0056773093529045
148,-1.5637575387954712,-0.7577865123748779,-1.770282506942749,-2.3539960384368896,1.568681001663208,-0.0057442979887127
149,-1.5637867450714111,-0.7577582001686096,-1.770310401916504,-2.353889942169189,1.5687087774276731,-0.0058112884871661
150,-1.5638161897659302,-0.7577300071716309,-1.770338535308838,-2.353783369064331,1.568736553192139,-0.0058786021545529
151,-1.5638452768325806,-0.7577016949653625,-1.7703664302825928,-2.353677272796631,1.5687644481658936,-0.0059454767033457
152,-1.563874363899231,-0.757673442363739,-1.7703945636749268,-2.3535706996917725,1.5687922239303589,-0.0060123223811388
153,-1.56390380859375,-0.7576451897621155,-1.7704229354858398,-2.353464126586914,1.5688201189041138,-0.0060795210301876
154,-1.563933253288269,-0.7576169371604919,-1.7704510688781738,-2.353357553482056,1.5688480138778689,-0.0061467513442039
155,-1.56396222114563,-0.7575885057449341,-1.7704790830612185,-2.3532512187957764,1.568875789642334,-0.006213542073965
156,-1.5639917850494385,-0.7575603723526001,-1.7705072164535522,-2.353144884109497,1.5689038038253784,-0.0062808329239487
157,-1.5640209913253784,-0.7575320601463318,-1.770535230636597,-2.3530385494232178,1.5689316987991333,-0.0063478308729827
158,-1.5640501976013184,-0.7575038075447083,-1.7705633640289309,-2.35293197631836,1.5689594745635986,-0.0064148320816457
159,-1.5640796422958374,-0.7574756145477295,-1.7705914974212646,-2.35282564163208,1.5689873695373535,-0.0064820065163075
160,-1.5641088485717771,-0.7574471831321716,-1.7706196308135986,-2.3527190685272217,1.5690152645111084,-0.0065490398555994
161,-1.5641380548477173,-0.7574189305305481,-1.7706477642059326,-2.352612972259521,1.5690431594848633,-0.0066159223206341
162,-1.5641673803329468,-0.7573907375335693,-1.7706758975982666,-2.352506399154663,1.5690710544586182,-0.006683103274554
163,-1.5641968250274658,-0.7573625445365906,-1.7707040309906006,-2.3523998260498047,1.5690990686416626,-0.0067502544261515
164,-1.5642262697219849,-0.7573343515396118,-1.770732283592224,-2.3522932529449463,1.569127082824707,-0.0068174367770552
165,-1.5642552375793457,-0.7573060393333435,-1.7707600593566897,-2.352187156677246,1.5691550970077517,-0.0068841488100588
166,-1.5642846822738647,-0.7572777271270752,-1.7707884311676023,-2.352080583572388,1.5691829919815063,-0.006951333489269
167,-1.5643137693405151,-0.7572494149208069,-1.7708168029785156,-2.3519742488861084,1.5692108869552612,-0.0070182252675294
168,-1.5643432140350342,-0.7572212815284729,-1.7708449363708496,-2.351867437362671,1.5692389011383057,-0.0070853531360626
169,-1.5643726587295532,-0.7571930289268494,-1.7708728313446045,-2.351761102676392,1.5692667961120603,-0.007152569014579
170,-1.5644019842147827,-0.7571647763252258,-1.7709009647369385,-2.3516550064086914,1.569295048713684,-0.0072196116670966
171,-1.5644314289093018,-0.7571365833282471,-1.7709290981292725,-2.351548433303833,1.569322943687439,-0.0072867702692747
172,-1.564460515975952,-0.7571083307266235,-1.770957350730896,-2.3514420986175537,1.5693509578704834,-0.0073536387644708
173,-1.5644899606704712,-0.7570800185203552,-1.7709856033325195,-2.351335287094116,1.5693789720535278,-0.0074208006262779
174,-1.564519286155701,-0.7570517659187317,-1.7710137367248535,-2.351229190826416,1.5694071054458618,-0.0074878465384244
175,-1.5645484924316406,-0.7570235133171082,-1.7710418701171875,-2.3511226177215576,1.5694352388381958,-0.0075548063032329
176,-1.56457781791687,-0.7569952607154846,-1.7710700035095217,-2.3510162830352783,1.5694632530212402,-0.0076218550093472
177,-1.5646072626113892,-0.7569671273231506,-1.7710981369018557,-2.350909948348999,1.5694911479949951,-0.0076890219934284
178,-1.5646363496780396,-0.7569387555122375,-1.7711262702941897,-2.3508033752441406,1.5695194005966189,-0.0077558662742376
179,-1.5646661520004272,-0.7569106817245483,-1.771154522895813,-2.3506968021392822,1.569547414779663,-0.0078232986852526
180,-1.564695119857788,-0.7568823099136353,-1.771182894706726,-2.350590467453003,1.5695754289627075,-0.0078899981454014
181,-1.5647245645523071,-0.7568541169166565,-1.7712111473083496,-2.3504838943481445,1.5696035623550415,-0.0079572005197405
182,-1.5647540092468262,-0.7568259239196777,-1.7712390422821045,-2.350377559661865,1.569631814956665,-0.0080243730917572
183,-1.5647834539413452,-0.7567977905273438,-1.7712671756744385,-2.350270986557007,1.569659948348999,-0.0080914553254842
184,-1.5648128986358645,-0.7567694783210754,-1.7712955474853516,-2.3501644134521484,1.569688081741333,-0.0081586316227912
185,-1.5648419857025146,-0.7567412257194519,-1.7713236808776855,-2.350058078765869,1.569716215133667,-0.0082253953441977
186,-1.5648714303970337,-0.7567130923271179,-1.7713518142700195,-2.34995174407959,1.569744348526001,-0.0082926005125045
187,-1.5649007558822632,-0.7566847801208496,-1.7713799476623535,-2.3498454093933105,1.5697726011276243,-0.0083596017211675
188,-1.5649302005767822,-0.7566565871238708,-1.7714080810546875,-2.349738836288452,1.5698007345199585,-0.0084267500787973
189,-1.5649595260620115,-0.7566283345222473,-1.7714364528656006,-2.3496322631835938,1.5698288679122925,-0.0084937531501054
190,-1.5649887323379517,-0.7566000819206238,-1.7714648246765137,-2.349525690078736,1.569857120513916,-0.0085606100037693
191,-1.5650180578231812,-0.756571888923645,-1.7714930772781372,-2.349419355392456,1.56988525390625,-0.00862767547369
192,-1.5650476217269895,-0.7565436959266663,-1.7715213298797607,-2.3493127822875977,1.569913625717163,-0.008694858290255
193,-1.5650770664215088,-0.7565155625343323,-1.7715494632720947,-2.3492062091827397,1.5699418783187866,-0.0087619833648204
194,-1.5651063919067385,-0.756487250328064,-1.7715777158737185,-2.34909987449646,1.5699700117111206,-0.0088290218263864
195,-1.565135836601257,-0.7564589977264404,-1.7716059684753418,-2.3489933013916016,1.569998264312744,-0.0088961198925971
196,-1.5651652812957764,-0.7564309239387512,-1.7716343402862549,-2.348886728286743,1.570026397705078,-0.0089632775634527
197,-1.5651944875717163,-0.7564026117324829,-1.771662354469299,-2.348780393600464,1.5700548887252808,-0.0090301129966974
198,-1.5652241706848145,-0.7563745975494385,-1.7716903686523438,-2.348674058914185,1.5700831413269043,-0.0090974485501647
199,-1.5652532577514648,-0.7563462257385254,-1.771718978881836,-2.348567247390747,1.5701113939285278,-0.0091642569750547
200,-1.565282702445984,-0.7563180923461914,-1.77174711227417,-2.348460912704468,1.5701398849487305,-0.0092313317582011
201,-1.565312147140503,-0.7562898993492126,-1.771775245666504,-2.3483545780181885,1.570168137550354,-0.0092983748763799
202,-1.565341234207153,-0.7562616467475891,-1.771803617477417,-2.34824800491333,1.5701963901519775,-0.0093652168288826
203,-1.5653709173202517,-0.7562333941459656,-1.771831750869751,-2.348141670227051,1.5702247619628906,-0.0094325309619307
204,-1.5654001235961914,-0.7562052607536316,-1.771860122680664,-2.3480348587036133,1.5702530145645142,-0.0094994315877556
205,-1.5654298067092896,-0.7561770677566528,-1.7718883752822876,-2.347928762435913,1.5702812671661377,-0.0095667457208037
206,-1.5654590129852295,-0.7561489343643188,-1.7719165086746216,-2.347821950912476,1.5703097581863403,-0.0096336500719189
207,-1.5654884576797483,-0.7561207413673401,-1.7719449996948242,-2.3477156162261963,1.5703381299972534,-0.009700670838356
208,-1.565518140792847,-0.7560924887657166,-1.7719731330871582,-2.347609043121338,1.570366621017456,-0.0097679290920495
209,-1.565547227859497,-0.7560642957687378,-1.7720013856887815,-2.3475024700164795,1.5703948736190796,-0.0098347188904881
210,-1.5655767917633057,-0.7560361623764038,-1.7720297574996948,-2.3473961353302,1.5704233646392822,-0.009901862591505
211,-1.5656062364578247,-0.7560080289840698,-1.772058129310608,-2.3472893238067627,1.570451736450195,-0.0099689783528447
212,-1.5656355619430542,-0.7559797763824463,-1.7720863819122314,-2.3471829891204834,1.5704801082611084,-0.0100359758362174
213,-1.5656650066375732,-0.7559515833854675,-1.7721145153045654,-2.347076416015625,1.570508599281311,-0.0101030636578798
214,-1.5656943321228027,-0.7559232711791992,-1.7721428871154783,-2.3469700813293457,1.5705370903015137,-0.0101700080558657
215,-1.565723896026611,-0.7558952569961548,-1.772171139717102,-2.3468635082244877,1.5705654621124268,-0.0102371536195278
216,-1.5657533407211304,-0.7558670043945312,-1.772199630737305,-2.34675669670105,1.570594072341919,-0.0103042442351579
217,-1.5657824277877808,-0.7558388113975525,-1.772227764129639,-2.3466503620147705,1.570622444152832,-0.0103709232062101
218,-1.565812110900879,-0.7558106780052185,-1.7722558975219729,-2.346544027328491,1.5706508159637451,-0.0104382233694195
219,-1.565841555595398,-0.7557824850082397,-1.7722843885421753,-2.3464372158050537,1.5706793069839478,-0.0105053773149847
220,-1.565871000289917,-0.755754292011261,-1.772312879562378,-2.3463308811187744,1.5707077980041504,-0.0105723533779382
221,-1.565900206565857,-0.7557260394096375,-1.772341012954712,-2.346224308013916,1.5707364082336426,-0.0106392139568924
222,-1.565929889678955,-0.755698025226593,-1.772369384765625,-2.3461179733276367,1.5707647800445557,-0.010706515982747
223,-1.565959095954895,-0.7556696534156799,-1.7723979949951172,-2.3460114002227783,1.5707935094833374,-0.0107732620090246
224,-1.5659887790679932,-0.7556416988372803,-1.7724261283874512,-2.345904588699341,1.57082200050354,-0.010840568691492
225,-1.5660182237625122,-0.7556135058403015,-1.7724542617797852,-2.345798254013061,1.570850491523743,-0.0109076080843806
226,-1.5660477876663208,-0.7555854320526123,-1.7724826335906982,-2.345691680908203,1.570878982543945,-0.0109748281538486
227,-1.5660772323608398,-0.7555571794509888,-1.7725111246109009,-2.3455851078033447,1.570907711982727,-0.0110418107360601
228,-1.5661065578460691,-0.75552898645401,-1.7725393772125244,-2.345478773117065,1.5709362030029297,-0.0111087663099169
229,-1.5661357641220093,-0.7555007934570312,-1.7725677490234375,-2.345372200012207,1.570964813232422,-0.0111754592508077
230,-1.5661654472351074,-0.7554726004600525,-1.7725961208343506,-2.3452656269073486,1.570993423461914,-0.0112428311258554
231,-1.566194772720337,-0.7554444670677185,-1.7726244926452637,-2.345158815383911,1.5710220336914062,-0.0113097010180354
232,-1.5662243366241455,-0.7554163336753845,-1.7726526260375977,-2.345052480697632,1.5710506439208984,-0.0113768093287944
233,-1.566253662109375,-0.7553881406784058,-1.7726811170578003,-2.3449461460113525,1.5710793733596802,-0.0114438310265541
234,-1.5662833452224731,-0.7553600072860718,-1.7727094888687134,-2.344839334487915,1.5711079835891724,-0.0115109700709581
235,-1.566312551498413,-0.7553318738937378,-1.7727378606796265,-2.344732999801636,1.5711365938186646,-0.0115777840837836
236,-1.5663421154022217,-0.7553038001060486,-1.77276611328125,-2.3446261882781982,1.5711652040481567,-0.0116448672488331
237,-1.5663713216781616,-0.7552754878997803,-1.7727947235107422,-2.34451961517334,1.5711939334869385,-0.0117117166519165
238,-1.566401124000549,-0.7552474141120911,-1.7728230953216553,-2.3444132804870605,1.5712227821350098,-0.0117790643125772
239,-1.5664302110671997,-0.7552192807197571,-1.7728512287139893,-2.344306945800781,1.5712512731552124,-0.0118457674980163
240,-1.566459894180298,-0.7551910877227783,-1.7728798389434814,-2.344200134277344,1.5712801218032837,-0.0119129726663231
241,-1.5664892196655271,-0.7551629543304443,-1.7729079723358154,-2.3440937995910645,1.571308732032776,-0.0119798835366964
242,-1.5665186643600464,-0.7551348805427551,-1.7729363441467283,-2.343987226486206,1.571337342262268,-0.0120468521490693
243,-1.5665481090545654,-0.7551066875457764,-1.7729647159576416,-2.343880653381348,1.5713661909103394,-0.0121138840913772
244,-1.5665777921676636,-0.7550786137580872,-1.7729933261871338,-2.34377384185791,1.571394920349121,-0.0121811218559741
245,-1.5666069984436035,-0.7550504803657532,-1.7730214595794678,-2.343667507171631,1.5714237689971924,-0.0122478604316711
246,-1.5666366815567017,-0.7550222277641296,-1.77305006980896,-2.3435606956481934,1.5714523792266846,-0.0123150702565908
247,-1.5666660070419312,-0.7549940943717957,-1.773078203201294,-2.343454360961914,1.571481227874756,-0.0123819587752223
248,-1.5666953325271606,-0.7549660205841064,-1.773106575012207,-2.3433480262756348,1.5715099573135376,-0.0124487588182091
249,-1.5667250156402588,-0.7549378275871277,-1.7731351852416992,-2.3432412147521973,1.5715388059616089,-0.0125160599127411
250,-1.5667544603347778,-0.7549097537994385,-1.7731635570526123,-2.343134641647339,1.5715676546096802,-0.0125830098986625
251,-1.5667839050292969,-0.7548815608024597,-1.7731919288635254,-2.3430280685424805,1.571596384048462,-0.0126499608159065
252,-1.5668134689331057,-0.7548534870147705,-1.7732203006744385,-2.342921733856201,1.5716252326965332,-0.0127170290797948
253,-1.566842794418335,-0.754825234413147,-1.7732487916946411,-2.3428151607513428,1.5716540813446045,-0.0127839241176843
254,-1.5668723583221436,-0.7547972202301025,-1.7732770442962646,-2.3427085876464844,1.5716829299926758,-0.0128509951755404
255,-1.5669015645980835,-0.7547690272331238,-1.7733056545257568,-2.342601776123047,1.571711778640747,-0.0129177132621407
256,-1.5669312477111816,-0.7547408938407898,-1.77333402633667,-2.342495441436768,1.5717406272888184,-0.0129849966615438
257,-1.5669604539871216,-0.754712700843811,-1.7733625173568726,-2.342388868331909,1.5717694759368896,-0.0130516588687896
258,-1.5669901371002195,-0.7546846270561218,-1.773390769958496,-2.342282295227051,1.571798324584961,-0.01311890874058
259,-1.5670194625854492,-0.7546564936637878,-1.7734191417694092,-2.3421757221221924,1.5718272924423218,-0.0131857208907604
260,-1.5670491456985474,-0.7546283602714539,-1.7734477519989014,-2.342069149017334,1.571856141090393,-0.0132529465481638
261,-1.5670782327651978,-0.7546002268791199,-1.7734761238098145,-2.341962575912476,1.571885108947754,-0.013319494202733
262,-1.5671080350875854,-0.7545722126960754,-1.7735044956207275,-2.341856002807617,1.5719139575958252,-0.0133868400007486
263,-1.5671374797821045,-0.7545440196990967,-1.7735331058502195,-2.341749429702759,1.5719430446624756,-0.0134537732228636
264,-1.5671669244766235,-0.7545159459114075,-1.7735614776611328,-2.3416428565979004,1.5719718933105469,-0.0135207064449787
265,-1.567196488380432,-0.7544877529144287,-1.773590087890625,-2.341536045074463,1.5720009803771973,-0.0135877598077058
266,-1.5672258138656616,-0.7544596195220947,-1.773618459701538,-2.341429710388184,1.5720298290252686,-0.0136545794084668
267,-1.5672552585601809,-0.7544315457344055,-1.7736470699310305,-2.341322898864746,1.5720587968826294,-0.0137215163558721
268,-1.5672848224639893,-0.7544034123420715,-1.7736756801605225,-2.341216325759888,1.5720877647399902,-0.0137885436415672
269,-1.5673139095306396,-0.7543752193450928,-1.7737038135528564,-2.3411102294921875,1.5721168518066406,-0.0138550717383623
270,-1.5673437118530271,-0.7543472051620483,-1.7737325429916382,-2.341003179550171,1.5721458196640017,-0.0139224249869585
271,-1.5673731565475464,-0.7543190717697144,-1.7737609148025513,-2.3408963680267334,1.5721747875213623,-0.0139893675222992
272,-1.567402482032776,-0.7542909383773804,-1.7737892866134644,-2.340790033340454,1.5722038745880127,-0.0140561917796731
273,-1.567432165145874,-0.7542628645896912,-1.773817777633667,-2.340683698654175,1.5722328424453735,-0.0141233410686254
274,-1.5674614906311035,-0.7542347311973572,-1.77384614944458,-2.3405768871307373,1.572261929512024,-0.0141901094466447
275,-1.5674909353256226,-0.7542065978050232,-1.7738747596740725,-2.340470552444458,1.5722908973693848,-0.0142570557072758
276,-1.5675203800201416,-0.754178524017334,-1.7739033699035645,-2.3403637409210205,1.5723199844360352,-0.0143239712342619
277,-1.5675499439239502,-0.7541503310203552,-1.7739317417144775,-2.340257406234741,1.572349190711975,-0.0143910078331828
278,-1.5675793886184692,-0.754122257232666,-1.7739603519439695,-2.340150594711304,1.5723782777786257,-0.014457868412137
279,-1.5676088333129885,-0.7540941834449768,-1.7739887237548828,-2.3400442600250244,1.572407364845276,-0.0145247876644134
280,-1.567638278007507,-0.7540661096572876,-1.7740172147750854,-2.339937448501587,1.5724365711212158,-0.0145916203036904
281,-1.5676674842834473,-0.7540379762649536,-1.7740458250045776,-2.339831113815308,1.5724655389785769,-0.0146583681926131
282,-1.5676969289779663,-0.7540097236633301,-1.7740745544433594,-2.339724063873291,1.572494626045227,-0.0147253209725022
283,-1.5677263736724854,-0.7539817690849304,-1.7741026878356934,-2.339617729187012,1.572523832321167,-0.0147921862080693
284,-1.567756175994873,-0.7539535760879517,-1.774131417274475,-2.3395111560821533,1.5725529193878174,-0.0148594342172145
285,-1.567785382270813,-0.7539254426956177,-1.7741600275039673,-2.339404344558716,1.572582125663757,-0.0149260675534605
286,-1.5678147077560425,-0.7538974285125732,-1.7741882801055908,-2.3392980098724365,1.5726113319396973,-0.0149928778409957
287,-1.5678446292877195,-0.753869354724884,-1.774216890335083,-2.339191436767578,1.5726405382156372,-0.0150601891800761
288,-1.5678739547729492,-0.7538413405418396,-1.774245262145996,-2.3390846252441406,1.5726697444915771,-0.0151269417256116
289,-1.5679032802581787,-0.7538130879402161,-1.7742741107940674,-2.3389780521392822,1.572698950767517,-0.0151936970651149
290,-1.5679326057434082,-0.7537849545478821,-1.7743027210235596,-2.338871479034424,1.572728157043457,-0.0152604803442955
291,-1.5679621696472168,-0.7537569403648376,-1.7743310928344729,-2.338764905929565,1.572757363319397,-0.0153274703770875
292,-1.5679916143417358,-0.7537288665771484,-1.7743594646453855,-2.338658332824707,1.5727866888046265,-0.0153943179175257
293,-1.568020939826965,-0.7537006735801697,-1.774388074874878,-2.3385517597198486,1.5728158950805664,-0.015461103990674
294,-1.568050503730774,-0.75367271900177,-1.7744165658950806,-2.338444948196411,1.5728451013565063,-0.015528067946434
295,-1.568079948425293,-0.7536444664001465,-1.7744455337524414,-2.3383381366729736,1.5728744268417358,-0.0155948856845498
296,-1.568109393119812,-0.7536163926124573,-1.7744739055633545,-2.3382318019866943,1.5729036331176758,-0.0156617946922779
297,-1.568138837814331,-0.7535883784294128,-1.7745022773742676,-2.338125228881836,1.5729329586029053,-0.0157286748290061
298,-1.56816828250885,-0.7535602450370789,-1.7745308876037598,-2.3380184173583984,1.5729621648788452,-0.01579549908638
299,-1.5681977272033691,-0.7535321116447449,-1.774559497833252,-2.337912082672119,1.5729914903640747,-0.0158624071627855
300,-1.5682272911071775,-0.7535040974617004,-1.774588108062744,-2.3378052711486816,1.5730208158493042,-0.0159292854368686
301,-1.5682566165924072,-0.7534759640693665,-1.7746167182922363,-2.3376989364624023,1.5730501413345337,-0.015996053814888
302,-1.5682861804962158,-0.753447949886322,-1.7746450901031494,-2.337592124938965,1.5730794668197632,-0.0160629991441965
303,-1.5683156251907349,-0.753419816493988,-1.7746739387512207,-2.337485313415528,1.5731086730957031,-0.0161298811435699
304,-1.5683448314666748,-0.7533917427062988,-1.7747023105621338,-2.337378978729248,1.5731382369995115,-0.0161964781582355
305,-1.568374514579773,-0.7533637285232544,-1.7747310400009155,-2.3372724056243896,1.5731675624847412,-0.0162635389715433
306,-1.568403720855713,-0.7533355355262756,-1.7747595310211182,-2.3371658325195312,1.5731968879699707,-0.0163301937282085
307,-1.568433165550232,-0.7533074617385864,-1.7747882604599,-2.337058782577514,1.5732263326644895,-0.0163969658315181
308,-1.568462610244751,-0.7532795071601868,-1.7748167514801023,-2.336952447891236,1.5732557773590088,-0.0164637938141822
309,-1.56849205493927,-0.7532512545585632,-1.7748453617095947,-2.336845874786377,1.5732851028442385,-0.0165306329727172
310,-1.5685216188430786,-0.7532232999801636,-1.7748740911483765,-2.3367388248443604,1.573314547538757,-0.016597582027316
311,-1.568550944328308,-0.7531951665878296,-1.7749024629592896,-2.336632490158081,1.5733438730239868,-0.0166642405092716
312,-1.5685803890228271,-0.7531670928001404,-1.7749311923980713,-2.336525678634644,1.573373317718506,-0.0167311318218708
313,-1.5686099529266355,-0.7531390190124512,-1.7749598026275637,-2.3364193439483643,1.5734028816223145,-0.0167980585247278
314,-1.5686393976211548,-0.7531108856201172,-1.7749886512756348,-2.3363125324249268,1.573432207107544,-0.0168648641556501
315,-1.5686684846878052,-0.7530827522277832,-1.775017023086548,-2.3362061977386475,1.5734617710113523,-0.0169313512742519
316,-1.5686979293823242,-0.753054678440094,-1.7750458717346191,-2.33609938621521,1.5734912157058716,-0.0169981010258197
317,-1.5687276124954224,-0.7530267834663391,-1.7750742435455322,-2.335992813110352,1.5735207796096802,-0.017065180465579
318,-1.568756937980652,-0.7529985904693604,-1.7751028537750244,-2.335886240005493,1.5735502243041992,-0.0171319022774696
319,-1.5687865018844604,-0.7529705762863159,-1.7751315832138062,-2.335779428482056,1.5735797882080078,-0.0171987731009721
320,-1.5688159465789795,-0.7529423832893372,-1.775160312652588,-2.3356728553771973,1.5736093521118164,-0.0172655582427978
321,-1.5688453912734983,-0.7529144287109375,-1.77518892288208,-2.33556604385376,1.573638916015625,-0.0173323433846235
322,-1.568874478340149,-0.7528862357139587,-1.7752175331115725,-2.3354594707489014,1.573668360710144,-0.0173988360911607
323,-1.5689040422439575,-0.7528582811355591,-1.775246024131775,-2.335353136062622,1.5736979246139526,-0.017465678974986
324,-1.568933367729187,-0.7528301477432251,-1.775274634361267,-2.335246324539185,1.5737274885177612,-0.0175324101001024
325,-1.5689629316329956,-0.7528020739555359,-1.7753033638000488,-2.335139751434326,1.5737571716308594,-0.0175992306321859
326,-1.5689923763275146,-0.7527740597724915,-1.77533221244812,-2.3350329399108887,1.573786735534668,-0.0176660474389791
327,-1.569021463394165,-0.7527458667755127,-1.7753608226776123,-2.3349263668060303,1.5738162994384766,-0.0177324898540973
328,-1.5690510272979736,-0.7527178525924683,-1.775389552116394,-2.3348195552825928,1.5738459825515747,-0.0177993401885032
329,-1.569080471992493,-0.7526898384094238,-1.775418043136597,-2.334713220596313,1.5738754272460938,-0.0178661905229091
330,-1.5691099166870115,-0.7526617646217346,-1.775446891784668,-2.334606409072876,1.573905110359192,-0.0179329589009284
331,-1.5691393613815308,-0.7526337504386902,-1.775475263595581,-2.3344998359680176,1.5739346742630005,-0.0179996918886899
332,-1.5691686868667605,-0.7526055574417114,-1.775504231452942,-2.334393262863159,1.5739644765853882,-0.0180662833154201
333,-1.5691978931427002,-0.7525774240493774,-1.775532841682434,-2.3342864513397217,1.5739940404891968,-0.0181328747421503
334,-1.5692273378372192,-0.7525493502616882,-1.7755615711212158,-2.3341798782348637,1.574023723602295,-0.0181996151804924
335,-1.5692567825317385,-0.7525213360786438,-1.775590419769287,-2.334073066711426,1.574053406715393,-0.0182664114981889
336,-1.569286227226257,-0.7524933815002441,-1.7756187915802002,-2.3339664936065674,1.5740830898284912,-0.0183331239968538
337,-1.5693154335021973,-0.7524652481079102,-1.7756476402282717,-2.33385968208313,1.574112892150879,-0.0183996576815843
338,-1.5693448781967163,-0.752437174320221,-1.7756764888763428,-2.3337531089782715,1.5741424560546875,-0.0184664633125066
339,-1.5693743228912354,-0.7524091005325317,-1.7757049798965454,-2.333646535873413,1.5741722583770752,-0.0185331776738166
340,-1.5694037675857544,-0.7523810267448425,-1.7757337093353271,-2.3335399627685547,1.574202060699463,-0.0185999237000942
341,-1.5694332122802734,-0.7523530125617981,-1.7757625579833984,-2.333433151245117,1.574231743812561,-0.0186666380614042
342,-1.5694624185562134,-0.7523248791694641,-1.7757911682128906,-2.333326816558838,1.5742615461349487,-0.0187331493943929
343,-1.5694918632507324,-0.7522968649864197,-1.7758197784423828,-2.3332200050354004,1.5742912292480469,-0.0187998954206705
344,-1.5695210695266724,-0.7522687315940857,-1.775848627090454,-2.333113431930542,1.5743210315704346,-0.0188664104789495
345,-1.5695505142211914,-0.752240777015686,-1.7758773565292358,-2.3330066204071045,1.5743507146835327,-0.018933068960905
346,-1.5695797204971311,-0.752212643623352,-1.775905966758728,-2.332900285720825,1.57438063621521,-0.0189996138215065
347,-1.5696094036102295,-0.7521845698356628,-1.7759349346160889,-2.3327932357788086,1.5744104385375977,-0.0190666038542985
348,-1.5696386098861694,-0.7521565556526184,-1.775963544845581,-2.3326869010925293,1.5744402408599854,-0.019133061170578
349,-1.569667935371399,-0.7521284222602844,-1.7759923934936523,-2.332580089569092,1.574470043182373,-0.0191996376961469
350,-1.5696971416473389,-0.7521003484725952,-1.776021122932434,-2.332473039627075,1.5744998455047607,-0.0192661862820386
351,-1.569726586341858,-0.7520723938941956,-1.7760496139526367,-2.332366704940796,1.5745296478271484,-0.0193328820168972
352,-1.569755792617798,-0.7520443201065063,-1.7760785818099976,-2.3322598934173584,1.5745595693588257,-0.0193993169814348
353,-1.569785237312317,-0.7520163059234619,-1.7761073112487793,-2.3321533203125,1.574589490890503,-0.0194660145789384
354,-1.569814682006836,-0.7519882321357727,-1.7761359214782717,-2.3320469856262207,1.5746194124221802,-0.0195327438414096
355,-1.569844126701355,-0.7519602179527283,-1.7761645317077637,-2.331940174102783,1.574649214744568,-0.0195994731038808
356,-1.5698732137680054,-0.7519321441650391,-1.776193380355835,-2.331833600997925,1.5746791362762451,-0.0196657888591289
357,-1.5699026584625244,-0.7519040703773499,-1.7762222290039062,-2.3317267894744877,1.574709177017212,-0.0197324641048908
358,-1.5699318647384644,-0.7518759965896606,-1.776250958442688,-2.331620454788208,1.5747389793395996,-0.0197989605367183
359,-1.5699613094329834,-0.7518478631973267,-1.7762798070907593,-2.3315136432647705,1.5747689008712769,-0.0198656972497701
360,-1.5699907541275024,-0.7518198490142822,-1.77630877494812,-2.331406593322754,1.5747989416122437,-0.0199323128908872
361,-1.5700199604034424,-0.7517918944358826,-1.7763371467590332,-2.3313002586364746,1.574828863143921,-0.0199987813830375
362,-1.570049285888672,-0.7517637610435486,-1.7763659954071045,-2.331193447113037,1.574858784675598,-0.0200653430074453
363,-1.5700784921646118,-0.7517357468605042,-1.7763948440551758,-2.3310868740081787,1.574888825416565,-0.0201318748295307
364,-1.5701079368591309,-0.7517077326774597,-1.776423454284668,-2.3309803009033203,1.5749188661575315,-0.0201984941959381
365,-1.5701371431350708,-0.7516796588897705,-1.7764525413513184,-2.330873489379883,1.5749486684799194,-0.0202648788690567
366,-1.5701664686203003,-0.7516515851020813,-1.7764813899993896,-2.3307666778564453,1.5749788284301758,-0.0203314460813999
367,-1.570195555686951,-0.7516234517097473,-1.776510238647461,-2.330660104751587,1.575008749961853,-0.0203978288918733
368,-1.5702251195907593,-0.7515955567359924,-1.7765388488769531,-2.3305532932281494,1.5750387907028198,-0.0204646028578281
369,-1.5702542066574097,-0.7515673041343689,-1.7765676975250244,-2.330446720123291,1.5750688314437866,-0.020530903711915
370,-1.5702836513519287,-0.7515393495559692,-1.7765964269638062,-2.3303401470184326,1.575098752975464,-0.0205975584685802
371,-1.5703130960464478,-0.7515113353729248,-1.776625394821167,-2.330233335494995,1.5751289129257202,-0.0206642486155033
372,-1.5703423023223877,-0.7514833211898804,-1.7766538858413696,-2.330127000808716,1.5751590728759766,-0.0207306668162345
373,-1.570371389389038,-0.7514551281929016,-1.7766830921173096,-2.330019950866699,1.5751891136169434,-0.0207969155162572
374,-1.5704007148742676,-0.7514271140098572,-1.7767117023468018,-2.329913377761841,1.5752191543579102,-0.0208634547889232
375,-1.570429801940918,-0.751399040222168,-1.776740550994873,-2.3298068046569824,1.575249195098877,-0.0209297891706228
376,-1.570459246635437,-0.7513709664344788,-1.7767696380615234,-2.329699993133545,1.5752793550491333,-0.0209963917732238
377,-1.570488452911377,-0.7513430118560791,-1.7767980098724363,-2.3295936584472656,1.5753095149993896,-0.0210628472268581
378,-1.570517897605896,-0.7513148784637451,-1.776827096939087,-2.329486846923828,1.5753395557403564,-0.0211294833570718
379,-1.570547103881836,-0.7512869238853455,-1.7768559455871582,-2.3293797969818115,1.5753698348999023,-0.0211958847939968
380,-1.5705761909484863,-0.7512587904930115,-1.7768847942352295,-2.329273462295532,1.5753998756408691,-0.0212621670216321
381,-1.5706056356430054,-0.7512307167053223,-1.7769136428833008,-2.3291666507720947,1.5754300355911257,-0.0213288627564907
382,-1.5706347227096558,-0.7512027621269226,-1.776942253112793,-2.3290600776672363,1.5754601955413818,-0.0213950853794813
383,-1.5706639289855957,-0.7511746883392334,-1.7769713401794434,-2.328953266143799,1.5754905939102173,-0.021461458876729
384,-1.5706932544708252,-0.751146674156189,-1.777000069618225,-2.3288466930389404,1.5755207538604736,-0.0215279515832662
385,-1.5707228183746338,-0.7511186599731445,-1.777029037475586,-2.328739881515503,1.57555091381073,-0.0215946789830923
386,-1.5707519054412842,-0.7510905265808105,-1.7770581245422363,-2.328633069992065,1.5755810737609863,-0.0216609686613082
387,-1.5707809925079346,-0.7510626316070557,-1.7770864963531494,-2.328526735305786,1.5756113529205322,-0.0217272266745567
388,-1.570810079574585,-0.7510343790054321,-1.7771157026290894,-2.3284199237823486,1.575641632080078,-0.0217934567481279
389,-1.570839285850525,-0.7510064840316772,-1.7771443128585815,-2.328313112258911,1.575671911239624,-0.0218598339706659
390,-1.5708686113357544,-0.750978410243988,-1.7771732807159424,-2.3282065391540527,1.5757020711898804,-0.0219263918697834
391,-1.5708978176116943,-0.7509503364562988,-1.7772021293640137,-2.3280999660491943,1.5757324695587158,-0.021992715075612
392,-1.5709272623062134,-0.7509222626686096,-1.777231216430664,-2.327993154525757,1.5757626295089722,-0.0220593325793743
393,-1.5709563493728638,-0.75089430809021,-1.7772600650787354,-2.32788634300232,1.575792908668518,-0.0221256520599126
394,-1.5709855556488037,-0.7508662343025208,-1.7772889137268066,-2.327779769897461,1.5758233070373535,-0.0221919193863868
395,-1.571014642715454,-0.7508381605148315,-1.7773178815841677,-2.3276731967926025,1.5758535861968994,-0.0222581829875707
396,-1.5710437297821045,-0.7508100867271423,-1.7773466110229492,-2.327566385269165,1.5758839845657349,-0.022324426099658
397,-1.5710728168487549,-0.7507820129394531,-1.7773756980895996,-2.3274595737457275,1.5759142637252808,-0.022390691563487
398,-1.571102261543274,-0.7507539987564087,-1.7774046659469604,-2.327353239059448,1.5759445428848269,-0.0224571954458951
399,-1.5711313486099243,-0.7507259249687195,-1.7774333953857422,-2.3272464275360107,1.5759750604629517,-0.0225234664976596
400,-1.5711604356765747,-0.7506978511810303,-1.7774624824523926,-2.327139616012573,1.576005220413208,-0.0225897375494241
401,-1.5711898803710938,-0.7506698369979858,-1.7774914503097534,-2.327032804489136,1.576035737991333,-0.0226562432944774
402,-1.571218967437744,-0.7506418824195862,-1.7775201797485352,-2.3269262313842773,1.5760661363601685,-0.0227224864065647
403,-1.5712480545043943,-0.7506137490272522,-1.7775490283966064,-2.326819658279419,1.576096534729004,-0.0227887332439422
404,-1.571277141571045,-0.7505857348442078,-1.7775781154632568,-2.3267126083374023,1.5761269330978394,-0.0228549763560295
405,-1.5713063478469849,-0.7505577206611633,-1.777606964111328,-2.326606273651123,1.5761573314666748,-0.0229213126003742
406,-1.5713355541229248,-0.7505296468734741,-1.777635931968689,-2.3264992237091064,1.5761878490447998,-0.0229875892400741
407,-1.5713645219802856,-0.7505016326904297,-1.7776648998260498,-2.326392650604248,1.5762182474136353,-0.02305369079113
408,-1.571393966674805,-0.7504735589027405,-1.7776939868927002,-2.3262860774993896,1.5762487649917605,-0.0231202337890863
409,-1.571422815322876,-0.750445544719696,-1.7777225971221924,-2.3261795043945312,1.5762791633605957,-0.0231862757354974
410,-1.5714519023895264,-0.7504174709320068,-1.7777516841888428,-2.3260726928710938,1.5763095617294312,-0.0232524666935205
411,-1.5714809894561768,-0.7503893375396729,-1.7777807712554932,-2.325965881347656,1.5763400793075562,-0.023318687453866
412,-1.5715104341506958,-0.750361442565918,-1.7778096199035645,-2.325859308242798,1.5763705968856812,-0.0233851764351129
413,-1.5715395212173462,-0.7503333687782288,-1.7778387069702148,-2.3257524967193604,1.5764011144638062,-0.023451279848814
414,-1.5715686082839966,-0.7503053545951843,-1.777867317199707,-2.325645923614502,1.5764316320419312,-0.0235175658017396
415,-1.571597695350647,-0.7502773404121399,-1.7778964042663574,-2.325539350509644,1.5764622688293457,-0.0235836710780859
416,-1.5716266632080078,-0.7502492070198059,-1.7779254913330078,-2.325432538986206,1.5764927864074707,-0.0236498415470123
417,-1.5716558694839478,-0.7502211928367615,-1.777954339981079,-2.325325727462769,1.5765231847763062,-0.0237160716205835
418,-1.571684956550598,-0.750193178653717,-1.7779834270477295,-2.32521915435791,1.5765538215637207,-0.0237822700291872
419,-1.5717140436172483,-0.7501651644706726,-1.7780122756958008,-2.3251123428344727,1.5765844583511353,-0.0238484367728233
420,-1.571743130683899,-0.7501370906829834,-1.778041124343872,-2.3250060081481934,1.5766150951385498,-0.0239145494997501
421,-1.5717719793319702,-0.7501089572906494,-1.7780702114105225,-2.324899196624756,1.5766456127166748,-0.0239805448800325
422,-1.5718010663986206,-0.750080943107605,-1.7780991792678833,-2.324792623519897,1.5766762495040894,-0.0240467451512813
423,-1.571830153465271,-0.7500528693199158,-1.778128147125244,-2.32468581199646,1.576706886291504,-0.0241128616034984
424,-1.5718592405319214,-0.7500248551368713,-1.7781574726104736,-2.3245790004730225,1.576737403869629,-0.0241790674626827
425,-1.571888446807861,-0.7499969005584717,-1.778186321258545,-2.324472188949585,1.576768159866333,-0.0242452714592218
426,-1.5719174146652222,-0.7499687671661377,-1.778215408325195,-2.3243656158447266,1.576798677444458,-0.0243113599717617
427,-1.5719465017318726,-0.7499406933784485,-1.7782444953918457,-2.324258804321289,1.576829433441162,-0.0243775099515914
428,-1.571975588798523,-0.7499127388000488,-1.778273344039917,-2.3241522312164307,1.5768600702285769,-0.0244436878710985
429,-1.5720046758651731,-0.7498846650123596,-1.7783024311065674,-2.324045419692993,1.5768908262252808,-0.0245097465813159
430,-1.5720336437225342,-0.7498565316200256,-1.7783315181732178,-2.323938608169556,1.5769213438034058,-0.0245758388191461
431,-1.5720624923706057,-0.7498284578323364,-1.7783604860305786,-2.3238322734832764,1.57695209980011,-0.0246417261660099
432,-1.572091579437256,-0.7498005032539368,-1.7783894538879397,-2.323725461959839,1.576982855796814,-0.0247079394757747
433,-1.5721206665039062,-0.7497725486755371,-1.7784183025360107,-2.3236186504364014,1.5770134925842283,-0.0247740615159273
434,-1.572149395942688,-0.7497444152832031,-1.7784476280212402,-2.323511838912964,1.5770443677902222,-0.0248398035764694
435,-1.572178602218628,-0.7497164011001587,-1.778476595878601,-2.3234050273895264,1.5770751237869265,-0.0249060448259115
436,-1.5722075700759888,-0.7496882081031799,-1.778505802154541,-2.323298454284668,1.5771057605743408,-0.024972079321742
437,-1.5722367763519287,-0.749660313129425,-1.7785346508026123,-2.3231918811798096,1.5771366357803345,-0.0250383578240871
438,-1.5722657442092896,-0.7496322393417358,-1.7785638570785522,-2.323085069656372,1.577167272567749,-0.0251043383032083
439,-1.5722945928573608,-0.7496041059494019,-1.7785929441452026,-2.3229782581329346,1.577198147773743,-0.0251701734960079
440,-1.5723236799240112,-0.7495761513710022,-1.7786219120025637,-2.322871685028076,1.5772290229797363,-0.0252362731844186
441,-1.5723525285720823,-0.749548077583313,-1.7786508798599243,-2.3227651119232178,1.5772597789764404,-0.0253021661192178
442,-1.5723814964294434,-0.7495200634002686,-1.7786798477172852,-2.32265853881836,1.5772905349731443,-0.0253681223839521
443,-1.5724105834960938,-0.7494920492172241,-1.778709053993225,-2.3225514888763428,1.5773214101791382,-0.0254341959953308
444,-1.5724395513534546,-0.7494639754295349,-1.778738021850586,-2.3224449157714844,1.5773522853851318,-0.0255002416670322
445,-1.572468400001526,-0.7494359016418457,-1.7787671089172363,-2.322338104248047,1.5773831605911257,-0.0255660805851221
446,-1.5724971294403076,-0.7494078278541565,-1.7787961959838867,-2.3222315311431885,1.5774139165878296,-0.0256318319588899
447,-1.572526216506958,-0.7493798732757568,-1.778825044631958,-2.32212495803833,1.5774447917938232,-0.025697998702526
448,-1.5725551843643188,-0.7493517398834229,-1.7788543701171875,-2.3220181465148926,1.5774757862091064,-0.0257639847695827
449,-1.57258403301239,-0.7493237257003784,-1.7788833379745483,-2.321911573410034,1.5775065422058103,-0.0258297659456729
450,-1.572612762451172,-0.7492955327033997,-1.7789127826690674,-2.3218045234680176,1.5775374174118042,-0.0258955843746662
451,-1.5726418495178225,-0.749267578125,-1.778941631317139,-2.321697950363159,1.577568531036377,-0.0259615778923034
452,-1.5726709365844729,-0.7492396235466003,-1.77897047996521,-2.321591377258301,1.5775994062423706,-0.0260276887565851
453,-1.5726996660232544,-0.7492114901542664,-1.7789998054504397,-2.3214845657348637,1.5776302814483645,-0.0260933861136436
454,-1.5727287530899048,-0.7491835355758667,-1.7790287733078003,-2.321377992630005,1.5776612758636477,-0.0261594410985708
455,-1.5727574825286863,-0.7491554617881775,-1.7790579795837402,-2.3212711811065674,1.5776922702789309,-0.0262251663953065
456,-1.5727864503860474,-0.7491274476051331,-1.7790870666503906,-2.321164608001709,1.5777231454849243,-0.0262911953032016
457,-1.572815179824829,-0.7490992546081543,-1.77911639213562,-2.3210575580596924,1.5777541399002075,-0.0263568982481956
458,-1.5728440284729004,-0.7490712404251099,-1.779145359992981,-2.320951223373413,1.5777852535247805,-0.0264227502048015
459,-1.5728731155395508,-0.7490432858467102,-1.779174566268921,-2.3208441734313965,1.577816128730774,-0.0264887474477291
460,-1.572901725769043,-0.7490150928497314,-1.7792036533355713,-2.320737600326538,1.5778471231460571,-0.0265543609857559
461,-1.5729308128356934,-0.7489871382713318,-1.7792327404022217,-2.3206307888031006,1.57787823677063,-0.026620453223586
462,-1.572959542274475,-0.7489590644836426,-1.7792620658874512,-2.320523977279663,1.577909231185913,-0.0266861282289028
463,-1.5729882717132568,-0.7489309906959534,-1.7792911529541016,-2.3204174041748047,1.5779403448104858,-0.0267518069595098
464,-1.5730170011520386,-0.7489028573036194,-1.779320240020752,-2.3203108310699463,1.5779714584350586,-0.0268175192177295
465,-1.5730459690093994,-0.7488749027252197,-1.7793493270874023,-2.320204019546509,1.5780023336410522,-0.0268834587186574
466,-1.5730746984481812,-0.7488468885421753,-1.7793785333633425,-2.3200972080230717,1.5780335664749146,-0.0269491132348775
467,-1.5731035470962524,-0.7488186955451965,-1.7794077396392822,-2.319990634918213,1.5780646800994873,-0.0270149130374193
468,-1.5731326341629028,-0.7487907409667969,-1.7794368267059326,-2.3198838233947754,1.57809579372406,-0.0270809773355722
469,-1.5731613636016846,-0.7487627863883972,-1.779465913772583,-2.319777011871338,1.5781267881393433,-0.0271466616541147
470,-1.5731900930404663,-0.7487346529960632,-1.7794950008392334,-2.3196706771850586,1.578157901763916,-0.0272123757749795
471,-1.5732187032699585,-0.7487066388130188,-1.779524326324463,-2.319563865661621,1.5781891345977783,-0.0272778533399105
472,-1.5732474327087402,-0.74867844581604,-1.7795536518096924,-2.319457054138184,1.578220248222351,-0.0273435655981302
473,-1.5732765197753906,-0.7486505508422852,-1.7795825004577637,-2.319350481033325,1.5782513618469238,-0.0274095498025417
474,-1.5733048915863037,-0.7486222982406616,-1.7796119451522827,-2.319243669509888,1.578282594680786,-0.0274748504161834
475,-1.573333978652954,-0.7485944628715515,-1.7796409130096436,-2.31913685798645,1.5783137083053589,-0.0275408644229173
476,-1.5733625888824463,-0.7485663294792175,-1.779670000076294,-2.319030284881592,1.5783449411392212,-0.0276064369827508
477,-1.5733914375305176,-0.7485382556915283,-1.7796995639801023,-2.3189234733581543,1.5783761739730835,-0.0276722144335508
478,-1.5734200477600098,-0.7485101819038391,-1.779728651046753,-2.318816661834717,1.5784072875976562,-0.027737695723772
479,-1.5734487771987915,-0.7484821081161499,-1.7797576189041138,-2.3187100887298584,1.5784385204315186,-0.0278034452348947
480,-1.5734775066375732,-0.7484540343284607,-1.7797868251800537,-2.318603277206421,1.5784697532653809,-0.0278690531849861
481,-1.573506236076355,-0.7484259009361267,-1.7798161506652832,-2.3184967041015625,1.5785009860992432,-0.0279347449541091
482,-1.5735348463058472,-0.748397946357727,-1.7798453569412231,-2.318390130996704,1.578532338142395,-0.0280001740902662
483,-1.573563575744629,-0.7483698725700378,-1.779874563217163,-2.3182830810546875,1.5785636901855469,-0.0280658081173896
484,-1.5735923051834106,-0.7483416795730591,-1.779904007911682,-2.318176507949829,1.5785948038101196,-0.0281315091997385
485,-1.5736210346221924,-0.7483137845993042,-1.7799330949783323,-2.318069696426392,1.578626036643982,-0.0281971450895071
486,-1.573649764060974,-0.748285710811615,-1.7799620628356934,-2.317963123321533,1.5786575078964231,-0.0282626952975988
487,-1.5736783742904663,-0.748257577419281,-1.779991626739502,-2.3178560733795166,1.5786887407302856,-0.0283282417804002
488,-1.573707103729248,-0.7482295036315918,-1.7800207138061523,-2.3177497386932373,1.578720211982727,-0.0283938851207494
489,-1.5737358331680298,-0.7482016086578369,-1.7800500392913818,-2.3176426887512207,1.5787513256072998,-0.0284594669938087
490,-1.5737642049789429,-0.7481733560562134,-1.7800792455673218,-2.3175361156463623,1.5787826776504517,-0.0285247489809989
491,-1.573792815208435,-0.7481452822685242,-1.7801084518432615,-2.317429542541504,1.578814148902893,-0.0285902488976717
492,-1.5738215446472168,-0.748117208480835,-1.7801377773284912,-2.3173227310180664,1.5788453817367554,-0.0286558978259563
493,-1.5738502740859983,-0.7480892539024353,-1.7801668643951416,-2.317216157913208,1.5788768529891968,-0.0287214796990156
494,-1.5738790035247805,-0.7480612397193909,-1.780196189880371,-2.3171093463897705,1.5789082050323486,-0.02878706343472
495,-1.5739073753356934,-0.7480331063270569,-1.7802255153656006,-2.317002534866333,1.5789395570755005,-0.0288523826748132
496,-1.5739364624023438,-0.7480050921440125,-1.780254602432251,-2.3168959617614746,1.578971028327942,-0.0289182998239994
497,-1.5739647150039673,-0.7479769587516785,-1.7802839279174805,-2.316789150238037,1.5790024995803833,-0.0289834477007389
498,-1.5739933252334597,-0.747948944568634,-1.78031325340271,-2.3166823387146,1.5790338516235352,-0.029048915952444
499,-1.574021816253662,-0.7479209303855896,-1.7803423404693604,-2.316575765609741,1.5790653228759766,-0.0291142109781503
500,-1.5740505456924438,-0.7478928565979004,-1.7803716659545898,-2.316468954086304,1.579096794128418,-0.0291798636317253
501,-1.574079155921936,-0.7478647232055664,-1.7804009914398191,-2.3163623809814453,1.5791282653808594,-0.0292452741414308
502,-1.5741075277328491,-0.7478365898132324,-1.7804303169250488,-2.316255807876587,1.5791596174240112,-0.0293105710297822
503,-1.5741361379623413,-0.747808575630188,-1.7804595232009888,-2.3161489963531494,1.5791910886764526,-0.0293760485947132
504,-1.574164628982544,-0.747780442237854,-1.7804888486862185,-2.316042184829712,1.5792226791381836,-0.0294413473457098
505,-1.574193239212036,-0.7477523684501648,-1.7805180549621582,-2.315935611724853,1.579254150390625,-0.0295068249106407
506,-1.574221968650818,-0.7477243542671204,-1.7805476188659668,-2.315828800201416,1.579285740852356,-0.0295723602175712
507,-1.574250340461731,-0.7476962804794312,-1.7805768251419067,-2.3157217502593994,1.579317331314087,-0.0296376068145036
508,-1.5742788314819336,-0.7476682066917419,-1.780606031417847,-2.31561541557312,1.5793488025665283,-0.029702965170145
509,-1.574307203292847,-0.747640073299408,-1.7806353569030762,-2.3155086040496826,1.5793802738189695,-0.0297681521624326
510,-1.5743358135223389,-0.7476119995117188,-1.7806646823883057,-2.315402030944824,1.579411864280701,-0.0298336334526538
511,-1.574364185333252,-0.7475839257240295,-1.7806940078735352,-2.315295457839966,1.5794434547424316,-0.0298988204449415
512,-1.574392557144165,-0.7475557923316956,-1.7807235717773438,-2.315188407897949,1.579474925994873,-0.029964005574584
513,-1.5744212865829468,-0.7475277185440063,-1.7807527780532837,-2.315081834793091,1.579506754875183,-0.030029522255063
514,-1.574449896812439,-0.7474997639656067,-1.7807819843292236,-2.3149752616882324,1.5795382261276243,-0.0300949420779943
515,-1.5744781494140625,-0.7474716305732727,-1.7808115482330322,-2.314868211746216,1.5795698165893557,-0.0301600769162178
516,-1.5745066404342651,-0.7474436163902283,-1.7808406352996826,-2.3147616386413574,1.579601526260376,-0.0302253551781177
517,-1.574534893035889,-0.7474153637886047,-1.780869960784912,-2.314655065536499,1.579633116722107,-0.0302903726696968
518,-1.5745636224746704,-0.7473874688148499,-1.7808995246887207,-2.314548254013061,1.5796648263931274,-0.0303559750318527
519,-1.574591875076294,-0.7473593950271606,-1.7809284925460815,-2.3144419193267822,1.5796964168548584,-0.0304210502654314
520,-1.574620246887207,-0.7473312020301819,-1.7809581756591797,-2.3143346309661865,1.579728126525879,-0.0304861590266227
521,-1.5746489763259888,-0.7473032474517822,-1.78098726272583,-2.314228057861328,1.57975971698761,-0.0305517353117465
522,-1.574677348136902,-0.747275173664093,-1.7810165882110596,-2.3141214847564697,1.57979154586792,-0.0306168422102928
523,-1.5747056007385254,-0.7472469210624695,-1.7810461521148682,-2.314014673233032,1.5798231363296509,-0.0306819472461938
524,-1.5747339725494385,-0.7472189664840698,-1.781075358390808,-2.3139078617095947,1.579854965209961,-0.0307470895349979
525,-1.574762225151062,-0.7471907734870911,-1.7811048030853271,-2.3138012886047363,1.579886555671692,-0.0308122001588344
526,-1.5747908353805542,-0.7471627593040466,-1.7811341285705566,-2.313694477081299,1.579918384552002,-0.0308775175362825
527,-1.5748188495635986,-0.7471345663070679,-1.7811635732650757,-2.3135879039764404,1.5799500942230225,-0.0309423897415399
528,-1.5748474597930908,-0.7471065521240234,-1.7811930179595947,-2.313481092453003,1.5799819231033323,-0.0310077723115682
529,-1.574875831604004,-0.7470784783363342,-1.7812223434448242,-2.313374280929565,1.580013632774353,-0.0310728829354047
530,-1.5749040842056274,-0.747050404548645,-1.7812517881393433,-2.313267469406128,1.5800453424453735,-0.031137965619564
531,-1.5749324560165403,-0.747022271156311,-1.7812811136245728,-2.3131611347198486,1.5800771713256836,-0.0312030799686908
532,-1.574960708618164,-0.7469941973686218,-1.7813103199005127,-2.313054323196411,1.5801090002059937,-0.0312681421637535
533,-1.5749890804290771,-0.7469660639762878,-1.7813398838043213,-2.3129475116729736,1.5801408290863037,-0.0313331596553325
534,-1.575017333030701,-0.7469380497932434,-1.7813692092895508,-2.3128409385681152,1.5801725387573242,-0.0313982479274272
535,-1.5750455856323242,-0.7469099760055542,-1.7813986539840698,-2.312733888626098,1.5802044868469238,-0.0314632765948772
536,-1.5750739574432373,-0.7468817830085754,-1.781428337097168,-2.31262731552124,1.5802361965179443,-0.0315284319221973
537,-1.5751022100448608,-0.7468537092208862,-1.7814573049545288,-2.312520742416382,1.580268144607544,-0.0315934307873249
538,-1.5751302242279053,-0.7468254566192627,-1.781486988067627,-2.3124141693115234,1.580299973487854,-0.0316581651568412
539,-1.5751585960388184,-0.746797502040863,-1.7815163135528564,-2.312307119369507,1.5803319215774536,-0.0317232832312583
540,-1.575186848640442,-0.746769368648529,-1.781545639038086,-2.3122007846832275,1.5803637504577637,-0.0317882932722568
541,-1.5752151012420654,-0.7467413544654846,-1.7815752029418943,-2.31209397315979,1.5803956985473633,-0.031853262335062
542,-1.575243353843689,-0.7467132210731506,-1.7816047668457031,-2.3119871616363525,1.580427646636963,-0.0319183282554149
543,-1.5752716064453125,-0.7466850876808167,-1.7816340923309326,-2.311880588531494,1.580459475517273,-0.0319832749664783
544,-1.5752997398376465,-0.7466568946838379,-1.7816636562347412,-2.3117737770080566,1.5804914236068726,-0.0320481583476066
545,-1.57532799243927,-0.7466288208961487,-1.7816929817199707,-2.3116672039031982,1.5805234909057615,-0.0321131125092506
546,-1.575356364250183,-0.746600866317749,-1.7817223072052002,-2.3115603923797607,1.580555438995361,-0.0321782380342483
547,-1.575384259223938,-0.746572732925415,-1.7817516326904297,-2.3114538192749023,1.580587387084961,-0.0322428345680236
548,-1.5754125118255615,-0.7465445399284363,-1.7817811965942385,-2.311347007751465,1.580619215965271,-0.0323078408837318
549,-1.575440764427185,-0.7465164661407471,-1.7818107604980469,-2.311240196228028,1.5806512832641602,-0.0323727689683437
550,-1.5754690170288086,-0.7464883923530579,-1.7818403244018557,-2.31113338470459,1.5806832313537598,-0.0324378088116645
551,-1.575497031211853,-0.7464602589607239,-1.781869888305664,-2.3110265731811523,1.580715298652649,-0.0325025208294391
552,-1.5755252838134766,-0.7464320659637451,-1.7818992137908936,-2.310920238494873,1.580747365951538,-0.0325674191117286
553,-1.575553297996521,-0.7464040517807007,-1.7819286584854126,-2.3108131885528564,1.5807793140411377,-0.032632190734148
554,-1.575581431388855,-0.7463759779930115,-1.7819581031799316,-2.310706615447998,1.5808113813400269,-0.0326970294117927
555,-1.57560932636261,-0.7463476657867432,-1.7819879055023191,-2.3105998039245605,1.580843448638916,-0.0327616930007934
556,-1.5756373405456543,-0.7463196516036987,-1.7820171117782593,-2.310493230819702,1.5808755159378052,-0.0328263528645038
557,-1.5756655931472778,-0.7462915778160095,-1.7820465564727783,-2.3103864192962646,1.5809075832366943,-0.0328913144767284
558,-1.575693964958191,-0.7462634444236755,-1.782076120376587,-2.310279607772827,1.580939769744873,-0.0329563356935977
559,-1.5757218599319458,-0.7462352514266968,-1.782105565071106,-2.310173273086548,1.5809717178344729,-0.0330209918320179
560,-1.5757498741149902,-0.746207058429718,-1.782135248184204,-2.3100664615631104,1.5810039043426514,-0.0330856256186962
561,-1.5757780075073242,-0.7461791038513184,-1.7821645736694336,-2.309959888458252,1.5810359716415403,-0.0331505313515663
562,-1.575805902481079,-0.7461508512496948,-1.7821942567825315,-2.309852838516236,1.5810681581497192,-0.0332150794565677
563,-1.5758339166641235,-0.7461227774620056,-1.7822237014770508,-2.309746265411377,1.5811002254486084,-0.0332797430455684
564,-1.5758620500564575,-0.7460947036743164,-1.7822530269622805,-2.3096396923065186,1.581132411956787,-0.0333445332944393
565,-1.575890064239502,-0.7460666298866272,-1.7822825908660889,-2.309532880783081,1.5811645984649658,-0.0334093198180198
566,-1.5759178400039673,-0.7460383772850037,-1.7823119163513184,-2.3094265460968018,1.581196665763855,-0.0334737263619899
567,-1.5759462118148804,-0.746010422706604,-1.7823415994644165,-2.3093197345733643,1.5812289714813232,-0.0335387773811817
568,-1.5759738683700562,-0.7459821105003357,-1.7823712825775146,-2.3092129230499268,1.581261157989502,-0.0336030945181846
569,-1.57600200176239,-0.7459540963172913,-1.7824008464813232,-2.3091061115264893,1.5812933444976809,-0.0336678847670555
570,-1.5760300159454346,-0.745926022529602,-1.7824302911758425,-2.308999300003052,1.5813255310058594,-0.033732496201992
571,-1.5760577917099,-0.7458978295326233,-1.7824599742889404,-2.3088927268981934,1.5813578367233276,-0.0337969623506069
572,-1.5760858058929443,-0.7458696961402893,-1.782489538192749,-2.308785915374756,1.5813900232315063,-0.0338616967201232
573,-1.5761137008666992,-0.7458415031433105,-1.7825188636779783,-2.308679342269897,1.5814223289489746,-0.0339261963963508
574,-1.5761417150497437,-0.7458134293556213,-1.782548427581787,-2.308572769165039,1.581454515457153,-0.0339908972382545
575,-1.576169490814209,-0.7457852363586426,-1.7825779914855957,-2.3084661960601807,1.5814868211746216,-0.0340552777051925
576,-1.576197385787964,-0.7457571029663086,-1.7826075553894043,-2.308359384536743,1.5815191268920898,-0.0341198705136776
577,-1.5762253999710083,-0.7457290291786194,-1.782637119293213,-2.3082525730133057,1.581551432609558,-0.0341845117509365
578,-1.5762535333633425,-0.7457008361816406,-1.7826669216156006,-2.308145761489868,1.5815837383270264,-0.034249197691679
579,-1.576281189918518,-0.7456726431846619,-1.78269624710083,-2.3080391883850098,1.5816160440444946,-0.0343135483562946
580,-1.5763089656829834,-0.7456446290016174,-1.782725811004639,-2.307932615280152,1.581648349761963,-0.034377958625555
581,-1.5763368606567385,-0.7456164360046387,-1.7827553749084473,-2.307825803756714,1.5816806554794312,-0.0344424620270729
582,-1.5763648748397827,-0.7455883026123047,-1.782785177230835,-2.3077189922332764,1.581713080406189,-0.0345070622861385
583,-1.576392650604248,-0.7455601096153259,-1.7828147411346436,-2.307612180709839,1.5817453861236572,-0.0345714725553989
584,-1.5764201879501345,-0.7455318570137024,-1.7828445434570312,-2.3075056076049805,1.581777811050415,-0.0346356853842735
585,-1.5764482021331787,-0.745503842830658,-1.7828738689422607,-2.307399034500122,1.5818102359771729,-0.0347002781927585
586,-1.5764760971069336,-0.745475709438324,-1.7829034328460691,-2.307292222976685,1.5818425416946411,-0.034764751791954
587,-1.5765035152435305,-0.7454473972320557,-1.782933235168457,-2.307185649871826,1.581874966621399,-0.0348287969827652
588,-1.5765314102172852,-0.745419442653656,-1.7829623222351074,-2.307079076766968,1.5819073915481567,-0.0348932966589927
589,-1.5765594244003296,-0.745391309261322,-1.7829921245574951,-2.3069722652435303,1.5819398164749146,-0.0349579341709613
590,-1.5765868425369265,-0.7453630566596985,-1.7830219268798828,-2.306865692138672,1.5819722414016724,-0.0350219346582889
591,-1.5766147375106812,-0.7453349232673645,-1.7830514907836914,-2.3067588806152344,1.5820047855377195,-0.0350864790380001
592,-1.576642632484436,-0.7453067898750305,-1.783081293106079,-2.306652069091797,1.5820372104644775,-0.0351509302854537
593,-1.5766701698303225,-0.7452785968780518,-1.7831108570098877,-2.30654525756836,1.5820696353912354,-0.0352150872349739
594,-1.5766979455947876,-0.7452504634857178,-1.7831404209136963,-2.306438684463501,1.5821020603179932,-0.0352794267237186
595,-1.5767258405685425,-0.745222270488739,-1.7831699848175049,-2.3063321113586426,1.58213472366333,-0.035343874245882
596,-1.5767532587051392,-0.745194137096405,-1.7831995487213137,-2.306225299835205,1.5821670293807983,-0.0354079790413379
597,-1.576780915260315,-0.7451658248901367,-1.7832293510437012,-2.3061187267303467,1.5821996927261353,-0.0354721695184707
598,-1.5768084526062012,-0.7451377511024475,-1.7832589149475098,-2.3060121536254883,1.5822322368621826,-0.0355363078415393
599,-1.5768364667892456,-0.7451096177101135,-1.7832887172698977,-2.305905103683472,1.58226478099823,-0.035600908100605
600,-1.5768638849258425,-0.7450814843177795,-1.783318281173706,-2.3057987689971924,1.5822973251342771,-0.0356648340821266
601,-1.5768917798995972,-0.7450533509254456,-1.7833480834960938,-2.305691719055176,1.5823298692703247,-0.0357293263077735
602,-1.5769193172454834,-0.7450251579284668,-1.7833776473999023,-2.3055851459503174,1.5823622941970823,-0.0357934534549713
603,-1.57694673538208,-0.7449969053268433,-1.7834073305130005,-2.30547833442688,1.5823949575424194,-0.0358574166893959
604,-1.5769742727279663,-0.7449687123298645,-1.7834370136260986,-2.3053719997406006,1.5824275016784668,-0.0359214879572391
605,-1.5770020484924316,-0.7449405789375305,-1.7834665775299072,-2.305265426635742,1.5824602842330933,-0.0359857492148876
606,-1.577029585838318,-0.7449123859405518,-1.783496379852295,-2.3051583766937256,1.5824928283691406,-0.0360498838126659
607,-1.577057123184204,-0.7448842525482178,-1.7835259437561035,-2.305051803588867,1.582525372505188,-0.0361139625310897
608,-1.5770848989486694,-0.7448561787605286,-1.783555507659912,-2.304945230484009,1.582558035850525,-0.0361783131957054
609,-1.5771124362945557,-0.744827926158905,-1.7835853099822998,-2.3048384189605717,1.5825906991958618,-0.0362424217164516
610,-1.5771398544311523,-0.7447997331619263,-1.783614993095398,-2.304731607437134,1.5826233625411987,-0.0363063812255859
611,-1.5771671533584597,-0.7447715401649475,-1.783644676208496,-2.3046252727508545,1.5826560258865356,-0.0363702587783336
612,-1.5771949291229248,-0.744743287563324,-1.7836744785308838,-2.304518222808838,1.5826886892318726,-0.0364345200359821
613,-1.5772223472595217,-0.7447152137756348,-1.7837040424346924,-2.3044116497039795,1.5827213525772097,-0.0364984571933746
614,-1.5772498846054075,-0.744687020778656,-1.783733606338501,-2.3043053150177,1.5827540159225464,-0.0365625955164432
615,-1.577277421951294,-0.7446588277816772,-1.7837635278701782,-2.3041980266571045,1.5827867984771729,-0.0366265662014484
616,-1.5773048400878906,-0.7446305155754089,-1.7837932109832764,-2.304091691970825,1.582819581031799,-0.0366905033588409
617,-1.5773320198059082,-0.7446022629737854,-1.783823013305664,-2.303985118865967,1.5828522443771362,-0.0367542989552021
618,-1.577359914779663,-0.7445741891860962,-1.7838529348373413,-2.30387806892395,1.5828850269317627,-0.0368187092244625
619,-1.5773869752883911,-0.7445459961891174,-1.7838823795318604,-2.303771734237671,1.5829176902770996,-0.0368822589516639
620,-1.5774145126342771,-0.7445177435874939,-1.783912181854248,-2.3036649227142334,1.5829505920410156,-0.0369463227689266
621,-1.5774420499801636,-0.7444896101951599,-1.7839419841766355,-2.303558111190796,1.5829832553863523,-0.0370103530585765
622,-1.5774692296981812,-0.7444614171981812,-1.783971667289734,-2.3034517765045166,1.5830161571502686,-0.0370739959180355
623,-1.5774965286254885,-0.7444332242012024,-1.784001350402832,-2.303345203399658,1.5830488204956057,-0.0371378511190414
624,-1.5775240659713743,-0.7444048523902893,-1.7840313911437988,-2.3032381534576416,1.5830817222595217,-0.0372018590569496
625,-1.5775514841079712,-0.7443767189979553,-1.7840611934661863,-2.303131341934204,1.583114504814148,-0.0372657179832458
626,-1.5775786638259888,-0.7443485260009766,-1.7840907573699951,-2.303025007247925,1.5831472873687744,-0.0373294502496719
627,-1.5776060819625854,-0.7443203926086426,-1.7841205596923828,-2.3029181957244877,1.5831801891326904,-0.037393394857645
628,-1.577633261680603,-0.7442920804023743,-1.7841503620147705,-2.302811622619629,1.5832130908966064,-0.0374570488929748
629,-1.5776607990264893,-0.7442639470100403,-1.784179925918579,-2.3027050495147705,1.5832459926605225,-0.0375210531055927
630,-1.5776878595352173,-0.744235634803772,-1.7842098474502563,-2.302598237991333,1.583278775215149,-0.0375846214592456
631,-1.577715277671814,-0.7442074418067932,-1.7842397689819336,-2.3024914264678955,1.5833117961883545,-0.0376485623419284
632,-1.5777424573898315,-0.7441792488098145,-1.7842693328857422,-2.302385091781616,1.583344578742981,-0.0377121865749359
633,-1.577769756317139,-0.7441509962081909,-1.7842992544174194,-2.3022782802581787,1.5833775997161863,-0.0377759337425231
634,-1.5777969360351562,-0.7441228032112122,-1.7843289375305176,-2.3021717071533203,1.5834105014801023,-0.0378395579755306
635,-1.577824354171753,-0.7440946102142334,-1.7843587398529053,-2.302064895629883,1.5834434032440186,-0.0379034541547298
636,-1.577851414680481,-0.7440662980079651,-1.784388542175293,-2.3019583225250244,1.5834763050079346,-0.0379669852554798
637,-1.5778788328170776,-0.7440382242202759,-1.7844182252883911,-2.301851511001587,1.58350932598114,-0.0380308851599693
638,-1.577905774116516,-0.7440098524093628,-1.784448266029358,-2.3017446994781494,1.5835422277450562,-0.0380943082273006
639,-1.5779331922531128,-0.743981659412384,-1.7844781875610352,-2.301638126373291,1.5835752487182615,-0.0381581746041774
640,-1.5779602527618408,-0.74395352602005,-1.7845077514648438,-2.3015315532684326,1.5836081504821775,-0.038221713155508
641,-1.5779874324798584,-0.7439252734184265,-1.7845373153686523,-2.301424980163574,1.5836411714553833,-0.0382853150367736
642,-1.5780147314071655,-0.743897020816803,-1.7845673561096191,-2.301318407058716,1.5836741924285889,-0.0383490920066833
643,-1.5780417919158936,-0.7438687682151794,-1.7845971584320068,-2.3012115955352783,1.5837072134017944,-0.0384125187993049
644,-1.5780689716339111,-0.7438405752182007,-1.784627079963684,-2.301104784011841,1.583740234375,-0.0384761504828929
645,-1.5780960321426392,-0.7438123822212219,-1.7846567630767822,-2.3009982109069824,1.5837732553482056,-0.0385397262871265
646,-1.5781230926513672,-0.7437840700149536,-1.7846866846084597,-2.300891637802124,1.5838062763214111,-0.0386032126843929
647,-1.5781502723693848,-0.7437557578086853,-1.7847166061401367,-2.3007848262786865,1.5838394165039062,-0.0386667549610137
648,-1.5781772136688232,-0.7437275648117065,-1.7847462892532349,-2.3006784915924072,1.5838724374771118,-0.0387301221489906
649,-1.5782043933868408,-0.7436993718147278,-1.784776210784912,-2.30057144165039,1.5839056968688965,-0.0387937352061271
650,-1.5782313346862793,-0.7436710000038147,-1.784806251525879,-2.300464868545532,1.583938717842102,-0.0388570986688137
651,-1.5782581567764282,-0.7436426877975464,-1.784835934638977,-2.300358533859253,1.5839717388153076,-0.0389203503727912
652,-1.578285574913025,-0.7436146140098572,-1.7848658561706543,-2.3002517223358154,1.5840049982070925,-0.0389841385185718
653,-1.5783122777938845,-0.7435862421989441,-1.784895658493042,-2.300145149230957,1.584038019180298,-0.0390473119914531
654,-1.578339457511902,-0.7435580492019653,-1.7849255800247192,-2.300038576126098,1.584071159362793,-0.0391109213232994
655,-1.5783663988113403,-0.743529736995697,-1.7849555015563965,-2.299931764602661,1.5841044187545776,-0.0391741693019866
656,-1.5783932209014893,-0.7435015439987183,-1.7849851846694946,-2.299824953079224,1.5841375589370728,-0.0392374284565448
657,-1.5784204006195068,-0.7434732913970947,-1.785015106201172,-2.299718379974365,1.584170699119568,-0.0393010377883911
658,-1.5784472227096558,-0.7434449791908264,-1.785045146942139,-2.299611806869507,1.584203839302063,-0.0393643341958522
659,-1.5784739255905151,-0.7434167265892029,-1.7850749492645264,-2.2995049953460693,1.5842370986938477,-0.0394274070858955
660,-1.5785009860992432,-0.7433884739875793,-1.7851049900054932,-2.299398422241211,1.5842702388763428,-0.0394907854497432
661,-1.5785280466079712,-0.7433602213859558,-1.7851345539093018,-2.299292087554932,1.5843034982681274,-0.0395542196929454
662,-1.5785547494888306,-0.7433319091796875,-1.7851645946502686,-2.299185276031494,1.5843366384506226,-0.0396173931658268
663,-1.5785818099975586,-0.7433037161827087,-1.7851943969726562,-2.299078702926636,1.5843698978424072,-0.0396808013319969
664,-1.578608512878418,-0.7432754039764404,-1.785224437713623,-2.2989718914031982,1.584403157234192,-0.0397438257932662
665,-1.578635573387146,-0.7432470917701721,-1.7852544784545898,-2.2988650798797607,1.584436535835266,-0.0398073010146617
666,-1.5786622762680054,-0.7432188391685486,-1.7852842807769775,-2.2987585067749023,1.5844697952270508,-0.0398703850805759
667,-1.5786893367767334,-0.743190586566925,-1.7853143215179443,-2.298651695251465,1.5845030546188354,-0.0399337708950042
668,-1.5787160396575928,-0.7431623339653015,-1.785344123840332,-2.298545360565185,1.58453631401062,-0.0399968810379505
669,-1.5787428617477417,-0.743134081363678,-1.7853741645812988,-2.298438549041748,1.5845696926116943,-0.0400600917637348
670,-1.5787696838378906,-0.7431057691574097,-1.785404086112976,-2.2983319759368896,1.584602952003479,-0.0401232689619064
671,-1.57879638671875,-0.7430774569511414,-1.7854337692260742,-2.2982254028320312,1.5846363306045532,-0.0401863269507885
672,-1.5788230895996094,-0.743049144744873,-1.78546404838562,-2.2981185913085938,1.584669589996338,-0.0402493588626384
673,-1.5788496732711792,-0.7430208921432495,-1.7854937314987185,-2.298012018203736,1.584702968597412,-0.0403123274445533
674,-1.5788763761520386,-0.7429925799369812,-1.7855236530303955,-2.297905445098877,1.5847363471984863,-0.0403753891587257
675,-1.5789034366607666,-0.7429643273353577,-1.7855539321899414,-2.2977986335754395,1.58476984500885,-0.0404387526214122
676,-1.5789300203323364,-0.7429359555244446,-1.785583734512329,-2.29769229888916,1.5848031044006348,-0.04050163179636
677,-1.5789567232131958,-0.742907702922821,-1.7856135368347168,-2.2975854873657227,1.584836483001709,-0.0405647903680801
678,-1.5789830684661863,-0.742879331111908,-1.7856435775756836,-2.2974789142608643,1.5848698616027832,-0.040627434849739
679,-1.579010009765625,-0.7428510785102844,-1.7856736183166504,-2.297372341156006,1.584903359413147,-0.0406906828284263
680,-1.5790367126464844,-0.7428228259086609,-1.785703420639038,-2.2972657680511475,1.5849367380142212,-0.0407537147402763
681,-1.5790632963180542,-0.742794394493103,-1.7857338190078735,-2.29715895652771,1.5849701166152954,-0.0408166609704494
682,-1.5790901184082031,-0.742766261100769,-1.785763382911682,-2.2970526218414307,1.5850037336349487,-0.0408797897398471
683,-1.5791163444519043,-0.7427378296852112,-1.7857937812805176,-2.296945571899414,1.585037112236023,-0.0409423820674419
684,-1.5791432857513428,-0.7427096366882324,-1.7858233451843262,-2.2968392372131348,1.5850706100463867,-0.0410055965185165
685,-1.579169750213623,-0.7426812052726746,-1.785853624343872,-2.2967324256896973,1.5851041078567505,-0.0410684011876583
686,-1.5791963338851929,-0.7426528930664062,-1.7858834266662598,-2.296625852584839,1.5851376056671145,-0.0411312617361545
687,-1.5792229175567627,-0.7426245808601379,-1.7859137058258057,-2.2965192794799805,1.5851709842681885,-0.0411941856145858
688,-1.5792492628097534,-0.7425962090492249,-1.7859437465667725,-2.296412467956543,1.5852046012878418,-0.0412568114697933
689,-1.579276204109192,-0.7425679564476013,-1.7859735488891602,-2.296305894851685,1.5852380990982056,-0.0413200631737709
690,-1.5793023109436035,-0.7425395846366882,-1.786003589630127,-2.296199321746826,1.5852715969085691,-0.0413824543356895
691,-1.5793288946151731,-0.7425112724304199,-1.7860336303710938,-2.296092748641968,1.5853052139282229,-0.0414453223347663
692,-1.5793554782867432,-0.7424829602241516,-1.7860636711120603,-2.2959861755371094,1.585338830947876,-0.0415082164108753
693,-1.5793817043304443,-0.7424545884132385,-1.7860939502716064,-2.295879364013672,1.5853723287582395,-0.0415708161890506
694,-1.5794082880020142,-0.7424262762069702,-1.7861238718032837,-2.295772790908813,1.585405945777893,-0.0416336245834827
695,-1.5794346332550049,-0.7423979640007019,-1.7861535549163818,-2.295666217803955,1.5854395627975464,-0.0416962876915931
696,-1.5794613361358645,-0.7423697710037231,-1.7861837148666382,-2.2955596446990967,1.5854731798171997,-0.0417592488229274
697,-1.5794878005981443,-0.7423412799835205,-1.7862138748168943,-2.295452833175659,1.5855066776275637,-0.0418219678103923
698,-1.5795141458511353,-0.7423129677772522,-1.786243915557861,-2.29534649848938,1.5855404138565063,-0.0418846309185028
699,-1.5795403718948364,-0.7422845363616943,-1.786273956298828,-2.295239925384521,1.5855740308761597,-0.0419470556080341
700,-1.5795669555664062,-0.742256224155426,-1.786304235458374,-2.295132875442505,1.585607647895813,-0.0420098938047885
701,-1.579593300819397,-0.7422279119491577,-1.7863341569900513,-2.2950265407562256,1.585641384124756,-0.0420725345611572
702,-1.579619526863098,-0.7421995997428894,-1.7863640785217283,-2.294919967651367,1.5856750011444092,-0.0421350263059139
703,-1.579645752906799,-0.7421712279319763,-1.786394119262695,-2.294813394546509,1.5857086181640625,-0.04219751060009
704,-1.57967209815979,-0.7421427965164185,-1.7864245176315308,-2.2947065830230717,1.5857423543930054,-0.0422601513564586
705,-1.5796983242034912,-0.7421144843101501,-1.786454200744629,-2.294600248336792,1.5857759714126587,-0.0423226095736026
706,-1.5797245502471924,-0.7420861124992371,-1.7864842414855957,-2.2944936752319336,1.5858097076416016,-0.0423850752413272
707,-1.5797507762908936,-0.7420576810836792,-1.7865146398544312,-2.294386625289917,1.5858434438705444,-0.0424475595355033
708,-1.5797771215438845,-0.7420294284820557,-1.7865445613861084,-2.2942802906036377,1.5858771800994873,-0.042510200291872
709,-1.5798035860061646,-0.7420011758804321,-1.7865747213363647,-2.2941734790802,1.5859110355377195,-0.0425728745758533
710,-1.5798295736312866,-0.7419726252555847,-1.786604642868042,-2.294067144393921,1.5859447717666626,-0.0426350645720958
711,-1.579856038093567,-0.7419443130493164,-1.786634922027588,-2.2939603328704834,1.585978388786316,-0.0426978282630443
712,-1.579882025718689,-0.7419158816337585,-1.786664962768555,-2.293853759765625,1.586012363433838,-0.0427599661052227
713,-1.57990825176239,-0.7418875694274902,-1.7866950035095217,-2.2937471866607666,1.5860460996627808,-0.0428224876523017
714,-1.5799344778060913,-0.7418592572212219,-1.7867252826690674,-2.293640613555908,1.586079716682434,-0.0428849272429943
715,-1.5799607038497925,-0.7418308258056641,-1.7867553234100342,-2.29353404045105,1.586113691329956,-0.0429473929107189
716,-1.579986572265625,-0.7418023943901062,-1.786785364151001,-2.2934274673461914,1.586147427558899,-0.0430094711482524
717,-1.5800127983093262,-0.7417740225791931,-1.7868156433105469,-2.293320894241333,1.5861812829971311,-0.0430718846619129
718,-1.5800386667251587,-0.7417455315589905,-1.7868456840515137,-2.2932145595550537,1.5862151384353638,-0.0431340336799621
719,-1.580065131187439,-0.7417173981666565,-1.7868757247924805,-2.293107748031616,1.5862489938735962,-0.0431966409087181
720,-1.5800909996032717,-0.7416888475418091,-1.786906123161316,-2.2930009365081787,1.5862828493118286,-0.0432587303221225
721,-1.5801169872283936,-0.7416604161262512,-1.7869362831115725,-2.2928943634033203,1.586316704750061,-0.0433209352195262
722,-1.5801430940628052,-0.7416321635246277,-1.78696608543396,-2.292788028717041,1.586350679397583,-0.0433832220733165
723,-1.5801692008972168,-0.741603672504425,-1.786996603012085,-2.2926812171936035,1.5863845348358154,-0.0434455201029777
724,-1.5801951885223389,-0.7415753602981567,-1.7870265245437622,-2.292574644088745,1.5864185094833374,-0.0435076989233493
725,-1.5802209377288818,-0.7415467500686646,-1.787056803703308,-2.292468309402466,1.5864523649215698,-0.0435696691274642
726,-1.580247163772583,-0.7415183782577515,-1.787087082862854,-2.2923614978790283,1.5864863395690918,-0.0436320826411247
727,-1.580272912979126,-0.7414899468421936,-1.7871172428131104,-2.29225492477417,1.5865201950073242,-0.0436940230429172
728,-1.5802990198135376,-0.7414617538452148,-1.787147045135498,-2.29214859008789,1.5865541696548462,-0.0437562577426433
729,-1.5803251266479492,-0.7414332628250122,-1.7871774435043335,-2.292042016983032,1.5865881443023682,-0.0438185557723045
730,-1.5803508758544922,-0.7414048910140991,-1.7872077226638794,-2.2919352054595947,1.5866222381591797,-0.0438805036246776
731,-1.5803768634796145,-0.741376519203186,-1.7872377634048462,-2.2918288707733154,1.5866562128067017,-0.0439426228404045
732,-1.5804026126861572,-0.7413479685783386,-1.7872681617736816,-2.291721820831299,1.5866901874542236,-0.0440046302974224
733,-1.5804283618927002,-0.7413195371627808,-1.787298321723938,-2.2916152477264404,1.5867241621017456,-0.0440664812922477
734,-1.5804543495178225,-0.7412911057472229,-1.7873284816741943,-2.291508913040161,1.5867582559585571,-0.0441286377608776
735,-1.5804800987243652,-0.7412627339363098,-1.7873587608337402,-2.2914023399353027,1.586792230606079,-0.0441905558109283
736,-1.5805059671401978,-0.7412341833114624,-1.7873889207839966,-2.2912957668304443,1.5868263244628906,-0.0442526191473007
737,-1.5805317163467407,-0.7412058115005493,-1.7874191999435425,-2.291188955307007,1.5868602991104126,-0.044314507395029
738,-1.5805575847625732,-0.7411773800849915,-1.7874493598937988,-2.2910826206207275,1.5868942737579346,-0.0443764477968215
739,-1.5805833339691162,-0.7411489486694336,-1.7874794006347656,-2.290976047515869,1.586928367614746,-0.0444384030997753
740,-1.5806092023849487,-0.741120457649231,-1.787509799003601,-2.2908694744110107,1.5869625806808472,-0.0445004105567932
741,-1.5806350708007812,-0.7410921454429626,-1.7875399589538574,-2.290762662887573,1.5869965553283691,-0.0445623621344566
742,-1.5806604623794556,-0.74106365442276,-1.787570238113403,-2.290656328201294,1.5870306491851809,-0.044623989611864
743,-1.5806862115859983,-0.7410351634025574,-1.78760027885437,-2.2905497550964355,1.5870648622512815,-0.04468584805727
744,-1.580712080001831,-0.7410067915916443,-1.787630558013916,-2.290443181991577,1.5870990753173828,-0.0447478331625461
745,-1.580737829208374,-0.7409783601760864,-1.7876609563827517,-2.29033637046814,1.5871330499649048,-0.04480966553092
746,-1.580763339996338,-0.7409499883651733,-1.7876909971237185,-2.2902300357818604,1.5871671438217163,-0.0448713190853595
747,-1.5807889699935913,-0.7409214377403259,-1.7877211570739746,-2.290123701095581,1.587201476097107,-0.0449330694973468
748,-1.5808145999908447,-0.7408928871154785,-1.7877516746520996,-2.290016889572144,1.5872355699539185,-0.0449948385357856
749,-1.580840229988098,-0.7408644556999207,-1.7877819538116455,-2.289910316467285,1.5872697830200195,-0.0450565926730632
750,-1.580865740776062,-0.7408359050750732,-1.7878122329711914,-2.2898037433624268,1.587303876876831,-0.0451182164251804
751,-1.580891489982605,-0.7408075332641602,-1.7878425121307373,-2.2896971702575684,1.5873382091522217,-0.0451800487935543
752,-1.5809168815612793,-0.7407790422439575,-1.7878726720809937,-2.28959059715271,1.5873723030090332,-0.0452415645122528
753,-1.5809426307678225,-0.7407506108283997,-1.787903070449829,-2.289484024047852,1.5874065160751345,-0.0453034043312072
754,-1.580968141555786,-0.740722119808197,-1.787933349609375,-2.289377450942993,1.587440848350525,-0.0453649498522281
755,-1.58099365234375,-0.7406937479972839,-1.7879633903503418,-2.2892708778381348,1.587475061416626,-0.0454266443848609
756,-1.5810189247131348,-0.740665078163147,-1.7879940271377563,-2.2891643047332764,1.5875093936920166,-0.0454880446195602
757,-1.5810446739196775,-0.7406366467475891,-1.7880244255065918,-2.289057731628418,1.5875436067581177,-0.0455498248338699
758,-1.581070065498352,-0.7406081557273865,-1.7880544662475586,-2.28895115852356,1.5875779390335083,-0.045611310750246
759,-1.5810954570770264,-0.7405797243118286,-1.788084626197815,-2.2888448238372803,1.5876121520996094,-0.0456727668642997
760,-1.5811206102371216,-0.7405511140823364,-1.78811514377594,-2.288738489151001,1.587646484375,-0.0457340106368064
761,-1.5811463594436646,-0.7405228018760681,-1.7881453037261963,-2.2886316776275635,1.5876808166503906,-0.0457958914339542
762,-1.5811717510223389,-0.7404941916465759,-1.7881758213043213,-2.288524866104126,1.5877151489257812,-0.0458573214709758
763,-1.5811971426010132,-0.7404657006263733,-1.7882061004638672,-2.2884185314178467,1.587749481201172,-0.0459187775850296
764,-1.5812225341796875,-0.7404372096061707,-1.788236379623413,-2.2883119583129883,1.5877838134765625,-0.0459802076220512
765,-1.5812479257583618,-0.7404088377952576,-1.78826642036438,-2.288205623626709,1.5878181457519531,-0.0460416749119758
766,-1.581273317337036,-0.7403802871704102,-1.7882969379425049,-2.2880990505218506,1.5878525972366333,-0.0461031310260295
767,-1.5812987089157104,-0.7403517365455627,-1.78832745552063,-2.287992238998413,1.587886929512024,-0.0461645349860191
768,-1.5813236236572266,-0.7403230667114258,-1.7883577346801758,-2.287885904312134,1.587921380996704,-0.0462255552411079
769,-1.5813490152359009,-0.7402946949005127,-1.7883880138397217,-2.2877793312072754,1.5879557132720947,-0.0462870188057422
770,-1.5813744068145752,-0.7402661442756653,-1.788418531417847,-2.287672519683838,1.5879900455474854,-0.0463484153151512
771,-1.5813994407653809,-0.7402375340461731,-1.7884490489959717,-2.2875661849975586,1.5880244970321655,-0.046409498900175
772,-1.5814248323440552,-0.7402090430259705,-1.7884790897369385,-2.2874596118927,1.5880589485168457,-0.0464709624648094
773,-1.58145010471344,-0.7401805520057678,-1.7885096073150637,-2.287353038787842,1.588093400001526,-0.0465322583913803
774,-1.5814752578735352,-0.7401520609855652,-1.7885398864746094,-2.2872467041015625,1.5881279706954956,-0.0465934760868549
775,-1.5815002918243408,-0.7401235103607178,-1.7885704040527344,-2.287139892578125,1.5881624221801758,-0.0466544739902019
776,-1.581525444984436,-0.7400949597358704,-1.7886006832122805,-2.2870335578918457,1.5881967544555664,-0.0467157624661922
777,-1.5815505981445312,-0.740066409111023,-1.7886310815811155,-2.2869269847869877,1.588231325149536,-0.0467768795788288
778,-1.581575870513916,-0.7400379180908203,-1.7886614799499512,-2.286820411682129,1.5882657766342163,-0.0468381755053997
779,-1.5816009044647217,-0.7400093674659729,-1.7886919975280762,-2.2867138385772705,1.588300347328186,-0.0468991920351982
780,-1.5816259384155271,-0.7399808168411255,-1.7887223958969116,-2.286607503890991,1.5883349180221558,-0.0469602793455123
781,-1.581650972366333,-0.7399522662162781,-1.788752555847168,-2.286500930786133,1.588369369506836,-0.0470213629305362
782,-1.5816761255264282,-0.7399237155914307,-1.788782835006714,-2.286394596099853,1.5884039402008057,-0.0470825135707855
783,-1.581701159477234,-0.7398951053619385,-1.7888133525848389,-2.286288022994995,1.5884385108947754,-0.0471435599029064
784,-1.58172607421875,-0.7398665547370911,-1.788843870162964,-2.2861814498901367,1.5884729623794556,-0.047204416245222
785,-1.5817511081695557,-0.7398380041122437,-1.788874268531799,-2.2860748767852783,1.5885076522827148,-0.0472654402256011
786,-1.581776142120361,-0.7398094534873962,-1.7889046669006348,-2.28596830368042,1.588542103767395,-0.0473264977335929
787,-1.5818010568618774,-0.7397809028625488,-1.7889349460601809,-2.2858619689941406,1.5885767936706543,-0.0473874397575855
788,-1.581826090812683,-0.7397522926330566,-1.7889657020568848,-2.285755157470703,1.588611364364624,-0.0474484972655773
789,-1.5818510055541992,-0.7397237420082092,-1.7889959812164309,-2.285648822784424,1.5886460542678833,-0.0475094057619571
790,-1.5818756818771362,-0.7396950721740723,-1.7890264987945557,-2.285542249679565,1.588680624961853,-0.0475699938833713
791,-1.5819008350372314,-0.7396665811538696,-1.7890568971633911,-2.285435914993286,1.5887153148651123,-0.0476311184465885
792,-1.581925868988037,-0.7396379709243774,-1.789087414741516,-2.2853291034698486,1.5887500047683716,-0.0476921238005161
793,-1.581950545310974,-0.7396094799041748,-1.7891175746917725,-2.2852230072021484,1.5887844562530518,-0.0477528236806392
794,-1.581975340843201,-0.7395808696746826,-1.7891480922698977,-2.285116195678711,1.5888192653656006,-0.0478135906159877
795,-1.5820003747940063,-0.7395523190498352,-1.7891786098480225,-2.285009860992432,1.5888538360595703,-0.0478746220469474
796,-1.5820249319076538,-0.7395236492156982,-1.7892091274261477,-2.284903287887573,1.5888886451721191,-0.0479350909590721
797,-1.58204984664917,-0.739495038986206,-1.7892396450042725,-2.284796714782715,1.5889233350753784,-0.0479959845542907
798,-1.582074522972107,-0.7394664883613586,-1.7892699241638184,-2.2846903800964355,1.5889580249786377,-0.048056598752737
799,-1.5820993185043335,-0.7394378781318665,-1.7893006801605225,-2.284583568572998,1.588992714881897,-0.0481173731386661
800,-1.5821239948272705,-0.7394092679023743,-1.7893309593200684,-2.2844772338867188,1.5890275239944458,-0.0481779910624027
801,-1.5821486711502075,-0.7393805980682373,-1.7893614768981934,-2.2843708992004395,1.5890623331069946,-0.0482386387884616
802,-1.582173466682434,-0.7393519282341003,-1.7893919944763184,-2.284264087677002,1.5890969038009644,-0.048299416899681
803,-1.5821980237960815,-0.7393233180046082,-1.7894227504730225,-2.284157514572144,1.5891317129135132,-0.0483599230647087
804,-1.5822229385375977,-0.7392947673797607,-1.7894530296325684,-2.2840511798858643,1.5891666412353516,-0.0484207160770893
805,-1.5822473764419556,-0.7392661571502686,-1.7894835472106934,-2.283944606781006,1.5892013311386108,-0.0484810508787632
806,-1.582272171974182,-0.7392375469207764,-1.7895140647888184,-2.2838382720947266,1.5892361402511597,-0.0485418476164341
807,-1.58229660987854,-0.739208996295929,-1.7895443439483645,-2.2837319374084477,1.5892709493637085,-0.0486021786928176
808,-1.582321286201477,-0.7391802072525024,-1.7895749807357788,-2.283625364303589,1.589305758476257,-0.0486627742648124
809,-1.5823458433151243,-0.7391515970230103,-1.789605736732483,-2.283518552780152,1.5893406867980957,-0.04872328042984
810,-1.5823702812194824,-0.7391230463981628,-1.7896358966827393,-2.283412456512451,1.589375376701355,-0.048783641308546
811,-1.5823949575424194,-0.7390943765640259,-1.7896665334701538,-2.2833058834075928,1.5894103050231934,-0.0488441810011863
812,-1.5824193954467771,-0.7390658259391785,-1.7896969318389893,-2.2831993103027344,1.5894451141357422,-0.0489046014845371
813,-1.5824439525604248,-0.7390370965003967,-1.7897276878356934,-2.283092737197876,1.5894800424575806,-0.048964999616146
814,-1.5824683904647827,-0.739008367061615,-1.7897584438323977,-2.2829864025115967,1.5895148515701294,-0.049025360494852
815,-1.5824928283691406,-0.738979697227478,-1.789788842201233,-2.2828800678253174,1.5895497798919678,-0.0490857847034931
816,-1.582517147064209,-0.7389510869979858,-1.789819359779358,-2.28277325630188,1.5895847082138062,-0.0491459034383297
817,-1.5825419425964355,-0.7389224767684937,-1.789849877357483,-2.2826669216156006,1.589619755744934,-0.0492066629230976
818,-1.5825661420822144,-0.7388938069343567,-1.7898805141448977,-2.2825605869293213,1.589654564857483,-0.049266692250967
819,-1.5825904607772827,-0.7388651371002197,-1.7899110317230225,-2.282453775405884,1.5896896123886108,-0.0493269115686416
820,-1.582614779472351,-0.7388364672660828,-1.7899415493011477,-2.2823479175567627,1.5897244215011597,-0.0493871644139289
821,-1.582639217376709,-0.738807737827301,-1.7899723052978516,-2.282241106033325,1.589759349822998,-0.0494474954903125
822,-1.5826635360717771,-0.7387791275978088,-1.7900028228759766,-2.282134771347046,1.5897945165634155,-0.0495076589286327
823,-1.5826876163482666,-0.7387503385543823,-1.7900334596633911,-2.2820279598236084,1.589829444885254,-0.0495676100254058
824,-1.5827120542526243,-0.7387216687202454,-1.7900640964508057,-2.281921625137329,1.5898643732070925,-0.0496279187500476
825,-1.582736253738403,-0.7386929988861084,-1.7900946140289309,-2.28181529045105,1.5898993015289309,-0.0496880188584327
